(1001)
(T4  D=1.444 CR=0.795 TAPER=5.5DEG - TAPERED MILL)
G90 G94 G91.1 G40 G49 G17
G21
G28 G91 Z0.
G90

(PLUNGE 3)
M5
M9
T4
S18000 M3
G54
G0 A90.
G0 X-0.206 Y349.
G43 Z21.249 H4
A90.
X-0.195 Z20.127
G1 X-0.176 Z18.127 F833.
Z16.127 F1200.
X0.09 Z14.893
X0.886 Z13.837
X2. Z13.243
G93 Z13.238 A75.456 F469.9187
Z13.226 A63.833 F586.7318
Z13.251 A52.21 F583.3026
Z13.317 A40.589 F571.8756
Z13.376 A28.988 F571.9282
Z13.346 A17.4 F578.4075
Z13.33 A5.805 F582.4756
Z13.309 A-5.795 F581.838
Z13.287 A-17.398 F582.4757
Z13.295 A-25.138 F877.2152
Z13.297 A-36.746 F586.9218
Z13.3 A-48.353 F586.6477
Z13.301 A-59.96 F587.0277
Z13.305 A-71.567 F585.9942
Z13.358 A-79.303 F852.8161
Z13.322 A-80.723 F4314.6593
Z13.294 A-82.155 F4394.2269
Z13.276 A-83.598 F4480.0038
Z13.266 A-85.05 F4572.3924
Z13.273 A-87.971 F2315.542
Z13.314 A-90.904 F2188.8971
Z13.308 A-102.51 F585.2486
Z13.31 A-125.724 F293.2898
Z13.313 A-137.332 F586.0117
A-148.939 F586.6601
Z13.308 A-160.546 F585.6831
Z13.316 A-172.152 F584.9609
Z13.368 A-179.886 F852.2453
Z13.364 A-191.482 F583.9354
Z13.366 A-214.674 F292.3504
Z13.368 A-226.27 F584.4575
A-237.866 F584.8439
Z13.364 A-249.461 F583.9325
Z13.352 A-261.056 F582.677
Z13.304 A-262.559 F3980.5876
Z13.266 A-264.076 F4054.5862
Y349.001 Z13.219 A-267.151 F2086.8509
Z13.212 A-270.264 F2182.3692
Y349.002 Z13.246 A-273.396 F2090.1746
Y349.008 Z13.232 A-284.544 F610.322
Y349.015 Z13.216 A-296.168 F585.6672
Y349.021 Z13.236 A-307.795 F584.4409
Y349.027 Z13.304 A-319.418 F571.969
Y349.034 Z13.354 A-331.023 F574.426
Y349.04 Z13.31 A-342.617 F576.094
Y349.047 Z13.296 A-354.221 F583.7026
Y349.053 Z13.273 A-365.829 F582.27
Y349.06 Z13.248 A-377.441 F582.6916
Y349.064 Z13.252 A-385.188 F880.2302
Y349.068 Z13.277 A-392.932 F869.3619
Y349.075 Z13.271 A-404.551 F585.6802
Y349.081 Z13.267 A-416.171 F586.2165
Y349.088 A-427.792 F586.5518
Y349.094 Z13.293 A-439.413 F581.1549
Y349.095 Z13.257 A-440.835 F4325.7732
Y349.096 Z13.229 A-442.269 F4405.3985
Y349.097 Z13.21 A-443.714 F4491.2036
Z13.2 A-445.167 F4583.4837
Y349.099 Z13.206 A-448.093 F2324.9123
Y349.101 Z13.247 A-451.03 F2197.82
Y349.107 Z13.236 A-462.654 F586.0114
Y349.113 Z13.231 A-474.279 F587.3007
Y349.12 Z13.229 A-485.905 F587.7944
Y349.126 Z13.228 A-497.532 F587.8337
Y349.133 Z13.223 A-509.161 F587.6146
Y349.139 Z13.215 A-520.79 F587.1818
Y349.146 Z13.222 A-532.419 F587.429
Y349.15 Z13.242 A-540.17 F873.1532
Y349.157 Z13.23 A-551.796 F585.7797
Y349.163 Z13.224 A-563.425 F587.2082
Y349.169 Z13.221 A-575.056 F587.8307
Y349.176 Z13.219 A-586.688 F587.8707
Y349.182 Z13.213 A-598.322 F587.4995
Y349.189 Z13.21 A-609.956 F588.1638
Y349.193 Z13.237 A-617.711 F869.9671
Y349.194 Z13.166 A-619.604 F3116.6453
Y349.195 Z13.11 A-621.525 F3187.3113
Y349.196 Z13.071 A-623.469 F3265.6635
Y349.198 Z13.047 A-625.434 F3352.4291
Y349.199 Z13.039 A-627.414 F3448.1801
Y349.2 Z13.047 A-629.404 F3428.4513
Y349.202 Z13.111 A-633.396 F1618.7997
Y349.208 Z13.082 A-644.568 F611.7433
Y349.215 Z13.073 A-656.23 F591.4589
Y349.223 Z13.169 A-671.782 F431.0665
Y349.23 Z13.223 A-683.427 F577.1298
Y349.236 Z13.197 A-695.057 F583.6349
Y349.243 Z13.149 A-706.692 F579.9308
Y349.249 Z13.167 A-718.339 F586.8348
Y349.256 Z13.157 A-729.985 F588.4572
Y349.262 Z13.153 A-741.635 F589.6401
Y349.268 Z13.148 A-753.287 F589.6221
Y349.275 Z13.143 A-764.941 F589.7301
Y349.281 Z13.139 A-776.595 F590.0336
Y349.288 Z13.136 A-788.251 F590.21
Y349.294 Z13.15 A-799.906 F587.7961
Y349.295 Z13.115 A-801.332 F4365.04
Y349.296 Z13.088 A-802.771 F4445.7948
Y349.297 Z13.07 A-804.22 F4532.8334
Y349.298 Z13.061 A-805.678 F4626.4607
Y349.299 Z13.068 A-808.612 F2337.1408
Y349.301 Z13.11 A-811.558 F2209.2939
Y349.307 Z13.1 A-823.215 F590.3166
Y349.314 Z13.094 A-834.874 F591.4882
Y349.32 Z13.092 A-846.533 F592.0042
Y349.327 Z13.09 A-858.194 F592.1095
Y349.333 Z13.086 A-869.856 F592.0018
Y349.34 Z13.08 A-881.519 F591.8329
Y349.346 Z13.092 A-893.182 F590.5355
Y349.353 Z13.044 A-904.844 F583.1067
Y349.357 Z13.054 A-912.625 F886.7657
Y349.363 Z13.047 A-924.297 F592.6479
Y349.37 Z13.043 A-935.971 F593.2926
Y349.376 Z13.04 A-947.646 F593.4398
Y349.383 Z13.034 A-959.323 F593.239
Y349.389 Z13.047 A-971. F591.5236
Y349.394 Z13.1 A-978.783 F863.4009
Y349.395 Z13.035 A-980.548 F3378.3548
Y349.396 Z12.983 A-982.338 F3449.4959
Y349.397 Z12.945 A-984.149 F3527.8351
Y349.398 Z12.92 A-985.978 F3613.992
Y349.399 Z12.909 A-987.821 F3708.5449
Y349.4 Z12.912 A-989.674 F3757.8432
Y349.402 Z12.96 A-993.396 F1779.4978
Y349.408 Z12.933 A-1004.594 F617.6836
Y349.415 Z12.93 A-1016.295 F597.1182
Y349.421 Z13.015 A-1027.996 F576.8148
Y349.425 Z13.074 A-1035.785 F861.3845
Y349.432 Z13.063 A-1047.454 F591.2954
Y349.438 Z13.032 A-1059.125 F587.4694
Y349.445 Z13.003 A-1070.805 F588.593
Y349.449 Z13.032 A-1078.595 F877.8895
Y349.456 Z13.024 A-1090.278 F592.8589
Y349.462 Z13.02 A-1101.963 F593.6253
Y349.469 Z13.016 A-1113.65 F593.8088
Y349.475 Z13.011 A-1125.338 F593.9038
Y349.482 Z13.007 A-1137.028 F594.0044
Y349.488 Z13. A-1148.718 F593.7883
Y349.495 Z13.006 A-1160.408 F594.0514
Z12.972 A-1161.839 F4410.3026
Y349.496 Z12.946 A-1163.282 F4492.5412
Y349.497 Z12.929 A-1164.736 F4581.1949
Y349.498 Z12.921 A-1166.198 F4676.5125
Y349.5 Z12.931 A-1169.141 F2346.6972
Y349.501 Z12.975 A-1172.094 F2218.6021
Y349.505 Z13. A-1179.887 F881.9114
Y349.512 Z12.996 A-1191.579 F594.4172
Y349.518 Z12.992 A-1203.272 F594.4967
Y349.525 Z12.987 A-1214.967 F594.6105
Y349.531 Z12.983 A-1226.662 F594.8305
Y349.538 Z12.978 A-1238.359 F594.8475
Y349.544 Z12.966 A-1250.056 F593.8282
Y349.551 Z12.892 A-1261.755 F581.0806
Y349.555 Z12.914 A-1269.562 F887.2505
Y349.562 Z12.909 A-1281.277 F597.0125
Y349.568 Z12.904 A-1292.993 F597.0329
Y349.575 Z12.898 A-1304.711 F597.1963
Y349.581 Z12.893 A-1316.43 F597.5301
Y349.588 Z12.888 A-1328.15 F597.6097
Y349.594 Z12.941 A-1339.868 F585.7962
Y349.595 Z12.883 A-1341.506 F3703.9691
Y349.596 Z12.837 A-1343.165 F3776.6717
Y349.597 Z12.802 A-1344.841 F3856.1278
Y349.598 Z12.779 A-1346.534 F3942.9108
Y349.6 Z12.768 A-1349.952 F2043.1725
Y349.602 Z12.803 A-1353.396 F1964.1971
Y349.608 Z12.782 A-1364.62 F624.92
Y349.615 Z12.824 A-1376.36 F592.2748
Y349.621 Z12.897 A-1388.092 F582.85
Y349.625 Z12.93 A-1395.901 F880.7208
Y349.632 Z12.903 A-1407.608 F592.5478
Y349.639 Z12.876 A-1419.321 F592.9907
Y349.645 Z12.854 A-1431.042 F595.3247
Y349.649 Z12.897 A-1438.858 F877.7362
Y349.656 Z12.89 A-1450.577 F597.1932
Y349.662 Z12.884 A-1462.298 F597.7436
Y349.669 Z12.881 A-1474.02 F598.1324
Y349.675 Z12.877 A-1485.743 F598.2295
Y349.682 Z12.872 A-1497.467 F598.136
Y349.688 Z12.862 A-1509.192 F597.522
Y349.695 Z12.854 A-1520.918 F598.4365
Y349.699 Z12.87 A-1528.733 F892.0545
Y349.701 Z12.817 A-1531.62 F2254.3904
Y349.703 Z12.798 A-1534.547 F2347.3469
Z12.802 A-1536.021 F4749.6885
Y349.704 Z12.814 A-1537.499 F4615.2393
Y349.705 Z12.835 A-1538.979 F4490.6365
Y349.706 Z12.864 A-1540.459 F4375.7322
Y349.712 Z12.858 A-1552.186 F598.4859
Y349.719 Z12.854 A-1563.915 F598.8823
Y349.725 Z12.85 A-1575.646 F598.9897
Y349.732 Z12.844 A-1587.377 F598.9137
Y349.738 Z12.833 A-1599.11 F598.1504
Y349.745 Z12.808 A-1610.843 F595.749
Y349.751 Z12.721 A-1622.583 F583.4296
Y349.756 Z12.748 A-1630.42 F892.8272
Y349.762 Z12.741 A-1642.178 F602.0367
Y349.769 Z12.736 A-1653.938 F602.5665
Y349.775 Z12.731 A-1665.7 F602.7089
Y349.782 Z12.724 A-1677.462 F602.5416
Y349.788 Z12.719 A-1689.226 F603.0716
Y349.793 Z12.788 A-1697.068 F869.154
Y349.8 Z12.65 A-1710. F522.9558
Y349.806 Z12.652 A-1720.719 F665.967
Y349.813 Z12.701 A-1732.501 F594.0538
Y349.819 Z12.763 A-1744.268 F589.0575
Y349.826 Z12.762 A-1756.019 F602.3388
Y349.832 Z12.742 A-1767.77 F599.2716
Y349.839 Z12.718 A-1779.527 F598.8692
Y349.845 Z12.707 A-1791.288 F602.4131
Y349.85 Z12.753 A-1799.13 F882.3657
Y349.856 Z12.743 A-1810.887 F601.1925
Y349.863 Z12.735 A-1822.646 F602.1544
Y349.869 Z12.731 A-1834.406 F602.893
Y349.876 Z12.726 A-1846.168 F603.0132
Y349.882 Z12.718 A-1857.931 F602.6562
Y349.889 Z12.706 A-1869.695 F602.002
Y349.895 Z12.681 A-1881.461 F599.8469
Y349.9 Z12.709 A-1889.306 F893.8734
Y349.901 Z12.654 A-1892.203 F2269.0867
Y349.902 Z12.639 A-1893.667 F4678.1973
Y349.903 Z12.633 A-1895.14 F4776.9416
Y349.904 Z12.636 A-1896.619 F4804.3315
Y349.905 Z12.647 A-1898.102 F4667.0655
Z12.667 A-1899.588 F4539.6884
Y349.906 Z12.695 A-1901.075 F4422.2512
Y349.913 Z12.687 A-1912.845 F603.5422
Y349.919 Z12.682 A-1924.618 F604.3882
Y349.926 Z12.677 A-1936.392 F604.548
Y349.932 Z12.668 A-1948.167 F604.2351
Y349.939 Z12.656 A-1959.944 F603.8307
Y349.943 Z12.672 A-1967.795 F901.8439
Y349.95 Z12.584 A-1979.575 F587.0189
Y349.956 Z12.57 A-1991.374 F606.1348
Y349.963 Z12.562 A-2003.176 F607.7615
Y349.969 Z12.557 A-2014.981 F608.5901
Y349.976 Z12.552 A-2026.787 F608.7906
Y349.983 Z12.544 A-2038.594 F608.5986
Y349.989 Z12.555 A-2050.402 F607.7175
Y349.993 Z12.635 A-2058.272 F870.7341
Y349.995 Z12.567 A-2060.094 F3369.5743
Y349.996 Z12.513 A-2061.943 F3441.6829
Y349.997 Z12.473 A-2063.816 F3521.351
Y349.998 Z12.447 A-2065.709 F3609.3082
Y349.999 Z12.435 A-2067.617 F3706.1608
Y350. Z12.438 A-2069.538 F3764.3819
Y350.002 Z12.486 A-2073.396 F1778.513
Y350.01 Z12.552 A-2088.616 F464.7579
Y350.017 Z12.607 A-2100.421 F595.7708
Y350.023 Z12.6 A-2112.213 F606.8363
Y350.03 Z12.584 A-2124.008 F605.2615
Y350.037 Z12.579 A-2135.807 F607.7722
Y350.043 Z12.577 A-2147.609 F608.2794
Y350.05 Z12.578 A-2159.411 F608.2609
Y350.056 Z12.563 A-2171.214 F606.0579
Y350.063 Z12.554 A-2183.019 F607.7935
Y350.069 Z12.548 A-2194.826 F608.6835
Y350.076 Z12.542 A-2206.634 F608.9148
Y350.082 Z12.533 A-2218.445 F608.6995
Y350.089 Z12.526 A-2230.256 F609.1798
Y350.096 Z12.505 A-2242.069 F606.7794
Z12.473 A-2243.515 F4545.8535
Y350.097 Z12.449 A-2244.974 F4631.5982
Y350.099 Z12.427 A-2247.922 F2385.2638
Y350.101 Z12.439 A-2250.897 F2400.6968
Y350.102 Z12.485 A-2253.883 F2268.6933
Y350.109 Z12.476 A-2265.702 F610.8019
Y350.113 Z12.487 A-2273.584 F913.8269
Y350.12 Z12.48 A-2285.407 F611.0021
Y350.126 Z12.475 A-2297.232 F611.2871
Y350.133 Z12.467 A-2309.058 F611.2228
Y350.139 Z12.458 A-2320.886 F611.2383
Y350.144 Z12.478 A-2328.77 F909.5184
Y350.15 Z12.406 A-2340.6 F596.6829
Y350.157 Z12.393 A-2352.445 F612.5347
Y350.163 Z12.385 A-2364.292 F613.9454
Y350.168 Z12.41 A-2372.189 F910.046
Y350.174 Z12.405 A-2384.039 F613.4871
Y350.181 Z12.4 A-2395.889 F613.7879
Y350.188 Z12.394 A-2407.741 F613.6495
Y350.194 Z12.45 A-2419.591 F600.4918
Y350.195 Z12.371 A-2421.656 F3002.2216
Y350.197 Z12.31 A-2423.756 F3074.7694
Y350.198 Z12.267 A-2425.887 F3156.0682
Y350.199 Z12.242 A-2428.042 F3247.0086
Y350.2 Z12.235 A-2430.217 F3348.2229
Y350.201 Z12.246 A-2432.405 F3298.4504
Y350.204 Z12.323 A-2436.792 F1549.0041
Y350.21 Z12.424 A-2448.658 F590.9229
Y350.217 Z12.437 A-2460.498 F611.3603
Y350.224 Z12.426 A-2472.335 F611.7499
Y350.23 Z12.419 A-2484.176 F613.0252
Y350.237 Z12.423 A-2496.019 F613.4304
Y350.243 Z12.425 A-2507.863 F613.3827
Y350.25 Z12.377 A-2519.708 F603.7898
Y350.256 Z12.362 A-2531.563 F612.8517
Y350.263 Z12.352 A-2543.42 F614.5742
Y350.27 Z12.346 A-2555.28 F615.4874
Y350.276 Z12.339 A-2567.141 F615.8126
Y350.283 Z12.331 A-2579.003 F615.7892
Y350.289 Z12.343 A-2590.867 F614.7047
Y350.296 Z12.331 A-2602.728 F614.8084
Y350.298 Z12.271 A-2605.642 F2301.2647
Y350.299 Z12.245 A-2608.601 F2394.3654
Y350.301 Z12.253 A-2611.589 F2440.0386
Y350.303 Z12.295 A-2614.591 F2303.3314
Y350.307 Z12.296 A-2622.507 F927.3586
Y350.311 Z12.32 A-2630.42 F915.0383
Y350.318 Z12.314 A-2642.294 F616.4299
Y350.325 Z12.308 A-2654.17 F616.6292
Y350.331 Z12.302 A-2666.048 F616.8649
Y350.338 Z12.292 A-2677.926 F616.3902
Y350.344 Z12.281 A-2689.807 F616.661
Y350.351 Z12.231 A-2701.687 F608.3085
Y350.355 Z12.256 A-2709.612 F918.1969
Y350.362 Z12.248 A-2721.503 F618.4598
Y350.369 Z12.242 A-2733.396 F618.9505
Y350.375 Z12.236 A-2745.29 F619.1605
Y350.382 Z12.227 A-2757.186 F618.8853
Y350.388 Z12.225 A-2769.083 F620.2479
Y350.393 Z12.291 A-2777.013 F894.0875
Y350.394 Z12.199 A-2779.378 F2640.4398
Y350.396 Z12.13 A-2781.791 F2713.4935
Y350.397 Z12.084 A-2784.244 F2796.7629
Y350.398 Z12.062 A-2786.728 F2891.4353
Y350.4 Z12.064 A-2789.235 F2979.3306
Y350.401 Z12.089 A-2791.754 F2836.8081
Y350.402 Z12.138 A-2794.277 F2710.6404
Y350.404 Z12.21 A-2796.792 F2600.9345
Y350.41 Z12.271 A-2808.693 F605.1473
Y350.417 Z12.257 A-2820.575 F616.9448
Y350.424 Z12.248 A-2832.46 F618.2715
Y350.43 Z12.245 A-2844.35 F619.5742
Y350.437 Z12.248 A-2856.242 F619.5232
Y350.443 Z12.243 A-2868.134 F619.1415
Y350.45 Z12.176 A-2880.03 F605.5919
Y350.457 Z12.162 A-2891.938 F620.0057
Y350.463 Z12.152 A-2903.848 F621.6317
Y350.47 Z12.145 A-2915.76 F622.5237
Y350.476 Z12.138 A-2927.674 F622.9315
Y350.481 Z12.164 A-2935.616 F922.5499
Y350.488 Z12.155 A-2947.533 F621.5456
Y350.494 Z12.171 A-2959.448 F619.6741
Y350.495 Z12.134 A-2960.901 F4571.3651
Y350.496 Z12.105 A-2962.368 F4654.8757
Y350.497 Z12.085 A-2963.847 F4745.0878
Z12.073 A-2965.337 F4842.3591
Y350.499 Z12.074 A-2968.339 F2485.5421
Y350.501 Z12.11 A-2971.359 F2344.3196
Y350.505 Z12.134 A-2979.306 F924.9532
Y350.512 Z12.126 A-2991.231 F622.5908
Y350.518 Z12.118 A-3003.157 F623.0695
Y350.525 Z12.111 A-3015.086 F623.3125
Y350.532 Z12.101 A-3027.016 F623.0088
Y350.538 Z12.086 A-3038.947 F622.5051
Y350.545 Z12.089 A-3050.88 F625.089
Y350.552 Z12.062 A-3062.81 F620.267
Y350.558 Z12.054 A-3074.744 F625.5717
Y350.565 Z12.047 A-3086.681 F626.2148
Y350.571 Z12.041 A-3098.62 F626.7163
Y350.578 Z12.038 A-3110.56 F627.1467
Y350.583 Z12.047 A-3118.522 F937.4613
Y350.589 Z12.064 A-3130.464 F623.2849
Y350.594 Z12.106 A-3138.422 F915.6495
Y350.595 Z12.033 A-3140.634 F2922.4656
Y350.596 Z11.978 A-3142.884 F3000.6309
Y350.597 Z11.944 A-3145.165 F3088.786
Y350.599 Z11.93 A-3147.471 F3187.9017
Y350.6 Z11.935 A-3149.795 F3222.003
Y350.601 Z11.961 A-3152.128 F3079.1343
Y350.603 Z12.007 A-3154.463 F2953.1299
Y350.604 Z12.072 A-3156.792 F2842.4259
Y350.61 Z12.085 A-3168.731 F623.3045
Y350.617 Z12.052 A-3180.664 F619.014
Y350.624 Z12.046 A-3192.607 F626.0867
Y350.63 Z12.044 A-3204.554 F626.6856
Y350.637 Z12.043 A-3216.502 F626.7991
Y350.644 Z12.03 A-3228.451 F624.827
Y350.65 Z11.976 A-3240.402 F615.7568
Y350.657 Z11.962 A-3252.364 F627.4423
Y350.661 Z11.988 A-3260.338 F931.5529
Y350.668 Z11.981 A-3272.303 F628.1137
Y350.675 Z11.974 A-3284.27 F628.3111
Y350.681 Z11.966 A-3296.239 F628.2701
Y350.688 Z11.956 A-3308.209 F628.4094
Y350.692 Z12.009 A-3316.189 F915.3154
Y350.699 Z11.946 A-3328.148 F614.5088
Y350.701 Z11.892 A-3331.091 F2366.4778
Y350.702 Z11.872 A-3334.079 F2464.1149
Y350.703 Z11.874 A-3335.584 F5017.585
Y350.704 Z11.885 A-3337.094 F4870.5303
Y350.705 Z11.904 A-3338.608 F4733.9652
Y350.706 Z11.932 A-3340.122 F4608.332
Y350.712 Z11.92 A-3352.1 F629.3312
Y350.719 Z11.912 A-3364.08 F630.4507
Y350.726 Z11.904 A-3376.061 F630.8486
Y350.732 Z11.895 A-3388.045 F630.8516
Y350.739 Z11.884 A-3400.029 F631.0507
Y350.746 Z11.903 A-3412.014 F628.7484
Y350.752 Z11.898 A-3423.995 F631.9437
Y350.757 Z11.899 A-3431.982 F948.629
Y350.763 Z11.89 A-3443.964 F631.3383
Y350.768 Z11.917 A-3451.952 F934.7712
Y350.774 Z11.911 A-3463.936 F630.8998
Y350.781 Z11.905 A-3475.922 F630.9416
Y350.788 Z11.897 A-3487.909 F630.8741
Y350.792 Z11.912 A-3495.9 F940.6139
Y350.8 Z11.872 A-3510. F530.9045
Y350.806 Z11.905 A-3520.789 F693.5156
Y350.813 Z11.847 A-3532.772 F619.3296
Y350.819 Z11.828 A-3544.77 F630.8209
Y350.826 Z11.82 A-3556.772 F634.0884
Y350.833 Z11.811 A-3568.777 F634.2837
Y350.839 Z11.803 A-3580.782 F634.7282
Y350.846 Z11.797 A-3592.789 F635.5761
Y350.853 Z11.773 A-3604.798 F631.6092
Y350.859 Z11.767 A-3616.814 F636.7594
Y350.866 Z11.762 A-3628.833 F636.8253
Y350.873 Z11.757 A-3640.853 F637.1234
Y350.879 Z11.755 A-3652.876 F637.6005
Y350.886 Z11.758 A-3664.9 F637.3254
Y350.893 Z11.823 A-3676.924 F619.8383
Y350.899 Z11.743 A-3688.937 F616.8554
Y350.901 Z11.689 A-3691.893 F2393.8437
Y350.903 Z11.669 A-3694.893 F2492.6266
Y350.904 Z11.671 A-3696.406 F5081.5266
Z11.681 A-3697.923 F4931.6829
Y350.905 Z11.7 A-3699.444 F4792.2688
Y350.906 Z11.727 A-3700.966 F4664.0276
Y350.913 Z11.716 A-3712.997 F637.2362
Y350.919 Z11.708 A-3725.03 F638.2781
Y350.926 Z11.701 A-3737.065 F638.777
Y350.933 Z11.694 A-3749.102 F639.0508
Y350.94 Z11.687 A-3761.139 F639.6041
Y350.946 Z11.721 A-3773.177 F631.648
Y350.951 Z11.732 A-3781.201 F953.269
Y350.957 Z11.721 A-3793.228 F637.0897
Y350.964 Z11.713 A-3805.257 F638.1899
Y350.971 Z11.706 A-3817.288 F638.8769
Y350.977 Z11.701 A-3829.321 F639.3835
Y350.984 Z11.698 A-3841.355 F639.8203
Y350.989 A-3849.38 F959.9964
Y350.993 Z11.719 A-3857.404 F948.8419
Y351. Z11.707 A-3870. F609.0484
Y351.006 Z11.681 A-3880.806 F705.8245
Y351.013 Z11.632 A-3892.849 F630.0368
Y351.019 Z11.615 A-3904.906 F639.4203
Y351.026 Z11.607 A-3916.967 F642.2074
Y351.033 Z11.599 A-3929.029 F642.5411
Y351.039 Z11.593 A-3941.093 F643.1836
Y351.046 Z11.6 A-3953.158 F642.9937
Y351.053 Z11.582 A-3965.224 F640.5301
Y351.06 Z11.578 A-3977.295 F644.2115
Y351.066 Z11.574 A-3989.368 F644.1259
Y351.073 Z11.57 A-4001.444 F644.3265
Y351.08 Z11.569 A-4013.521 F644.6941
Y351.086 Z11.571 A-4025.6 F644.5541
Y351.093 Z11.598 A-4037.679 F637.6955
Y351.1 Z11.54 A-4049.749 F630.5459
Y351.102 Z11.487 A-4052.717 F2424.984
Z11.473 A-4054.22 F5000.8162
Y351.103 Z11.467 A-4055.732 F5107.2543
Y351.104 Z11.47 A-4057.251 F5140.4449
Y351.105 Z11.48 A-4058.776 F4987.8143
Y351.106 Z11.499 A-4060.303 F4846.0495
Y351.107 Z11.526 A-4061.832 F4715.7554
Y351.111 Z11.55 A-4069.888 F956.4758
Y351.118 Z11.543 A-4081.974 F644.4581
Y351.124 Z11.535 A-4094.063 F644.6188
Y351.131 Z11.524 A-4106.153 F644.2901
Y351.138 Z11.508 A-4118.245 F643.6955
Y351.145 Z11.513 A-4130.338 F646.5786
Y351.151 Z11.525 A-4142.426 F644.7029
Y351.158 Z11.515 A-4154.51 F645.4552
Y351.165 Z11.507 A-4166.597 F646.1558
Y351.169 Z11.511 A-4174.657 F970.1697
Y351.176 Z11.502 A-4186.748 F646.0672
Y351.183 Z11.493 A-4198.84 F646.4507
Y351.189 Z11.48 A-4210.934 F646.1461
Y351.196 Z11.489 A-4223.029 F647.0608
Y351.198 Z11.45 A-4225.583 F2863.3666
Y351.199 Z11.435 A-4228.169 F2965.9134
Y351.2 Z11.445 A-4230.777 F2971.387
Y351.202 Z11.479 A-4233.396 F2825.1292
Y351.208 Z11.446 A-4244.86 F676.817
Y351.215 Z11.409 A-4256.969 F641.4854
Y351.222 Z11.399 A-4269.086 F650.0327
Y351.228 Z11.396 A-4281.207 F651.5469
Y351.235 Z11.397 A-4293.329 F651.737
Y351.242 Z11.406 A-4305.454 F650.0604
Y351.249 Z11.41 A-4317.579 F650.5391
Y351.255 Z11.393 A-4329.703 F647.9197
Y351.262 Z11.381 A-4341.83 F649.7355
Y351.269 Z11.371 A-4353.96 F650.989
Y351.276 Z11.363 A-4366.091 F651.5872
Y351.282 Z11.354 A-4378.224 F651.9234
Y351.289 Z11.369 A-4390.358 F650.0386
Y351.296 Z11.365 A-4402.489 F652.5674
Y351.298 Z11.31 A-4405.467 F2444.0119
Y351.299 Z11.288 A-4408.493 F2544.5301
Y351.301 Z11.299 A-4411.55 F2567.4011
Y351.303 Z11.342 A-4414.622 F2420.1303
Y351.309 Z11.339 A-4426.76 F653.7409
Y351.316 Z11.335 A-4438.9 F653.7021
Y351.323 Z11.332 A-4451.043 F653.8884
Y351.33 A-4463.188 F654.1698
Y351.336 Z11.333 A-4475.334 F654.0402
Y351.343 Z11.322 A-4487.482 F652.4259
Y351.35 Z11.289 A-4499.629 F647.4106
Y351.357 Z11.273 A-4511.782 F653.2896
Y351.361 Z11.296 A-4519.885 F971.9016
Y351.368 Z11.285 A-4532.043 F653.7009
Y351.375 Z11.272 A-4544.204 F653.9056
Y351.381 Z11.257 A-4556.368 F653.9263
Y351.388 Z11.264 A-4568.534 F656.1463
Y351.395 Z11.292 A-4580.695 F649.6926
Y351.396 Z11.256 A-4582.243 F4629.0672
Y351.397 Z11.228 A-4583.806 F4718.8807
Z11.21 A-4585.383 F4816.3371
Y351.398 Z11.201 A-4586.972 F4921.8972
Y351.4 Z11.21 A-4590.176 F2479.2578
Y351.402 Z11.254 A-4593.396 F2329.3094
Y351.408 Z11.225 A-4604.902 F688.2224
Y351.415 Z11.201 A-4617.073 F653.6827
Y351.422 Z11.192 A-4629.251 F658.7196
Y351.429 Z11.19 A-4641.431 F660.0154
Y351.435 Z11.193 A-4653.614 F659.8646
Y351.442 Z11.198 A-4665.798 F659.0601
Y351.449 Z11.207 A-4677.983 F657.8417
Y351.456 Z11.19 A-4690.164 F656.0752
Y351.462 Z11.178 A-4702.347 F658.2554
Y351.469 Z11.169 A-4714.532 F659.4553
Y351.476 Z11.161 A-4726.719 F660.1237
Y351.483 Z11.154 A-4738.907 F660.6443
Y351.49 Z11.147 A-4751.097 F661.002
Y351.496 Z11.153 A-4763.289 F661.08
Y351.498 Z11.105 A-4766.285 F2496.5917
Y351.5 Z11.089 A-4769.327 F2601.447
Y351.501 Z11.106 A-4772.399 F2573.0425
Y351.503 Z11.155 A-4775.482 F2427.4977
Y351.51 Z11.154 A-4787.676 F661.4406
Y351.517 Z11.151 A-4799.873 F661.1632
Y351.523 Z11.146 A-4812.072 F661.0832
Y351.53 Z11.141 A-4824.273 F661.0759
Y351.537 Z11.128 A-4836.476 F659.8218
Y351.544 Z11.104 A-4848.68 F657.4211
Y351.551 Z11.023 A-4860.89 F643.8655
Y351.557 Z11.011 A-4873.118 F665.36
Y351.564 Z11.001 A-4885.348 F666.4699
Y351.571 Z10.993 A-4897.582 F667.2822
Y351.578 Z10.988 A-4909.817 F668.0736
Y351.584 Z10.987 A-4922.055 F668.763
Y351.591 Z11.064 A-4934.295 F645.0944
Y351.598 Z11.053 A-4946.519 F663.3701
Y351.599 Z11.015 A-4949.048 F2994.9934
Y351.601 Z10.999 A-4951.61 F3100.0048
Y351.602 Z11.007 A-4954.195 F3122.59
Y351.604 Z11.037 A-4956.792 F2968.3401
Y351.611 Z11.022 A-4969.023 F663.5302
Y351.617 Z11.012 A-4981.259 F665.4144
Y351.624 Z11.002 A-4993.499 F665.8432
Y351.631 Z10.988 A-5005.741 F665.3716
Y351.638 Z10.973 A-5017.984 F665.7405
Y351.645 Z10.972 A-5030.229 F669.347
Y351.651 Z10.973 A-5042.471 F669.4048
Y351.658 Z10.966 A-5054.713 F668.5323
Y351.665 Z10.959 A-5066.957 F668.9999
Y351.672 Z10.954 A-5079.204 F669.469
Y351.679 Z10.952 A-5091.454 F670.0355
Y351.685 Z10.954 A-5103.706 F669.8416
Y351.692 Z10.941 A-5115.961 F667.6746
Y351.699 Z10.926 A-5128.219 F667.5641
Y351.701 Z10.873 A-5131.226 F2515.7468
Y351.702 Z10.852 A-5134.283 F2619.828
Y351.703 Z10.854 A-5135.825 F5350.9402
Y351.704 Z10.863 A-5137.373 F5188.3636
Y351.705 Z10.881 A-5138.925 F5036.9866
Y351.706 Z10.907 A-5140.479 F4898.0074
Y351.713 Z10.894 A-5152.741 F669.9216
Y351.719 Z10.883 A-5165.007 F671.205
Y351.726 Z10.874 A-5177.274 F672.0816
Y351.733 Z10.867 A-5189.545 F672.9165
Y351.74 Z10.865 A-5201.817 F673.9909
Y351.744 Z10.825 A-5210.001 F989.1832
Y351.754 Z10.789 A-5226.387 F502.2712
Y351.76 Z10.781 A-5238.691 F675.8716
Y351.767 Z10.77 A-5250.998 F675.5598
Y351.774 Z10.756 A-5263.308 F675.5296
Y351.781 Z10.74 A-5275.62 F675.5292
Y351.788 Z10.748 A-5287.935 F677.8298
Y351.795 Z10.8 A-5300.242 F663.5621
Y351.796 Z10.767 A-5301.846 F4701.7262
Z10.743 A-5303.466 F4797.3267
Y351.797 Z10.728 A-5305.1 F4901.2669
Y351.798 Z10.723 A-5306.747 F5013.7983
Y351.8 Z10.74 A-5310.064 F2463.6684
Y351.802 Z10.793 A-5313.396 F2312.681
Y351.808 Z10.785 A-5324.989 F716.9229
Y351.815 Z10.779 A-5337.287 F677.1316
Y351.822 Z10.775 A-5349.589 F677.4747
Y351.829 Z10.774 A-5361.892 F677.8733
Y351.836 Z10.776 A-5374.198 F677.6305
Y351.842 Z10.763 A-5386.505 F675.1523
Y351.849 Z10.72 A-5398.815 F667.9631
Y351.856 Z10.703 A-5411.133 F677.2573
Y351.863 Z10.69 A-5423.454 F679.1724
Y351.87 Z10.68 A-5435.777 F680.3797
Y351.877 Z10.672 A-5448.104 F681.3443
Y351.884 Z10.667 A-5460.434 F682.3653
Y351.89 Z10.694 A-5472.765 F675.2502
Y351.897 Z10.665 A-5485.094 F674.8478
Y351.899 Z10.614 A-5488.12 F2563.3074
Y351.901 Z10.594 A-5491.197 F2669.993
Y351.902 Z10.607 A-5494.307 F2671.2646
Y351.904 Z10.652 A-5497.432 F2515.3614
Y351.911 Z10.634 A-5509.776 F679.6434
Y351.918 Z10.619 A-5522.123 F681.314
Y351.925 Z10.605 A-5534.473 F682.3975
Y351.932 Z10.592 A-5546.826 F683.2167
Y351.938 Z10.581 A-5559.18 F684.5642
Y351.943 Z10.59 A-5567.417 F1025.4563
Y351.95 Z10.508 A-5579.779 F664.4828
Y351.957 Z10.496 A-5592.156 F688.1719
Y351.964 Z10.486 A-5604.538 F689.4975
Y351.971 Z10.479 A-5616.922 F690.4024
Y351.977 Z10.474 A-5629.308 F691.2599
Y351.984 A-5641.697 F691.8483
Y351.991 Z10.527 A-5654.088 F675.0299
Y351.998 Z10.562 A-5666.467 F678.4331
Y351.999 Z10.528 A-5669.01 F3131.186
Y352.001 Z10.516 A-5671.585 F3241.8702
Y352.002 Z10.527 A-5674.183 F3223.4883
Y352.004 Z10.559 A-5676.792 F3064.3616
Y352.011 Z10.543 A-5689.164 F684.404
Y352.018 Z10.527 A-5701.539 F685.1153
Y352.024 Z10.512 A-5713.917 F686.2352
Y352.031 Z10.497 A-5726.298 F687.051
Y352.038 Z10.484 A-5738.681 F688.4301
Y352.045 Z10.452 A-5751.066 F683.7371
Y352.052 Z10.433 A-5763.461 F688.8632
Y352.059 Z10.429 A-5775.864 F693.4083
Y352.066 Z10.425 A-5788.272 F693.409
Y352.073 Z10.42 A-5800.682 F693.3052
Y352.079 Z10.411 A-5813.095 F692.8181
Y352.086 Z10.399 A-5825.51 F692.1183
Y352.091 Z10.431 A-5833.787 F1021.2601
Y352.098 Z10.372 A-5846.198 F678.0276
Y352.1 Z10.319 A-5849.241 F2606.0517
Y352.101 Z10.298 A-5852.338 F2713.7263
Y352.103 Z10.308 A-5855.471 F2736.6163
Y352.104 Z10.325 A-5857.045 F5227.9478
Y352.105 Z10.35 A-5858.622 F5080.0712
Y352.112 Z10.334 A-5871.05 F694.4215
Y352.119 Z10.321 A-5883.481 F696.1719
Y352.126 Z10.31 A-5895.915 F697.3601
Y352.132 Z10.301 A-5908.352 F698.5176
Y352.139 Z10.298 A-5920.791 F699.9777
Y352.146 Z10.279 A-5933.232 F695.9826
Y352.153 Z10.271 A-5945.681 F700.0543
Y352.16 Z10.26 A-5958.139 F699.2127
Y352.167 Z10.245 A-5970.599 F698.8968
Y352.174 Z10.23 A-5983.062 F699.505
Y352.181 Z10.215 A-5995.527 F700.4376
Y352.188 Z10.234 A-6007.995 F698.7993
Y352.195 Z10.247 A-6020.458 F700.2312
Y352.196 Z10.217 A-6022.035 F5048.1358
Y352.197 Z10.196 A-6023.629 F5148.8611
Z10.183 A-6025.236 F5258.2152
Y352.198 Z10.179 A-6026.856 F5375.9354
Y352.2 Z10.196 A-6030.118 F2628.2104
Y352.202 Z10.247 A-6033.396 F2468.956
Y352.211 Z10.236 A-6049.253 F551.1125
Y352.218 Z10.22 A-6061.718 F699.7922
Y352.225 Z10.205 A-6074.185 F701.1372
Y352.231 Z10.192 A-6086.655 F702.305
Y352.238 Z10.183 A-6099.127 F704.0586
Y352.245 Z10.163 A-6111.602 F701.503
Y352.252 Z10.154 A-6124.084 F705.5182
Y352.259 Z10.151 A-6136.575 F706.8396
Y352.266 Z10.142 A-6149.068 F705.6974
Y352.273 Z10.129 A-6161.564 F705.1288
Y352.28 Z10.111 A-6174.063 F704.2011
Y352.287 A-6186.565 F709.2141
Y352.292 Z10.146 A-6194.899 F1039.1491
Y352.299 Z10.071 A-6207.394 F686.4352
Y352.3 Z10.02 A-6210.457 F2666.3505
Y352.302 Z10. A-6213.576 F2777.0173
Y352.303 Z10.002 A-6215.15 F5669.474
Y352.304 Z10.011 A-6216.731 F5491.2665
Y352.305 Z10.029 A-6218.317 F5325.7612
Y352.306 Z10.054 A-6219.904 F5174.1283
Y352.312 Z10.041 A-6232.418 F710.0629
Y352.319 Z10.031 A-6244.935 F711.4696
Y352.326 Z10.024 A-6257.455 F712.6312
Y352.333 Z10.021 A-6269.978 F713.7679
Y352.34 Z10.027 A-6282.504 F713.003
Y352.347 Z10.015 A-6295.031 F711.4082
Y352.354 Z9.994 A-6307.562 F709.1465
Y352.361 Z9.977 A-6320.098 F711.9007
Y352.368 Z9.965 A-6332.637 F713.843
Y352.375 Z9.954 A-6345.178 F715.1666
Y352.382 Z9.947 A-6357.722 F716.4461
Y352.389 Z9.955 A-6370.268 F716.1419
Y352.396 Z9.965 A-6382.814 F715.1345
Y352.398 Z9.902 A-6386.226 F2396.8159
Y352.4 Z9.879 A-6389.711 F2507.0522
Y352.402 Z9.894 A-6393.242 F2511.2896
Y352.404 Z9.947 A-6396.792 F2345.0165
Y352.411 Z9.928 A-6409.344 F713.3482
Y352.418 Z9.913 A-6421.899 F715.54
Y352.425 Z9.9 A-6434.458 F717.0485
Y352.432 Z9.889 A-6447.018 F718.4826
Y352.439 Z9.884 A-6459.582 F720.4059
Y352.446 Z9.876 A-6472.148 F720.0257
Y352.453 Z9.872 A-6484.72 F721.0283
Y352.46 Z9.859 A-6497.298 F718.9483
Y352.467 Z9.842 A-6509.879 F718.3583
Y352.474 Z9.825 A-6522.463 F719.4468
Y352.481 Z9.81 A-6535.05 F720.784
Y352.488 Z9.829 A-6547.64 F719.3408
Y352.492 Z9.844 A-6556.031 F1075.8401
Y352.499 Z9.778 A-6568.614 F703.9684
Y352.501 Z9.729 A-6571.697 F2729.0752
Y352.502 Z9.716 A-6573.261 F5629.4089
Y352.503 Z9.71 A-6574.837 F5750.263
Y352.504 Z9.713 A-6576.422 F5777.8149
Z9.723 A-6578.015 F5594.2013
Y352.505 Z9.741 A-6579.612 F5424.4664
Y352.506 Z9.766 A-6581.211 F5269.0674
Y352.513 Z9.757 A-6593.812 F726.0803
Y352.52 Z9.751 A-6606.416 F727.0634
Y352.527 Z9.748 A-6619.024 F727.9608
Y352.534 Z9.75 A-6631.635 F727.8799
Y352.541 Z9.739 A-6644.249 F725.84
Y352.548 Z9.735 A-6656.863 F728.2717
Y352.555 Z9.719 A-6669.475 F725.7068
Y352.562 Z9.708 A-6682.091 F727.9401
Y352.569 Z9.7 A-6694.709 F729.3118
Y352.576 Z9.695 A-6707.331 F730.4371
Y352.583 A-6719.955 F731.2291
Y352.59 Z9.672 A-6732.581 F725.6477
Y352.597 Z9.652 A-6745.215 F727.5099
Y352.599 Z9.61 A-6748.054 F3016.9631
Y352.601 Z9.594 A-6750.939 F3132.4968
Y352.602 Z9.603 A-6753.857 F3142.7048
Y352.604 Z9.638 A-6756.792 F2965.8
Y352.611 Z9.621 A-6769.437 F730.0917
Y352.618 Z9.606 A-6782.084 F732.3113
Y352.625 Z9.595 A-6794.735 F733.9358
Y352.632 Z9.587 A-6807.388 F735.5567
Y352.639 Z9.586 A-6820.045 F737.2071
Y352.646 Z9.59 A-6832.705 F736.369
Y352.653 Z9.576 A-6845.367 F733.5794
Y352.66 Z9.556 A-6858.034 F732.6208
Y352.667 Z9.54 A-6870.705 F735.1071
Y352.674 Z9.526 A-6883.378 F736.8583
Y352.681 Z9.515 A-6896.054 F738.5267
Y352.691 Z9.583 A-6912.958 F541.0038
Y352.698 Z9.501 A-6925.627 F712.012
Y352.699 Z9.451 A-6928.729 F2778.6479
Y352.701 Z9.431 A-6931.89 F2893.898
Y352.703 Z9.442 A-6935.091 F2908.7694
Y352.704 Z9.458 A-6936.701 F5548.2205
Y352.705 Z9.483 A-6938.313 F5386.3174
Y352.712 Z9.47 A-6951.002 F740.3041
Y352.719 Z9.46 A-6963.695 F742.0243
Y352.726 Z9.453 A-6976.39 F743.4238
Y352.733 Z9.451 A-6989.089 F744.6449
Y352.74 Z9.456 A-7001.791 F743.8016
Y352.747 Z9.48 A-7014.494 F736.0289
Y352.754 Z9.459 A-7027.19 F737.4045
Y352.761 Z9.443 A-7039.888 F740.778
Y352.768 Z9.43 A-7052.589 F742.8295
Y352.775 Z9.421 A-7065.294 F744.3968
Y352.782 Z9.416 A-7078.002 F745.998
Y352.789 Z9.383 A-7090.712 F737.4869
Y352.796 Z9.358 A-7103.436 F742.069
Y352.798 Z9.301 A-7106.693 F2662.1351
Y352.8 Z9.277 A-7110.02 F2776.7154
Y352.802 Z9.287 A-7113.394 F2810.5658
Y352.804 Z9.33 A-7116.792 F2627.6219
Y352.811 Z9.313 A-7129.531 F747.9629
Y352.818 Z9.301 A-7142.273 F750.1611
Y352.825 Z9.291 A-7155.018 F751.8574
Y352.832 Z9.286 A-7167.766 F753.5498
Y352.839 Z9.29 A-7180.518 F753.672
Y352.846 Z9.295 A-7193.272 F752.7584
Y352.853 Z9.272 A-7206.026 F747.3833
Y352.86 Z9.255 A-7218.785 F750.9041
Y352.868 Z9.242 A-7231.546 F753.2999
Y352.875 Z9.231 A-7244.31 F755.08
Y352.882 Z9.225 A-7257.076 F756.8438
Y352.889 Z9.242 A-7269.846 F752.8251
Y352.896 Z9.23 A-7282.615 F754.3026
Y352.898 Z9.179 A-7285.735 F2832.8378
Y352.899 Z9.159 A-7288.917 F2949.9318
Y352.901 Z9.168 A-7292.142 F2974.4385
Y352.903 Z9.208 A-7295.389 F2788.6893
Y352.91 Z9.189 A-7308.168 F754.2542
Y352.917 Z9.175 A-7320.951 F756.8046
Y352.924 Z9.164 A-7333.736 F758.6775
Y352.931 Z9.156 A-7346.525 F760.546
Y352.939 A-7359.316 F762.0833
Y352.946 Z9.155 A-7372.111 F761.8006
Y352.953 Z9.129 A-7384.909 F754.6811
Y352.96 Z9.106 A-7397.714 F757.3135
Y352.967 Z9.087 A-7410.523 F760.2851
Y352.974 Z9.071 A-7423.337 F762.543
Y352.981 Z9.059 A-7436.154 F764.8686
Y352.988 Z9.079 A-7448.976 F761.3784
Y352.995 Z9.056 A-7461.797 F760.3384
Y352.996 Z9.016 A-7463.603 F4814.1352
Y352.998 Z8.986 A-7465.437 F4916.624
Y352.999 Z8.966 A-7467.294 F5029.5405
Y353. Z8.957 A-7469.171 F5153.5045
Y353.002 Z8.969 A-7472.967 F2577.6634
Y353.004 Z9.021 A-7476.792 F2389.9831
Y353.011 Z9.007 A-7489.627 F767.0547
Y353.018 Z8.996 A-7502.465 F769.1811
Y353.025 Z8.989 A-7515.307 F770.879
Y353.032 Z8.987 A-7528.152 F772.2881
Y353.039 Z8.988 A-7541.001 F772.1441
Y353.047 Z8.975 A-7553.852 F769.1023
Y353.054 Z8.953 A-7566.704 F767.2571
Y353.061 Z8.937 A-7579.56 F770.7654
Y353.068 Z8.925 A-7592.42 F772.9859
Y353.075 Z8.916 A-7605.284 F774.8735
Y353.082 Z8.913 A-7618.153 F776.6684
Y353.089 Z8.877 A-7631.026 F765.6058
Y353.097 Z8.88 A-7643.91 F778.7173
Y353.098 Z8.83 A-7647.053 F2913.861
Y353.1 Z8.81 A-7650.261 F3034.1434
Y353.102 Z8.819 A-7653.514 F3059.6772
Y353.104 Z8.858 A-7656.792 F2865.5769
Y353.111 Z8.841 A-7669.678 F776.5922
Y353.118 Z8.828 A-7682.569 F778.8653
Y353.125 Z8.819 A-7695.464 F780.8855
Y353.132 Z8.816 A-7708.365 F782.8228
Y353.14 Z8.806 A-7721.27 F780.9796
Y353.149 Z8.703 A-7738.493 F567.8724
Y353.156 Z8.696 A-7751.431 F789.3912
Y353.164 Z8.688 A-7764.375 F789.7203
Y353.171 Z8.673 A-7777.324 F787.3729
Y353.178 Z8.647 A-7790.277 F784.7273
Y353.188 Z8.68 A-7807.555 F588.1261
Y353.195 Z8.715 A-7820.505 F778.1501
Y353.196 Z8.686 A-7822.067 F5877.1145
Y353.197 Z8.665 A-7823.648 F5987.2413
Z8.651 A-7825.246 F6106.7132
Y353.198 Z8.644 A-7826.858 F6236.0157
Y353.2 Z8.653 A-7830.114 F3116.3085
Y353.202 Z8.69 A-7833.396 F2917.1897
Y353.209 Z8.673 A-7845.423 F846.2659
Y353.216 Z8.651 A-7858.373 F786.4348
Y353.223 Z8.643 A-7871.328 F792.7609
Y353.23 Z8.619 A-7884.285 F787.4475
Y353.237 Z8.637 A-7897.248 F789.7833
Y353.245 Z8.581 A-7910.21 F775.6121
Y353.254 Z8.641 A-7927.518 F583.7813
Y353.261 Z8.6 A-7940.481 F781.0102
Y353.271 Z8.636 A-7957.787 F589.2771
Y353.276 Z8.607 A-7966.432 F1170.343
Y353.288 Z8.641 A-7988.062 F472.8217
Y353.295 Z8.549 A-8001.025 F762.2974
Y353.296 Z8.516 A-8003.122 F4520.4909
Y353.297 Z8.496 A-8005.249 F4638.9058
Y353.299 Z8.489 A-8007.403 F4770.4807
Y353.3 Z8.495 A-8009.576 F4752.4114
Y353.301 Z8.513 A-8011.762 F4544.5524
Y353.302 Z8.544 A-8013.956 F4360.1292
Y353.303 Z8.587 A-8016.15 F4197.1557
Y353.305 Z8.643 A-8018.338 F4053.2545
Y353.312 Z8.533 A-8031.3 F755.6069
Y353.321 Z8.64 A-8048.62 F573.8119
Y353.329 Z8.55 A-8061.583 F762.91
Y353.338 Z8.643 A-8078.896 F576.7266
Y353.345 Z8.545 A-8091.859 F759.8419
Y353.355 Z8.644 A-8109.172 F575.4117
Y353.365 Z8.528 A-8126.462 F572.7304
Y353.372 Z8.643 A-8139.454 F752.4059
Y353.379 Z8.592 A-8152.417 F777.502
Y353.389 Z8.644 A-8169.722 F585.6288
Y353.398 Z8.548 A-8187.012 F576.8095
Y353.4 Z8.546 A-8189.435 F4286.3986
Y353.401 Z8.561 A-8191.879 F4104.3575
Y353.402 Z8.592 A-8194.335 F3912.9807
Y353.404 Z8.639 A-8196.792 F3746.2718
Y353.411 Z8.545 A-8209.755 F761.7709
Y353.421 Z8.632 A-8227.073 F578.4465
Y353.428 Z8.592 A-8240.039 F781.8636
Y353.437 Z8.638 A-8257.344 F587.0959
Y353.442 Z8.604 A-8265.988 F1165.9753
Y353.454 Z8.642 A-8287.62 F472.1373
Y353.461 Z8.592 A-8300.583 F777.7111
Y353.471 Z8.637 A-8317.892 F587.2688
Y353.478 Z8.56 A-8330.856 F768.1211
Y353.488 Z8.641 A-8348.167 F579.4528
Y353.495 Z8.548 A-8361.13 F761.9288
Y353.496 Z8.516 A-8363.227 F4521.673
Y353.497 Z8.496 A-8365.355 F4640.2383
Y353.499 Z8.489 A-8367.508 F4771.801
Y353.5 Z8.494 A-8369.681 F4751.2024
Y353.501 Z8.513 A-8371.868 F4543.4113
Y353.502 Z8.544 A-8374.061 F4359.1526
Y353.503 Z8.588 A-8376.255 F4196.3472
Y353.505 Z8.644 A-8378.443 F4052.5431
Y353.512 Z8.533 A-8391.405 F755.328
Y353.522 Z8.641 A-8408.725 F573.5812
Y353.529 Z8.549 A-8421.688 F762.5139
Y353.538 Z8.643 A-8439.001 F576.5433
Y353.546 Z8.544 A-8451.964 F759.6091
Y353.555 Z8.644 A-8469.277 F575.3293
Y353.565 Z8.528 A-8486.567 F572.8153
Y353.572 Z8.643 A-8499.559 F752.4622
Y353.579 Z8.583 A-8512.522 F774.016
Y353.589 Z8.644 A-8529.828 F583.6838
Y353.598 Z8.548 A-8547.118 F576.9215
Y353.6 Z8.521 A-8550.557 F2888.1715
Y353.601 Z8.52 A-8552.3 F5978.2033
Y353.602 Z8.528 A-8554.054 F5806.2433
Y353.603 Z8.543 A-8555.816 F5603.8526
Y353.604 Z8.567 A-8557.582 F5420.3865
Y353.605 Z8.6 A-8559.35 F5254.2377
Y353.606 Z8.64 A-8561.115 F5103.9068
Y353.618 Z8.586 A-8582.742 F470.2321
Y353.625 Z8.632 A-8595.719 F779.3148
Y353.637 Z8.638 A-8617.345 F476.1685
Y353.642 Z8.604 A-8625.989 F1165.9627
Y353.654 Z8.642 A-8647.621 F472.1338
Y353.661 Z8.583 A-8660.584 F774.581
Y353.671 Z8.637 A-8677.895 F585.4345
Y353.678 Z8.56 A-8690.859 F768.108
Y353.688 Z8.641 A-8708.17 F579.4335
Y353.695 Z8.548 A-8721.133 F761.9177
Y353.696 Z8.516 A-8723.23 F4521.7021
Y353.697 Z8.496 A-8725.358 F4640.2745
Y353.699 Z8.489 A-8727.511 F4771.9215
Y353.7 Z8.494 A-8729.684 F4751.0792
Y353.701 Z8.513 A-8731.871 F4543.3982
Y353.702 Z8.544 A-8734.064 F4359.1207
Y353.703 Z8.588 A-8736.258 F4196.316
Y353.705 Z8.644 A-8738.446 F4052.5335
Y353.712 Z8.533 A-8751.409 F755.3198
Y353.722 Z8.641 A-8768.728 F573.5735
Y353.729 Z8.549 A-8781.692 F762.5018
Y353.738 Z8.643 A-8799.004 F576.5375
Y353.746 Z8.544 A-8811.967 F759.6019
Y353.755 Z8.644 A-8829.28 F575.3271
Y353.765 Z8.529 A-8846.57 F572.8183
Y353.772 Z8.643 A-8859.563 F752.4651
Y353.779 Z8.574 A-8872.525 F770.58
Y353.789 Z8.644 A-8889.832 F581.7018
Y353.798 Z8.548 A-8907.122 F576.9255
Y353.8 Z8.522 A-8910.56 F2889.1457
Y353.801 Z8.521 A-8912.303 F5980.1071
Y353.802 Z8.528 A-8914.056 F5808.0897
Y353.803 Z8.544 A-8915.817 F5605.6185
Y353.804 Z8.567 A-8917.583 F5422.1274
Y353.805 Z8.6 A-8919.351 F5256.0053
Y353.806 Z8.64 A-8921.115 F5105.6647
Y353.818 Z8.586 A-8942.742 F470.233
Y353.825 Z8.63 A-8955.719 F780.1585
Y353.837 Z8.638 A-8977.346 F476.0198
Y353.842 Z8.604 A-8985.99 F1165.9475
Y353.854 Z8.642 A-9007.622 F472.132
Y353.861 Z8.574 A-9020.585 F771.1684
Y353.871 Z8.637 A-9037.897 F583.4552
Y353.878 Z8.56 A-9050.861 F768.0994
Y353.888 Z8.641 A-9068.172 F579.4291
Y353.895 Z8.548 A-9081.135 F761.9107
Y353.896 Z8.516 A-9083.232 F4521.7359
Y353.897 Z8.496 A-9085.36 F4640.2692
Y353.899 Z8.489 A-9087.513 F4771.9456
Y353.9 Z8.494 A-9089.686 F4751.1327
Y353.901 Z8.513 A-9091.873 F4543.3545
Y353.902 Z8.544 A-9094.066 F4359.1114
Y353.904 Z8.588 A-9096.26 F4196.2934
Y353.905 Z8.644 A-9098.448 F4052.5223
Y353.912 Z8.533 A-9111.411 F755.3148
Y353.922 Z8.641 A-9128.73 F573.5699
Y353.929 Z8.549 A-9141.694 F762.4946
Y353.938 Z8.643 A-9159.006 F576.5342
Y353.946 Z8.544 A-9171.969 F759.5974
Y353.955 Z8.644 A-9189.282 F575.3249
Y353.965 Z8.529 A-9206.572 F572.8205
Y353.972 Z8.643 A-9219.564 F752.4655
Y353.979 Z8.564 A-9232.527 F766.7912
Y353.989 Z8.644 A-9249.836 F579.5055
Y353.998 Z8.548 A-9267.125 F576.9291
Y354. Z8.522 A-9270.563 F2889.8787
Y354.001 Z8.521 A-9272.305 F5981.5209
Y354.002 Z8.528 A-9274.058 F5809.3064
Y354.003 Z8.544 A-9275.819 F5606.964
Y354.004 Z8.567 A-9277.584 F5423.4327
Y354.005 Z8.6 A-9279.351 F5257.316
Y354.006 Z8.64 A-9281.115 F5106.9686
Y354.018 Z8.586 A-9302.742 F470.2321
Y354.023 Z8.643 A-9311.398 F1144.5471
Y354.033 Z8.554 A-9328.687 F578.2659
Y354.04 Z8.64 A-9341.671 F763.0466
Y354.052 Z8.611 A-9363.294 F473.5776
Y354.059 Z8.612 A-9376.265 F796.4836
Y354.071 Z8.637 A-9397.899 F474.0685
Y354.078 Z8.56 A-9410.863 F768.0629
Y354.088 Z8.641 A-9428.174 F579.4088
Y354.095 Z8.548 A-9441.137 F761.9032
Y354.096 Z8.516 A-9443.234 F4521.7536
Y354.097 Z8.496 A-9445.362 F4640.318
Y354.099 Z8.489 A-9447.515 F4771.9102
Y354.1 Z8.494 A-9449.689 F4751.1271
Y354.101 Z8.513 A-9451.875 F4543.3573
Y354.102 Z8.544 A-9454.068 F4359.072
Y354.103 Z8.588 A-9456.262 F4196.2906
Y354.105 Z8.644 A-9458.45 F4052.493
Y354.112 Z8.533 A-9471.413 F755.3089
Y354.122 Z8.641 A-9488.732 F573.5654
Y354.129 Z8.549 A-9501.696 F762.4869
Y354.138 Z8.643 A-9519.008 F576.5307
Y354.146 Z8.544 A-9531.971 F759.5934
Y354.155 Z8.644 A-9549.284 F575.3242
Y354.165 Z8.529 A-9566.575 F572.8217
Y354.172 Z8.643 A-9579.567 F752.4674
Y354.179 Z8.552 A-9592.529 F762.6432
Y354.189 Z8.644 A-9609.839 F577.0902
Y354.198 Z8.548 A-9627.129 F576.9338
Y354.2 Z8.522 A-9630.566 F2890.6778
Y354.201 Z8.521 A-9632.307 F5983.1288
Y354.202 Z8.528 A-9634.06 F5810.7799
Y354.203 Z8.544 A-9635.82 F5608.4739
Y354.204 Z8.568 A-9637.585 F5424.9217
Y354.205 Z8.6 A-9639.351 F5258.7861
Y354.206 Z8.64 A-9641.115 F5108.4308
Y354.218 Z8.586 A-9662.742 F470.2321
Y354.223 Z8.643 A-9671.398 F1144.5492
Y354.233 Z8.554 A-9688.687 F578.2404
Y354.24 Z8.64 A-9701.671 F763.0505
Y354.252 Z8.611 A-9723.295 F473.5775
Y354.259 Z8.609 A-9736.266 F796.4348
Y354.271 Z8.637 A-9757.9 F473.6402
Y354.276 Z8.606 A-9766.545 F1168.5744
Y354.288 Z8.641 A-9788.176 F472.5328
Y354.295 Z8.548 A-9801.139 F761.8976
Y354.296 Z8.516 A-9803.236 F4521.779
Y354.297 Z8.496 A-9805.364 F4640.3182
Y354.299 Z8.489 A-9807.517 F4771.9959
Y354.3 Z8.494 A-9809.69 F4751.0118
Y354.301 Z8.513 A-9811.877 F4543.3386
Y354.302 Z8.544 A-9814.07 F4359.0742
Y354.303 Z8.588 A-9816.264 F4196.2647
Y354.305 Z8.644 A-9818.452 F4052.4951
Y354.312 Z8.533 A-9831.414 F755.3047
Y354.322 Z8.641 A-9848.734 F573.5612
Y354.329 Z8.549 A-9861.697 F762.4805
Y354.338 Z8.643 A-9879.009 F576.5768
Y354.346 Z8.544 A-9891.971 F759.5931
Y354.355 Z8.644 A-9909.282 F575.3824
Y354.365 Z8.549 A-9926.573 F576.9674
Y354.372 Z8.643 A-9939.563 F759.7758
Y354.379 Z8.565 A-9952.525 F767.2893
Y354.389 Z8.644 A-9969.834 F579.7698
Y354.398 Z8.548 A-9987.124 F576.9279
Y354.4 Z8.522 A-9990.562 F2889.6195
Y354.401 Z8.521 A-9992.304 F5981.5128
Y354.402 Z8.528 A-9994.057 F5808.8686
Y354.403 Z8.544 A-9995.818 F5606.4934
Y354.404 Z8.567 A-9997.584 F5422.9907
Y354.405 Z8.6 A-9999.351 F5256.8623
Y354.406 Z8.64 A-10001.115 F5106.5007
Y354.418 Z8.586 A-10022.742 F470.233
Y354.423 Z8.643 A-10031.398 F1144.5471
Y354.433 Z8.579 A-10048.688 F583.5713
Y354.44 Z8.64 A-10061.666 F772.7987
Y354.449 Z8.585 A-10078.959 F585.5176
Y354.457 Z8.636 A-10091.936 F777.3262
Y354.466 Z8.571 A-10109.228 F583.7693
Y354.473 Z8.641 A-10122.206 F769.3585
Y354.481 Z8.583 A-10135.17 F774.8618
Y354.488 Z8.641 A-10148.149 F773.8638
Y354.495 Z8.548 A-10161.113 F761.9891
Y354.496 Z8.516 A-10163.209 F4521.4702
Y354.497 Z8.496 A-10165.337 F4640.0236
Y354.499 Z8.489 A-10167.49 F4771.6525
Y354.5 Z8.494 A-10169.664 F4751.3408
Y354.501 Z8.513 A-10171.85 F4543.6132
Y354.502 Z8.544 A-10174.043 F4359.2964
Y354.503 Z8.588 A-10176.237 F4196.4759
Y354.505 Z8.643 A-10178.425 F4052.665
Y354.514 Z8.545 A-10195.714 F576.3259
Y354.522 Z8.641 A-10208.702 F759.622
Y354.531 Z8.6 A-10225.99 F588.7445
Y354.538 Z8.643 A-10238.964 F779.4696
Y354.548 Z8.604 A-10256.253 F588.8413
Y354.555 Z8.644 A-10269.228 F780.6295
Y354.565 Z8.589 A-10286.519 F585.415
Y354.572 Z8.643 A-10299.497 F775.2967
Y354.579 Z8.606 A-10312.459 F782.7315
Y354.589 Z8.644 A-10329.761 F588.7152
Y354.598 Z8.548 A-10347.05 F576.8489
Y354.6 Z8.521 A-10350.506 F2873.4502
Y354.601 Z8.52 A-10352.257 F5949.1356
Y354.602 Z8.527 A-10354.02 F5779.4139
Y354.603 Z8.543 A-10355.79 F5576.9703
Y354.604 Z8.567 A-10357.565 F5393.4999
Y354.605 Z8.599 A-10359.341 F5227.5176
Y354.606 Z8.64 A-10361.115 F5077.3539
Y354.618 Z8.607 A-10382.741 F473.0971
Y354.625 Z8.621 A-10395.713 F792.3664
Y354.633 Z8.616 A-10408.681 F795.3242
Y354.64 Z8.64 A-10421.65 F786.9586
Y354.649 Z8.62 A-10438.942 F592.7969
Y354.657 Z8.636 A-10451.911 F790.6314
Y354.666 Z8.605 A-10469.201 F591.1319
Y354.673 Z8.641 A-10482.171 F782.6305
Y354.681 Z8.617 A-10495.135 F787.2812
Y354.69 Z8.637 A-10512.427 F593.0157
Y354.692 Z8.564 A-10514.98 F3421.6975
Y354.693 Z8.511 A-10517.598 F3518.5786
Y354.695 Z8.479 A-10520.271 F3630.2849
Y354.696 Z8.466 A-10522.988 F3758.3917
Y354.698 Z8.474 A-10525.738 F3756.3059
Y354.699 Z8.502 A-10528.507 F3551.5217
Y354.701 Z8.551 A-10531.283 F3376.0099
Y354.702 Z8.619 A-10534.052 F3226.044
Y354.707 Z8.63 A-10542.701 F1185.6126
Y354.717 Z8.617 A-10559.999 F594.6306
Y354.724 Z8.638 A-10572.969 F788.6329
Y354.731 Z8.629 A-10585.934 F792.987
Y354.738 Z8.643 A-10598.9 F790.7217
Y354.748 Z8.631 A-10616.187 F594.2993
Y354.755 Z8.644 A-10629.154 F791.026
Y354.765 Z8.614 A-10646.442 F590.6582
Y354.772 Z8.643 A-10659.412 F785.0891
Y354.779 Z8.632 A-10672.375 F792.0457
Y354.789 Z8.644 A-10689.668 F594.0656
Y354.796 Z8.552 A-10702.63 F762.1162
Y354.798 Z8.523 A-10706.107 F2845.0917
Y354.8 Z8.527 A-10709.645 F2930.5207
Y354.802 Z8.566 A-10713.216 F2724.9342
Y354.804 Z8.639 A-10716.792 F2555.924
Y354.811 Z8.551 A-10729.755 F763.9874
Y354.818 Z8.628 A-10742.738 F767.4718
Y354.825 Z8.619 A-10755.705 F793.3709
Y354.833 Z8.637 A-10768.671 F789.876
Y354.84 Z8.641 A-10781.634 F794.1577
Y354.849 Z8.639 A-10798.923 F595.6911
Y354.857 Z8.636 A-10811.887 F794.2899
Y354.866 Z8.624 A-10829.175 F594.791
Y354.873 Z8.641 A-10842.142 F789.6992
Y354.881 Z8.634 A-10855.105 F793.2401
Y354.89 Z8.637 A-10872.392 F595.9119
Y354.892 Z8.566 A-10874.947 F3428.2295
Y354.893 Z8.514 A-10877.566 F3525.9733
Y354.895 Z8.483 A-10880.241 F3638.6093
Y354.896 Z8.471 A-10882.958 F3767.7373
Y354.898 Z8.481 A-10885.707 F3743.6865
Y354.899 Z8.51 A-10888.475 F3540.9165
Y354.901 Z8.56 A-10891.248 F3367.1872
Y354.902 Z8.629 A-10894.014 F3218.7119
Y354.909 Z8.578 A-10906.98 F778.0899
Y354.919 Z8.642 A-10924.282 F583.2439
Y354.926 Z8.597 A-10937.243 F779.6264
Y354.933 Z8.627 A-10950.208 F785.9825
Y354.941 Z8.632 A-10963.169 F794.7977
Y354.95 A-10980.457 F596.2851
Y354.957 Z8.627 A-10993.419 F794.6419
Y354.967 Z8.638 A-11010.709 F594.6909
Y354.974 Z8.634 A-11023.674 F794.2226
Y354.981 Z8.608 A-11036.634 F787.8091
Y354.989 Z8.644 A-11049.602 F782.6612
Y354.996 Z8.56 A-11062.564 F765.2588
Y354.997 Z8.528 A-11066.054 F2819.1438
Y354.998 Z8.531 A-11069.607 F2930.004
Y354.999 Z8.568 A-11073.196 F2720.9456
Y355. Z8.639 A-11076.792 F2549.8268
Z8.558 A-11089.755 F766.6326
Z8.635 A-11102.737 F767.4527
Z8.616 A-11115.702 F790.5577
Z8.642 A-11128.667 F786.9736
Z8.644 A-11158.916 F341.487
Z8.636 A-11171.879 F794.1305
Z8.628 A-11189.167 F596.3158
Z8.641 A-11202.133 F791.6806
Z8.637 A-11215.096 F795.5189
A-11232.382 F598.1279
Z8.566 A-11234.937 F3429.4727
Z8.515 A-11237.557 F3527.4109
Z8.483 A-11240.231 F3640.3352
Z8.472 A-11242.949 F3770.24
Z8.482 A-11245.698 F3742.6376
Z8.512 A-11248.465 F3539.4162
Z8.561 A-11251.238 F3365.852
Z8.631 A-11254.004 F3217.5827
Z8.578 A-11266.969 F777.5602
Z8.643 A-11284.271 F583.0905
Z8.598 A-11297.231 F779.6275
Z8.628 A-11310.196 F786.2803
Z8.632 A-11323.157 F796.6347
Z8.633 A-11340.445 F598.3477
Z8.627 A-11353.406 F795.9885
Z8.638 A-11370.697 F595.5184
Z8.634 A-11383.661 F795.7899
Z8.609 A-11396.622 F788.2332
Z8.644 A-11409.59 F783.0136
Z8.56 A-11422.551 F765.4004
Z8.571 A-11430. F1385.1176
G0
Z10.144
X4.11 Z20.849
G94

(P1.1 4)
G0 A-11430.
G0 X5.879 Y350.
Z12.981 A-11430.
G1 X5.37 Z11.859 F833.
Z9.859 F1000.
X5.129 Z8.68
X4.356 Z7.611
X3.199 Z6.976
X2. Z6.882
G93 Z6.789 A-11421.628 F1403.0135
Z6.897 A-11417.063 F2351.4424
Z6.888 A-11403.365 F927.1341
Z6.869 A-11389.678 F923.4681
Z6.864 A-11375.991 F933.4525
Z6.87 A-11362.304 F932.9625
Z6.887 A-11348.615 F924.3577
Z6.898 A-11334.926 F926.5829
Z6.844 A-11316.671 F682.8757
Z6.854 A-11302.965 F931.2413
Z6.833 A-11289.259 F925.2848
Z6.858 A-11280.122 F1373.8467
Z6.823 A-11261.846 F691.7168
Z6.802 A-11260.088 F6677.8445
Z6.787 A-11258.336 F6909.6573
Z6.779 A-11256.594 F7166.3787
Z6.778 A-11254.866 F7450.7809
Z6.783 A-11253.153 F7387.5639
Z6.795 A-11251.46 F7232.9329
Z6.838 A-11248.142 F3507.4434
Z6.914 A-11234.437 F890.3004
Z6.838 A-11216.185 F675.4565
Z6.858 A-11202.479 F925.1564
Z6.845 A-11188.772 F929.1123
Z6.83 A-11175.065 F929.6151
Z6.826 A-11161.359 F937.4935
Z6.862 A-11147.655 F916.9324
Z6.868 A-11133.957 F932.3466
Z6.845 A-11120.258 F923.2029
Z6.866 A-11111.125 F1378.3502
Z6.85 A-11097.425 F927.3328
Z6.895 A-11083.725 F908.6233
Z6.882 A-11070. F923.4925
Y349.988 Z6.795 A-11061.628 F1409.495
Y349.982 Z6.916 A-11057.064 F2303.5964
Y349.963 Z6.919 A-11043.372 F919.4115
Y349.944 Z6.915 A-11029.699 F920.623
Y349.925 Z6.926 A-11016.031 F918.667
Y349.906 Z6.948 A-11002.37 F912.8196
Y349.887 Z6.982 A-10988.714 F904.1285
Y349.862 Z6.991 A-10970.515 F684.715
Y349.837 Z6.993 A-10952.327 F685.5074
Y349.824 Z7.024 A-10943.234 F1341.7815
Y349.805 Z7.021 A-10929.599 F910.5549
Y349.792 Z7.059 A-10920.513 F1329.043
Y349.767 Z7.048 A-10902.351 F679.8367
Y349.765 Z7.028 A-10900.603 F6575.3584
Y349.762 Z7.015 A-10898.862 F6803.3707
Y349.76 Z7.009 A-10897.132 F7051.2276
Y349.758 Z7.01 A-10895.415 F7242.333
Y349.755 Z7.017 A-10893.714 F7130.1036
Y349.753 Z7.031 A-10892.033 F6988.4439
Y349.748 Z7.08 A-10888.74 F3391.2881
Y349.729 Z7.163 A-10875.137 F864.2898
Y349.704 Z7.125 A-10857.031 F667.8073
Y349.685 Z7.164 A-10843.446 F885.5677
Y349.666 Z7.178 A-10829.867 F894.0191
Y349.648 Z7.179 A-10816.296 F896.7717
Y349.629 Z7.19 A-10802.732 F894.6982
Y349.604 Z7.279 A-10784.665 F646.8819
Y349.585 Z7.278 A-10771.137 F888.2231
Y349.566 Z7.294 A-10757.62 F884.5735
Y349.547 Z7.32 A-10744.11 F878.2839
Y349.529 Z7.363 A-10730.605 F867.2602
Y349.51 Z7.261 A-10717.111 F841.8157
Y349.504 Z7.198 A-10713.166 F2751.5101
Y349.502 Z7.18 A-10711.2 F5823.2124
Y349.499 Z7.17 A-10709.246 F6058.3511
Y349.496 Z7.169 A-10707.307 F6283.1125
Y349.494 Z7.178 A-10705.388 F6198.8831
Y349.491 Z7.195 A-10703.494 F6059.0787
Y349.488 Z7.22 A-10701.628 F5929.1636
Y349.482 Z7.402 A-10697.111 F2035.1607
Y349.457 Z7.318 A-10679.109 F640.9077
Y349.438 Z7.343 A-10665.608 F877.1381
Y349.42 Z7.377 A-10652.111 F869.8595
Y349.401 Z7.393 A-10638.62 F875.3155
Y349.382 Z7.389 A-10625.135 F878.4082
Y349.357 Z7.477 A-10607.169 F635.3849
Y349.339 Z7.478 A-10593.719 F871.5778
Y349.326 Z7.51 A-10584.757 F1279.2583
Y349.307 Z7.509 A-10571.318 F868.7846
Y349.289 Z7.513 A-10557.885 F868.6617
Y349.27 Z7.526 A-10544.461 F866.2296
Y349.251 Z7.549 A-10531.045 F860.8266
Y349.247 Z7.518 A-10527.612 F3203.6868
Y349.244 Z7.513 A-10525.909 F6754.8533
Y349.242 Z7.515 A-10524.218 F6878.9296
Y349.24 Z7.524 A-10522.542 F6751.9496
Y349.237 Z7.54 A-10520.885 F6617.1903
Y349.235 Z7.563 A-10519.25 F6491.5542
Y349.233 Z7.593 A-10517.637 F6375.7754
Y349.214 Z7.612 A-10504.237 F856.8967
Y349.202 Z7.642 A-10495.31 F1267.1789
Y349.183 Z7.644 A-10481.925 F858.1049
Y349.165 Z7.645 A-10468.544 F858.3013
Y349.146 Z7.654 A-10455.171 F856.9468
Y349.128 Z7.672 A-10441.806 F853.1536
Y349.109 Z7.677 A-10428.449 F856.2939
Y349.09 Z7.708 A-10415.085 F845.022
Y349.072 Z7.721 A-10401.728 F849.9967
Y349.053 Z7.748 A-10388.383 F843.6401
Y349.035 Z7.688 A-10375.05 F831.0225
Y349.01 Z7.658 A-10357.234 F637.7846
Y349.005 Z7.605 A-10353.24 F2644.7764
Y349.002 Z7.593 A-10351.254 F5612.7396
Y348.999 Z7.59 A-10349.283 F5839.3327
Y348.996 Z7.597 A-10347.33 F5815.6695
Y348.994 Z7.613 A-10345.401 F5679.787
Y348.991 Z7.639 A-10343.499 F5552.532
Y348.988 Z7.674 A-10341.628 F5436.8004
Y348.982 Z7.819 A-10337.172 F2072.6853
Y348.957 Z7.731 A-10319.396 F616.569
Y348.939 Z7.756 A-10306.061 F844.0553
Y348.92 Z7.789 A-10292.729 F838.0289
Y348.902 Z7.807 A-10279.403 F842.219
Y348.883 Z7.803 A-10266.084 F845.5144
Y348.859 Z7.898 A-10248.337 F610.1838
Y348.84 Z7.903 A-10235.054 F838.074
Y348.822 Z7.896 A-10221.777 F838.0723
Y348.81 Z7.93 A-10212.93 F1231.8886
Y348.791 Z7.925 A-10199.66 F836.3328
Y348.773 Z7.926 A-10186.395 F837.1584
Y348.754 Z7.936 A-10173.136 F835.5794
Y348.75 Z7.903 A-10169.75 F3091.8691
Y348.745 Z7.898 A-10166.398 F3307.6862
Y348.743 Z7.906 A-10164.741 F6548.1537
Y348.741 Z7.922 A-10163.102 F6416.4735
Y348.738 Z7.944 A-10161.482 F6293.5523
Y348.736 Z7.974 A-10159.884 F6180.0307
Y348.718 Z7.99 A-10146.639 F829.5506
Y348.699 Z7.98 A-10133.393 F831.1723
Y348.687 Z8.008 A-10124.564 F1228.7203
Y348.669 Z8.016 A-10111.324 F829.3062
Y348.65 Z8.012 A-10098.087 F830.0511
Y348.632 Z8.02 A-10084.855 F829.4112
Y348.613 Z8.037 A-10071.633 F826.4673
Y348.589 Z8.094 A-10054.011 F609.0625
Y348.571 Z8.127 A-10040.81 F813.9104
Y348.552 Z8.018 A-10027.622 F785.5885
Y348.528 Z8.033 A-10009.989 F621.0994
Y348.503 Z8.047 A-9992.352 F619.9375
Y348.5 Z8.018 A-9989.632 F3778.9898
Y348.496 Z8.007 A-9986.929 F3988.4801
Y348.492 Z8.015 A-9984.258 F4061.4218
Y348.49 Z8.026 A-9982.937 F7929.1038
Y348.488 Z8.042 A-9981.628 F7804.2774
Y348.482 Z8.192 A-9977.221 F2003.4358
Y348.464 Z8.144 A-9964.036 F803.4935
Y348.452 Z8.179 A-9955.253 F1205.0664
Y348.433 Z8.174 A-9942.079 F818.3998
Y348.415 Z8.177 A-9928.91 F819.0714
Y348.397 Z8.187 A-9915.747 F817.6742
Y348.379 Z8.205 A-9902.593 F814.2986
Y348.36 Z8.22 A-9889.445 F814.3762
Y348.342 Z8.237 A-9876.296 F812.0616
Y348.324 Z8.225 A-9863.145 F813.3882
Y348.312 Z8.261 A-9854.382 F1195.5041
Y348.293 A-9841.239 F812.9558
Y348.275 Z8.258 A-9828.099 F813.1857
Y348.257 Z8.261 A-9814.964 F813.3694
Y348.251 Z8.205 A-9810.459 F2205.927
Y348.248 Z8.196 A-9808.222 F4720.0756
Y348.245 Z8.2 A-9806.005 F4822.3349
Y348.242 Z8.217 A-9803.815 F4693.4536
Y348.239 Z8.248 A-9801.658 F4570.8026
Y348.236 Z8.291 A-9799.538 F4460.473
Y348.233 Z8.347 A-9797.463 F4362.0339
Y348.208 Z8.294 A-9779.977 F597.5747
Y348.19 Z8.316 A-9766.862 F805.6054
Y348.172 Z8.343 A-9753.748 F801.3256
Y348.154 Z8.365 A-9740.639 F801.5428
Y348.129 Z8.368 A-9723.169 F604.3028
Y348.111 Z8.408 A-9710.08 F792.4095
Y348.093 Z8.459 A-9697.004 F785.2681
Y348.075 Z8.376 A-9683.944 F774.4341
Y348.051 Z8.358 A-9666.488 F602.9375
Y348.032 Z8.352 A-9653.387 F806.2039
Y348.014 Z8.375 A-9640.292 F800.9215
Y348.012 Z8.344 A-9638.448 F5190.7848
Y348.009 Z8.322 A-9636.605 F5365.4145
Y348.007 Z8.309 A-9634.769 F5558.176
Y348.004 Z8.304 A-9632.943 F5765.7197
Y347.999 Z8.322 A-9629.337 F2872.7028
Y347.994 Z8.375 A-9625.814 F2747.3667
Y347.982 Z8.524 A-9617.265 F1099.014
Y347.964 Z8.501 A-9604.213 F790.793
Y347.952 Z8.533 A-9595.521 F1173.6155
Y347.934 Z8.523 A-9582.483 F794.1117
Y347.916 Z8.522 A-9569.448 F796.0285
Y347.898 Z8.525 A-9556.418 F796.0032
Y347.88 Z8.536 A-9543.392 F794.2673
Y347.862 Z8.542 A-9530.371 F794.9559
Y347.844 Z8.566 A-9517.347 F788.5675
Y347.825 Z8.555 A-9504.321 F791.9207
Y347.807 Z8.553 A-9491.298 F793.8949
Y347.795 Z8.596 A-9482.62 F1158.5663
Y347.777 Z8.592 A-9469.604 F790.8114
Y347.759 Z8.59 A-9456.592 F791.4279
Y347.755 Z8.552 A-9453.28 F2917.0487
Y347.75 Z8.543 A-9449.994 F3113.8639
Y347.746 Z8.563 A-9446.756 F3090.0385
Y347.741 Z8.613 A-9443.586 F2968.851
Y347.729 Z8.649 A-9434.921 F1159.1435
Y347.711 Z8.619 A-9421.936 F781.8766
Y347.693 Z8.632 A-9408.947 F787.8287
Y347.675 Z8.651 A-9395.96 F784.7295
Y347.657 Z8.676 A-9382.977 F781.1263
Y347.639 Z8.706 A-9369.997 F777.0415
Y347.621 Z8.742 A-9357.026 F772.9725
Y347.603 Z8.714 A-9344.075 F776.5135
Y347.579 Z8.647 A-9326.783 F577.7495
Y347.561 Z8.639 A-9313.792 F787.4536
Y347.543 Z8.656 A-9300.807 F784.9099
Y347.525 Z8.678 A-9287.826 F781.8589
Y347.507 Z8.682 A-9274.848 F785.7082
Y347.501 Z8.634 A-9270.319 F2125.7918
Y347.498 Z8.631 A-9268.073 F4548.9096
Y347.495 Z8.641 A-9265.85 F4503.4073
Y347.492 Z8.666 A-9263.656 F4379.141
Y347.488 Z8.704 A-9261.496 F4266.264
Y347.485 Z8.756 A-9259.377 F4165.42
Y347.482 Z8.821 A-9257.304 F4075.6233
Y347.464 Z8.755 A-9244.362 F757.771
Y347.452 Z8.787 A-9235.735 F1150.2896
Y347.434 Z8.778 A-9222.794 F778.3851
Y347.416 Z8.777 A-9209.854 F780.018
Y347.404 Z8.818 A-9201.232 F1139.6368
Y347.387 Z8.812 A-9188.3 F776.7108
Y347.369 Z8.828 A-9175.371 F774.2559
Y347.351 Z8.849 A-9162.457 F771.8643
Y347.333 Z8.867 A-9149.553 F772.056
Y347.315 Z8.892 A-9136.65 F767.9495
Y347.297 Z8.919 A-9123.75 F765.5936
Y347.279 Z8.927 A-9110.855 F769.7629
Y347.261 Z8.922 A-9097.965 F770.3719
Y347.259 Z8.897 A-9096.326 F5583.6653
Y347.257 Z8.879 A-9094.69 F5753.1739
Y347.252 Z8.866 A-9091.437 F3016.1041
Y347.248 Z8.883 A-9088.227 F3032.9768
Y347.243 Z8.929 A-9085.078 F2912.7003
Y347.225 Z8.935 A-9072.2 F770.4194
Y347.213 Z8.945 A-9063.615 F1151.9842
Y347.195 Z8.949 A-9050.746 F770.059
Y347.178 Z8.959 A-9037.88 F768.3892
Y347.166 Z8.967 A-9029.301 F1151.123
Y347.148 Z9.001 A-9016.44 F759.2473
Y347.13 Z8.995 A-9003.588 F766.7258
Y347.112 Z8.909 A-8990.735 F742.3402
Y347.094 Z8.918 A-8977.852 F771.0409
Y347.076 Z8.929 A-8964.968 F769.7479
Y347.058 Z8.93 A-8952.086 F770.9503
Y347.041 Z8.938 A-8939.204 F769.6225
Y347.023 Z8.951 A-8926.327 F767.9339
Y347. Z8.972 A-8910. F603.6405
Y346.982 Z9.089 A-8897.34 F735.6739
Y346.965 Z9.009 A-8884.501 F737.9505
Y346.953 Z9.041 A-8875.936 F1128.2096
Y346.935 Z9.033 A-8863.089 F763.4668
Y346.917 Z9.032 A-8850.245 F764.8435
Y346.905 Z9.074 A-8841.686 F1117.4513
Y346.887 Z9.07 A-8828.848 F761.8258
Y346.864 Z9.118 A-8811.738 F563.0291
Y346.846 Z9.155 A-8798.925 F748.8537
Y346.828 Z9.161 A-8786.121 F756.8596
Y346.81 Z9.151 A-8773.317 F756.3682
Y346.792 Z9.148 A-8760.516 F757.9818
Y346.781 Z9.188 A-8751.985 F1109.8271
Y346.763 Z9.186 A-8739.189 F755.4154
Y346.761 Z9.159 A-8737.564 F5464.5812
Y346.758 Z9.141 A-8735.942 F5627.1835
Y346.756 Z9.129 A-8734.324 F5804.1742
Y346.754 Z9.126 A-8732.714 F5991.3665
Y346.749 Z9.141 A-8729.525 F2983.0402
Y346.745 Z9.185 A-8726.395 F2864.2017
Y346.727 Z9.188 A-8713.609 F755.945
Y346.709 Z9.184 A-8700.828 F756.1575
Y346.692 Z9.208 A-8688.046 F750.6784
Y346.674 Z9.236 A-8675.269 F747.4216
Y346.656 Z9.265 A-8662.496 F745.0258
Y346.639 Z9.192 A-8649.732 F731.4283
Y346.615 Z9.143 A-8632.68 F560.5798
Y346.597 Z9.163 A-8619.878 F753.7702
Y346.579 Z9.168 A-8607.079 F756.6315
Y346.562 Z9.186 A-8594.288 F753.188
Y346.544 Z9.203 A-8581.502 F752.5016
Y346.526 Z9.207 A-8568.721 F754.7219
Y346.508 Z9.213 A-8555.941 F754.2631
Y346.505 Z9.171 A-8553.55 F3674.0831
Y346.502 Z9.145 A-8551.162 F3836.3095
Y346.499 Z9.136 A-8548.787 F4019.3992
Y346.495 Z9.143 A-8546.432 F4080.2692
Y346.492 Z9.166 A-8544.106 F3958.9001
Y346.489 Z9.205 A-8541.816 F3847.6536
Y346.486 Z9.26 A-8539.569 F3748.6821
Y346.482 Z9.331 A-8537.371 F3661.1145
Y346.465 Z9.262 A-8524.623 F729.2411
Y346.453 Z9.294 A-8516.121 F1107.3091
Y346.435 Z9.287 A-8503.367 F749.3134
Y346.418 A-8490.616 F750.4444
Y346.406 Z9.329 A-8482.119 F1096.7861
Y346.388 Z9.328 A-8469.374 F747.6595
Y346.37 Z9.337 A-8456.632 F746.5156
Y346.353 Z9.329 A-8443.9 F747.3048
Y346.335 Z9.336 A-8431.173 F747.7409
Y346.317 Z9.35 A-8418.447 F745.4289
Y346.3 Z9.367 A-8405.72 F743.4176
Y346.282 Z9.388 A-8392.996 F741.0704
Y346.264 Z9.404 A-8380.275 F741.4239
Y346.261 Z9.357 A-8378.118 F3911.5785
Y346.258 Z9.323 A-8375.959 F4057.6459
Y346.255 Z9.303 A-8373.805 F4222.0133
Y346.253 Z9.296 A-8371.663 F4404.0465
Y346.25 Z9.302 A-8369.537 F4441.6326
Y346.247 Z9.322 A-8367.435 F4321.9165
Y346.241 Z9.403 A-8363.319 F2075.6246
Y346.229 Z9.417 A-8354.847 F1109.7695
Y346.211 Z9.413 A-8342.149 F743.6893
Y346.194 Z9.441 A-8329.452 F736.9565
Y346.176 Z9.483 A-8316.763 F729.7528
Y346.158 Z9.395 A-8304.08 F715.8059
Y346.147 Z9.382 A-8295.608 F1112.4253
Y346.129 Z9.346 A-8282.88 F737.1593
Y346.111 Z9.399 A-8270.162 F730.9632
Y346.094 Z9.404 A-8257.448 F743.6495
Y346.076 Z9.401 A-8244.741 F744.1755
Y346.058 Z9.421 A-8232.036 F739.927
Y346.047 Z9.425 A-8223.565 F1113.2935
Y346.035 Z9.431 A-8215.092 F1112.2637
Y346.017 Z9.405 A-8202.379 F737.2035
Y346. Z9.442 A-8190. F752.4185
Y345.982 Z9.539 A-8177.398 F713.6435
Y345.965 Z9.515 A-8164.731 F732.5084
Y345.953 Z9.547 A-8156.291 F1087.5256
Y345.936 Z9.541 A-8143.628 F735.8468
Y345.918 A-8130.968 F736.758
Y345.906 Z9.583 A-8122.532 F1077.5306
Y345.889 Z9.586 A-8109.879 F733.8545
Y345.871 Z9.581 A-8097.229 F733.8936
Y345.854 Z9.538 A-8084.581 F724.8199
Y345.836 Z9.541 A-8071.929 F737.1029
Y345.824 Z9.546 A-8063.491 F1104.3306
Y345.813 Z9.585 A-8055.059 F1079.5909
Y345.795 Z9.58 A-8042.408 F733.856
Y345.777 Z9.578 A-8029.759 F734.5425
Y345.76 Z9.577 A-8017.113 F734.9506
Y345.755 Z9.538 A-8013.901 F2722.2167
Y345.751 Z9.53 A-8010.711 F2897.47
Y345.747 Z9.552 A-8007.561 F2862.0627
Y345.742 Z9.605 A-8004.472 F2750.1321
Y345.725 Z9.633 A-7991.842 F726.8112
Y345.707 Z9.67 A-7979.219 F721.8224
Y345.69 Z9.651 A-7966.607 F727.4642
Y345.672 Z9.584 A-7953.988 F714.5241
Y345.666 Z9.474 A-7949.773 F1925.4014
Y345.66 Z9.588 A-7945.559 F1915.4392
Y345.643 Z9.537 A-7932.895 F721.0148
Y345.631 Z9.56 A-7924.462 F1093.4078
Y345.614 Z9.558 A-7911.815 F736.1763
Y345.596 Z9.606 A-7899.17 F722.0101
Y345.59 Z9.505 A-7894.951 F1943.5316
Y345.584 Z9.615 A-7890.739 F1924.7403
Y345.578 Z9.48 A-7886.515 F1862.9242
Y345.573 Z9.618 A-7882.305 F1859.6657
Y345.567 Z9.514 A-7878.078 F1929.4399
Y345.561 Z9.62 A-7873.868 F1931.7239
Y345.543 Z9.571 A-7861.217 F720.2168
Y345.526 Z9.59 A-7848.579 F731.7486
Y345.508 Z9.628 A-7835.942 F723.5523
Y345.505 Z9.583 A-7833.563 F3526.7141
Y345.502 Z9.555 A-7831.186 F3678.8504
Y345.499 Z9.543 A-7828.819 F3851.0216
Y345.495 Z9.548 A-7826.472 F3944.7634
Y345.492 Z9.569 A-7824.15 F3827.4148
Y345.489 Z9.608 A-7821.863 F3718.0826
Y345.486 Z9.663 A-7819.616 F3620.7152
Y345.483 Z9.734 A-7817.416 F3534.4741
Y345.471 Z9.765 A-7809.02 F1071.0428
Y345.453 Z9.757 A-7796.432 F724.3148
Y345.436 Z9.748 A-7783.845 F724.7046
Y345.418 Z9.744 A-7771.258 F726.0473
Y345.407 Z9.782 A-7762.87 F1065.828
Y345.389 Z9.785 A-7750.288 F723.6714
Y345.372 Z9.779 A-7737.707 F723.5947
Y345.354 Z9.746 A-7725.13 F718.0196
Y345.337 Z9.747 A-7712.551 F726.6001
Y345.325 Z9.756 A-7704.164 F1086.4597
Y345.314 Z9.8 A-7695.78 F1060.758
Y345.296 Z9.796 A-7683.203 F722.9533
Y345.279 Z9.793 A-7670.629 F723.2821
Y345.261 Z9.79 A-7658.056 F723.7054
Y345.259 Z9.765 A-7656.461 F5270.9577
Y345.257 Z9.748 A-7654.867 F5425.6365
Y345.252 Z9.736 A-7651.697 F2839.5988
Y345.248 Z9.754 A-7648.564 F2838.6318
Y345.244 Z9.804 A-7645.488 F2726.5723
Y345.226 Z9.853 A-7632.929 F708.9819
Y345.209 Z9.81 A-7620.381 F711.4359
Y345.191 Z9.678 A-7607.821 F687.5199
Y345.186 Z9.7 A-7603.626 F2139.5664
Y345.174 Z9.689 A-7595.222 F1089.1416
Y345.156 Z9.659 A-7582.597 F722.4981
Y345.139 Z9.652 A-7569.984 F730.5211
Y345.121 Z9.7 A-7557.373 F717.0382
Y345.116 Z9.585 A-7553.163 F1896.7196
Y345.11 Z9.714 A-7548.962 F1867.1775
Y345.104 Z9.567 A-7544.748 F1824.2375
Y345.098 Z9.712 A-7540.549 F1833.9745
Y345.092 Z9.598 A-7536.333 F1895.3809
Y345.086 Z9.714 A-7532.134 F1898.8266
Y345.069 Z9.65 A-7519.514 F710.939
Y345.057 Z9.678 A-7511.106 F1081.0198
Y345.045 Z9.704 A-7502.702 F1079.7006
Y345.034 Z9.719 A-7494.297 F1084.8217
Y345.028 Z9.598 A-7490.09 F1881.9951
Y345.022 Z9.726 A-7485.892 F1870.0157
Y345. Z9.901 A-7470. F537.1675
Y344.983 Z9.923 A-7457.453 F712.9291
Y344.965 Z9.87 A-7444.928 F705.3157
Y344.954 Z9.9 A-7436.571 F1062.9122
Y344.936 Z9.891 A-7424.034 F717.663
Y344.919 Z9.888 A-7411.497 F718.8923
Y344.907 Z9.924 A-7403.143 F1056.9115
Y344.89 Z9.93 A-7390.611 F716.1945
Y344.867 Z9.931 A-7373.905 F537.4791
Y344.855 Z9.953 A-7365.557 F1063.5057
Y344.838 Z9.952 A-7353.05 F716.3604
Y344.826 Z9.963 A-7344.711 F1069.9097
Y344.814 Z10.005 A-7336.375 F1047.4479
Y344.797 Z10.006 A-7323.87 F712.8769
Y344.78 Z10.003 A-7311.366 F712.9263
Y344.762 Z10.006 A-7298.865 F712.966
Y344.76 Z9.979 A-7297.281 F5171.146
Y344.758 Z9.959 A-7295.699 F5319.0219
Y344.754 Z9.943 A-7292.549 F2781.0651
Y344.749 Z9.958 A-7289.433 F2817.8381
Y344.745 Z10.003 A-7286.368 F2705.6332
Y344.728 Z9.971 A-7273.878 F707.6789
Y344.71 Z9.809 A-7261.369 F671.3638
Y344.699 Z9.778 A-7253.002 F1070.4995
Y344.693 Z9.683 A-7248.807 F1936.1522
Y344.687 Z9.778 A-7244.616 F1937.2077
Y344.669 Z9.721 A-7232.026 F710.0481
Y344.658 Z9.778 A-7223.633 F1052.4546
Y344.646 Z9.783 A-7215.245 F1084.946
Y344.635 Z9.8 A-7206.853 F1076.9375
Y344.629 Z9.634 A-7202.651 F1778.1045
Y344.623 Z9.774 A-7198.462 F1839.8004
Y344.617 Z9.658 A-7194.254 F1883.6344
Y344.611 Z9.803 A-7190.062 F1824.1193
Y344.6 Z9.785 A-7181.668 F1076.1026
Y344.582 Z9.759 A-7169.08 F718.8459
Y344.559 Z9.805 A-7152.305 F536.692
Y344.553 Z9.69 A-7148.109 F1886.6802
Y344.547 Z9.808 A-7143.92 F1881.9727
Y344.53 Z9.991 A-7131.342 F661.0466
Y344.512 Z10.08 A-7118.837 F685.5472
Y344.51 Z10.049 A-7117.188 F4897.4371
Y344.508 Z10.027 A-7115.539 F5041.1629
Y344.505 Z10.013 A-7113.894 F5198.2087
Y344.503 Z10.007 A-7112.255 F5367.0032
Y344.499 Z10.021 A-7109.007 F2692.5233
Y344.494 Z10.069 A-7105.814 F2580.5095
Y344.477 Z10.03 A-7093.314 F700.8946
Y344.46 Z10.021 A-7080.835 F712.1516
Y344.442 Z10.035 A-7068.348 F710.3943
Y344.425 Z10.05 A-7055.861 F709.3516
Y344.407 Z10.066 A-7043.376 F708.0029
Y344.39 Z10.074 A-7030.893 F708.9317
Y344.367 Z10.072 A-7014.253 F532.259
Y344.355 Z10.085 A-7005.939 F1059.9561
Y344.344 Z10.118 A-6997.632 F1045.2567
Y344.327 Z10.107 A-6985.17 F706.694
Y344.315 Z10.141 A-6976.866 F1042.7321
Y344.298 Z10.152 A-6964.41 F704.8464
Y344.28 Z10.157 A-6951.959 F705.6269
Y344.263 Z10.164 A-6939.512 F705.2164
Y344.261 Z10.126 A-6937.948 F4991.2864
Y344.259 Z10.096 A-6936.381 F5120.946
Y344.257 Z10.073 A-6934.815 F5262.3778
Y344.255 Z10.058 A-6933.252 F5416.1744
Y344.25 Z10.051 A-6930.142 F2832.3847
Y344.246 Z10.075 A-6927.07 F2784.6367
Y344.229 Z9.93 A-6914.602 F671.9089
Y344.217 Z9.76 A-6906.263 F973.1238
Y344.211 Z9.865 A-6902.079 F1903.9493
Y344.2 Z9.854 A-6893.705 F1075.8706
Y344.182 Z9.839 A-6881.143 F718.1165
Y344.159 Z9.866 A-6864.396 F537.2496
Y344.153 Z9.731 A-6860.203 F1834.8053
Y344.147 Z9.878 A-6856.022 F1811.2745
Y344.141 Z9.722 A-6851.826 F1788.8986
Y344.136 Z9.879 A-6847.646 F1793.0664
Y344.13 Z9.74 A-6843.448 F1823.0404
Y344.124 Z9.836 A-6839.269 F1932.3009
Y344.112 Z9.865 A-6830.889 F1064.2145
Y344.095 Z9.848 A-6818.327 F717.1217
Y344.083 Z9.861 A-6809.961 F1076.1963
Y344.072 Z9.841 A-6801.594 F1072.0163
Y344.054 Z10.077 A-6789.044 F643.3421
Y344.043 Z10.168 A-6780.725 F1002.454
Y344.025 Z10.222 A-6768.29 F690.5524
Y344.008 Z10.196 A-6755.873 F699.1414
Y344.005 Z10.162 A-6753.333 F3235.4464
Y344.001 Z10.148 A-6750.803 F3395.5764
Y343.998 Z10.155 A-6748.294 F3470.6936
Y343.994 Z10.182 A-6745.814 F3357.959
Y343.977 Z10.172 A-6733.342 F702.0892
Y343.96 Z10.165 A-6720.91 F705.3541
Y343.942 Z10.178 A-6708.472 F703.7371
Y343.925 Z10.192 A-6696.035 F702.8245
Y343.908 Z10.207 A-6683.599 F701.5333
Y343.891 Z10.218 A-6671.166 F701.8581
Y343.867 Z10.211 A-6654.592 F527.0533
Y343.85 Z10.23 A-6642.172 F700.3114
Y343.833 Z10.245 A-6629.755 F700.2813
Y343.816 Z10.272 A-6617.342 F695.7092
Y343.799 Z10.294 A-6604.933 F695.9576
Y343.781 Z10.29 A-6592.533 F699.4961
Y343.764 Z10.196 A-6580.132 F676.7419
Y343.762 Z10.145 A-6578.584 F4828.6051
Y343.76 Z10.102 A-6577.029 F4939.9342
Y343.758 Z10.066 A-6575.471 F5061.388
Y343.755 Z10.037 A-6573.911 F5193.8774
Y343.751 Z10.003 A-6570.796 F2705.2824
Y343.747 Z9.998 A-6567.702 F2872.1069
Y343.735 Z9.929 A-6559.381 F1031.4483
Y343.729 Z9.798 A-6555.204 F1841.5117
Y343.724 Z9.889 A-6551.031 F1938.5824
Y343.712 Z9.914 A-6542.664 F1063.1806
Y343.695 Z9.887 A-6530.121 F712.4236
Y343.683 Z9.916 A-6521.767 F1062.5755
Y343.671 Z9.889 A-6513.41 F1063.4965
Y343.666 Z9.796 A-6509.225 F1925.6443
Y343.66 Z9.937 A-6505.047 F1816.7312
Y343.654 Z9.782 A-6500.858 F1784.8946
Y343.648 Z9.945 A-6496.685 F1774.2808
Y343.637 Z9.937 A-6488.322 F1070.6586
Y343.613 Z9.912 A-6471.603 F534.712
Y343.59 Z10.026 A-6454.888 F516.2592
Y343.573 Z10.257 A-6442.402 F637.9259
Y343.561 Z10.341 A-6434.125 F995.7053
Y343.544 Z10.334 A-6421.741 F697.1419
Y343.533 Z10.354 A-6413.489 F1037.7208
Y343.515 Z10.347 A-6401.106 F696.3622
Y343.5 Z10.342 A-6390. F777.0308
Y343.483 Z10.31 A-6377.497 F685.3682
Y343.471 Z10.338 A-6369.24 F1033.7957
Y343.454 Z10.326 A-6356.853 F696.4894
Y343.437 Z10.319 A-6344.464 F697.7935
Y343.42 Z10.317 A-6332.076 F698.6885
Y343.402 Z10.318 A-6319.69 F698.9365
Y343.391 Z10.361 A-6311.436 F1022.3903
Y343.374 Z10.356 A-6299.054 F696.1799
Y343.357 Z10.33 A-6286.676 F692.5622
Y343.345 Z10.376 A-6278.424 F1018.9751
Y343.328 Z10.397 A-6266.053 F691.7467
Y343.311 Z10.411 A-6253.688 F692.7585
Y343.294 Z10.352 A-6241.329 F681.4643
Y343.276 Z10.203 A-6228.954 F659.2803
Y343.259 Z9.981 A-6216.532 F646.0225
Y343.253 Z9.868 A-6212.375 F1877.7454
Y343.252 Z9.894 A-6211.318 F7543.2156
Y343.25 Z9.923 A-6210.27 F7456.0517
Y343.249 Z9.957 A-6209.233 F7373.8288
Y343.247 Z9.993 A-6208.208 F7296.2213
Y343.242 Z9.831 A-6204.027 F1766.4707
Y343.236 Z9.988 A-6199.861 F1783.3887
Y343.213 Z9.957 A-6183.159 F531.9131
Y343.195 Z9.961 A-6170.641 F715.0111
Y343.184 Z9.987 A-6162.301 F1058.8934
Y343.178 Z9.866 A-6158.123 F1850.4895
Y343.172 Z9.965 A-6153.956 F1906.7952
Y343.166 Z9.834 A-6149.775 F1832.0171
Y343.161 Z9.999 A-6145.606 F1762.918
Y343.155 Z9.88 A-6141.421 F1850.8007
Y343.149 Z9.997 A-6137.256 F1863.0081
Y343.137 Z9.992 A-6128.911 F1068.2903
Y343.114 Z10.091 A-6112.225 F516.4921
Y343.097 Z10.365 A-6099.758 F622.2909
Y343.08 Z10.456 A-6087.385 F668.8608
Y343.063 Z10.45 A-6075.045 F692.3428
Y343.045 Z10.439 A-6062.703 F691.8629
Y343.028 Z10.432 A-6050.357 F693.1358
Y343.017 Z10.465 A-6042.128 F1022.5993
Y343. Z10.464 A-6030. F704.1759
Y342.983 Z10.435 A-6017.511 F679.2563
Y342.971 Z10.481 A-6009.281 F1012.9827
Y342.954 Z10.469 A-5996.941 F689.9087
Y342.937 Z10.462 A-5984.601 F691.4986
Y342.92 Z10.461 A-5972.261 F692.2935
Y342.903 A-5959.924 F692.4918
Y342.891 Z10.504 A-5951.702 F1013.7678
Y342.874 Z10.496 A-5939.369 F689.5563
Y342.857 Z10.466 A-5927.036 F685.3161
Y342.84 Z10.512 A-5914.703 F680.1414
Y342.828 Z10.513 A-5906.488 F1035.1098
Y342.811 Z10.438 A-5894.162 F672.5617
Y342.794 Z10.269 A-5881.811 F650.2296
Y342.771 Z10.029 A-5865.25 F490.0307
Y342.765 Z9.919 A-5861.084 F1874.6204
Y342.76 Z10.049 A-5856.922 F1831.4864
Y342.754 Z9.903 A-5852.748 F1792.5328
Y342.752 Z9.935 A-5851.691 F7280.87
Y342.751 Z9.972 A-5850.644 F7201.9749
Y342.748 Z10.056 A-5848.588 F3540.1938
Y342.742 Z9.91 A-5844.412 F1791.0634
Y342.736 Z10.042 A-5840.253 F1826.9319
Y342.713 Z9.995 A-5823.582 F527.7751
Y342.696 Z10.032 A-5811.087 F704.4176
Y342.69 Z9.935 A-5806.923 F1903.6473
Y342.684 Z10.057 A-5802.761 F1846.8636
Y342.679 Z9.902 A-5798.589 F1774.318
Y342.673 Z10.038 A-5794.43 F1820.293
Y342.667 Z9.909 A-5790.253 F1827.9968
Y342.661 Z10.055 A-5786.092 F1796.4384
Y342.638 Z10.167 A-5769.428 F511.5492
Y342.627 Z10.379 A-5761.12 F916.8226
Y342.609 Z10.52 A-5748.752 F651.9409
Y342.592 Z10.554 A-5736.434 F681.7217
Y342.581 Z10.567 A-5728.23 F1027.5101
Y342.564 Z10.561 A-5715.922 F687.1779
Y342.547 Z10.556 A-5703.611 F687.4796
Y342.53 Z10.552 A-5691.3 F687.8492
Y342.512 Z10.547 A-5678.99 F688.0952
Y342.5 Z10.578 A-5670. F928.7674
Y342.483 Z10.556 A-5657.524 F674.4683
Y342.471 Z10.571 A-5649.322 F1025.999
Y342.454 Z10.561 A-5637.014 F686.2671
Y342.437 Z10.557 A-5624.704 F687.7164
Y342.42 Z10.562 A-5612.396 F687.5972
Y342.403 Z10.567 A-5600.09 F687.4307
Y342.386 Z10.57 A-5587.788 F687.5252
Y342.369 Z10.582 A-5575.489 F685.9722
Y342.352 Z10.604 A-5563.196 F682.9185
Y342.335 Z10.516 A-5550.905 F665.707
Y342.317 Z10.352 A-5538.59 F648.7353
Y342.306 Z10.185 A-5530.348 F950.0973
Y342.283 Z10.091 A-5513.761 F515.8624
Y342.271 A-5505.444 F1063.2318
Y342.266 Z9.977 A-5501.284 F1858.0902
Y342.26 Z10.112 A-5497.129 F1812.2977
Y342.254 Z9.949 A-5492.962 F1753.4269
Y342.253 Z9.986 A-5491.905 F7138.2034
Y342.251 Z10.026 A-5490.86 F7063.3894
Y342.248 Z10.117 A-5488.809 F3473.5773
Y342.243 Z9.981 A-5484.638 F1802.8573
Y342.237 Z10.097 A-5480.486 F1854.9532
Y342.219 Z10.061 A-5468.004 F700.8573
Y342.208 Z10.098 A-5459.687 F1043.0731
Y342.196 Z10.097 A-5451.372 F1062.7076
Y342.191 Z9.99 A-5447.214 F1872.4778
Y342.185 Z10.121 A-5443.06 F1818.6542
Y342.179 Z9.952 A-5438.894 F1740.8919
Y342.173 Z10.107 A-5434.742 F1774.9565
Y342.167 Z10.058 A-5430.572 F2000.4678
Y342.156 Z10.35 A-5422.26 F878.3116
Y342.139 Z10.556 A-5409.881 F632.8268
Y342.122 Z10.645 A-5397.577 F662.148
Y342.105 Z10.627 A-5385.298 F682.1377
Y342.082 Z10.631 A-5368.922 F513.6643
Y342.065 Z10.635 A-5356.633 F684.2076
Y342.048 Z10.631 A-5344.344 F684.2521
Y342.031 Z10.625 A-5332.055 F684.2704
Y342.014 Z10.618 A-5319.766 F684.448
Y342. Z10.64 A-5310. F855.096
Y341.983 Z10.622 A-5297.531 F671.9889
Y341.971 Z10.636 A-5289.344 F1022.3107
Y341.954 Z10.634 A-5277.058 F684.3794
Y341.937 Z10.63 A-5264.773 F684.3602
Y341.92 Z10.64 A-5252.489 F683.389
Y341.903 Z10.655 A-5240.211 F681.9751
Y341.886 Z10.674 A-5227.938 F680.4548
Y341.869 Z10.671 A-5215.673 F683.1827
Y341.852 Z10.573 A-5203.404 F659.7962
Y341.841 Z10.466 A-5195.209 F971.7665
Y341.823 Z10.189 A-5182.869 F622.0817
Y341.818 Z10.055 A-5178.739 F1811.9035
Y341.812 Z10.145 A-5174.596 F1908.695
Y341.795 Z10.134 A-5162.135 F704.9325
Y341.783 Z10.155 A-5153.834 F1050.1398
Y341.772 Z10.149 A-5145.531 F1057.7048
Y341.766 Z10.038 A-5141.378 F1858.5689
Y341.76 Z10.174 A-5137.23 F1804.1415
Y341.754 Z10.015 A-5133.069 F1753.7256
Y341.753 Z10.05 A-5132.015 F7149.4459
Y341.751 Z10.089 A-5130.972 F7073.7203
Y341.749 Z10.178 A-5128.924 F3478.1799
Y341.743 Z10.046 A-5124.761 F1804.6098
Y341.737 Z10.154 A-5120.616 F1867.6098
Y341.72 Z10.133 A-5108.156 F702.5048
Y341.708 Z10.165 A-5099.854 F1042.3505
Y341.685 Z10.298 A-5083.254 F504.0211
Y341.674 Z10.511 A-5074.978 F909.6849
Y341.656 Z10.666 A-5062.652 F642.3468
Y341.639 Z10.712 A-5050.379 F671.5361
Y341.622 Z10.693 A-5038.126 F679.3026
Y341.605 Z10.671 A-5025.868 F679.2352
Y341.588 Z10.647 A-5013.607 F679.9724
Y341.577 Z10.657 A-5005.427 F1023.415
Y341.566 Z10.696 A-4997.249 F1003.6302
Y341.549 Z10.699 A-4984.981 F681.462
Y341.532 Z10.697 A-4972.713 F681.5381
Y341.514 Z10.688 A-4960.446 F681.0489
Y341.5 Z10.701 A-4950. F798.4117
Y341.483 Z10.68 A-4937.538 F668.0956
Y341.471 Z10.701 A-4929.364 F1014.5779
Y341.454 Z10.708 A-4917.101 F680.8673
Y341.437 Z10.701 A-4904.839 F681.0162
Y341.42 Z10.716 A-4892.582 F679.5148
Y341.403 Z10.735 A-4880.332 F677.8785
Y341.386 Z10.713 A-4868.09 F677.6279
Y341.369 Z10.601 A-4855.837 F654.6576
Y341.352 Z10.369 A-4843.543 F628.1572
Y341.335 Z10.227 A-4831.173 F660.2806
Y341.329 Z10.06 A-4827.026 F1735.7697
Y341.323 Z10.222 A-4822.887 F1748.0166
Y341.318 Z10.09 A-4818.728 F1800.9463
Y341.312 Z10.206 A-4814.589 F1845.1528
Y341.295 Z10.194 A-4802.145 F701.9902
Y341.283 Z10.218 A-4793.858 F1044.3698
Y341.272 Z10.206 A-4785.57 F1050.718
Y341.266 Z10.102 A-4781.425 F1867.818
Y341.26 Z10.236 A-4777.283 F1800.7168
Y341.254 Z10.077 A-4773.13 F1747.4845
Y341.253 Z10.112 A-4772.077 F7133.7283
Y341.251 Z10.15 A-4771.037 F7057.9771
Y341.249 Z10.239 A-4768.992 F3470.3193
Y341.243 Z10.106 A-4764.835 F1798.6445
Y341.237 Z10.211 A-4760.697 F1869.3535
Y341.208 Z10.367 A-4739.972 F402.2427
Y341.191 Z10.642 A-4727.598 F612.1418
Y341.174 Z10.761 A-4715.317 F648.8001
Y341.157 Z10.781 A-4703.075 F675.4116
Y341.14 Z10.764 A-4690.839 F676.5104
Y341.123 Z10.742 A-4678.602 F676.134
Y341.106 Z10.722 A-4666.362 F677.7827
Y341.089 Z10.708 A-4654.12 F680.1749
Y341.072 Z10.707 A-4641.873 F682.1703
Y341.061 Z10.718 A-4633.705 F1019.3688
Y341.049 Z10.76 A-4625.542 F998.1443
Y341.032 Z10.764 A-4613.295 F678.6813
Y341.015 Z10.759 A-4601.049 F678.7035
Y341. Z10.762 A-4590. F752.3943
Y340.983 Z10.737 A-4577.545 F663.8783
Y340.966 Z10.742 A-4565.302 F680.1553
Y340.954 Z10.78 A-4557.143 F998.9735
Y340.937 Z10.773 A-4544.905 F677.916
Y340.92 Z10.786 A-4532.672 F676.9322
Y340.903 Z10.732 A-4520.446 F667.3911
Y340.886 Z10.595 A-4508.203 F647.5426
Y340.869 Z10.336 A-4495.91 F621.7149
Y340.846 Z10.284 A-4479.4 F517.7712
Y340.835 Z10.291 A-4471.129 F1048.1811
Y340.829 Z10.142 A-4466.986 F1764.637
Y340.823 Z10.291 A-4462.854 F1768.4615
Y340.818 Z10.169 A-4458.706 F1816.4218
Y340.812 Z10.292 A-4454.574 F1819.9411
Y340.795 Z10.255 A-4442.156 F691.6076
Y340.783 Z10.28 A-4433.888 F1039.2138
Y340.772 Z10.295 A-4425.621 F1044.7835
Y340.76 Z10.298 A-4417.351 F1048.4323
Y340.754 Z10.145 A-4413.207 F1754.6285
Y340.753 Z10.178 A-4412.158 F7184.8317
Y340.752 Z10.214 A-4411.119 F7106.8561
Y340.749 Z10.298 A-4409.076 F3493.3823
Y340.731 Z10.398 A-4396.654 F667.3391
Y340.72 Z10.612 A-4388.403 F904.3954
Y340.703 Z10.782 A-4376.115 F634.2105
Y340.686 Z10.817 A-4363.883 F670.2694
Y340.669 Z10.79 A-4351.668 F673.0356
Y340.658 Z10.829 A-4343.522 F995.8524
Y340.641 Z10.822 A-4331.299 F675.8068
Y340.624 Z10.802 A-4319.076 F673.9398
Y340.607 Z10.781 A-4306.851 F674.8489
Y340.595 Z10.806 A-4298.702 F1005.6513
Y340.578 Z10.791 A-4286.475 F675.7074
Y340.561 Z10.785 A-4274.246 F677.8109
Y340.544 Z10.782 A-4262.019 F678.5551
Y340.533 Z10.823 A-4253.87 F995.2931
Y340.516 Z10.827 A-4241.644 F676.0004
Y340.5 Z10.823 A-4230. F709.7747
Y340.483 Z10.794 A-4217.552 F659.6448
Y340.466 Z10.815 A-4205.328 F674.2645
Y340.454 Z10.851 A-4197.184 F996.0934
Y340.437 Z10.826 A-4184.971 F671.7107
Y340.421 Z10.74 A-4172.753 F656.9907
Y340.403 Z10.561 A-4160.51 F636.3513
Y340.386 Z10.31 A-4148.208 F625.0864
Y340.375 A-4139.957 F1050.0364
Y340.358 Z10.284 A-4127.551 F694.1709
Y340.346 Z10.306 A-4119.287 F1039.8643
Y340.335 Z10.312 A-4111.023 F1046.8379
Y340.329 Z10.176 A-4106.884 F1787.1533
Y340.323 Z10.314 A-4102.755 F1787.0318
Y340.318 Z10.189 A-4098.61 F1807.1083
Y340.312 Z10.312 A-4094.481 F1818.041
Y340.295 Z10.27 A-4082.069 F689.5344
Y340.277 Z10.259 A-4069.673 F700.4534
Y340.272 Z10.314 A-4065.542 F1969.6255
Y340.26 Z10.324 A-4057.277 F1044.3388
Y340.257 Z10.362 A-4055.155 F3729.7966
Y340.254 Z10.415 A-4053.066 F3637.5421
Y340.251 Z10.483 A-4051.016 F3555.0951
Y340.249 Z10.566 A-4049.008 F3481.6206
Y340.237 Z10.733 A-4040.796 F923.6587
Y340.22 Z10.846 A-4028.544 F646.9768
Y340.203 Z10.873 A-4016.335 F670.0899
Y340.186 Z10.839 A-4004.135 F668.7872
Y340.175 Z10.873 A-3995.998 F996.1201
Y340.158 Z10.876 A-3983.791 F674.1665
Y340.141 Z10.875 A-3971.582 F674.1752
Y340.124 Z10.86 A-3959.375 F672.5413
Y340.107 Z10.839 A-3947.166 F672.3716
Y340.096 Z10.873 A-3939.029 F996.5989
Y340.079 Z10.857 A-3926.822 F672.7187
Y340.062 Z10.85 A-3914.615 F674.9542
Y340.045 Z10.848 A-3902.407 F675.7435
Y340.028 Z10.847 A-3890.201 F675.98
Y340.017 Z10.889 A-3882.066 F990.2304
Y340. Z10.885 A-3870. F681.1449
Y339.983 Z10.851 A-3857.558 F655.4347
Y339.966 Z10.877 A-3845.357 F670.4385
Y339.954 Z10.867 A-3837.227 F1009.9054
Y339.938 Z10.739 A-3825.019 F644.1119
Y339.921 Z10.514 A-3812.77 F624.8775
Y339.898 Z10.331 A-3796.32 F491.0649
Y339.892 Z10.173 A-3792.18 F1743.1978
Y339.886 Z10.324 A-3788.053 F1761.7405
Y339.875 Z10.33 A-3779.78 F1044.1278
Y339.857 Z10.291 A-3767.377 F689.722
Y339.846 Z10.32 A-3759.116 F1034.3747
Y339.835 Z10.326 A-3750.857 F1046.565
Y339.829 Z10.207 A-3746.72 F1822.6163
Y339.823 Z10.332 A-3742.593 F1811.1607
Y339.817 Z10.201 A-3738.451 F1792.6803
Y339.812 Z10.326 A-3734.324 F1812.213
Y339.8 Z10.331 A-3726.054 F1044.6439
Y339.771 Z10.609 A-3705.403 F383.7024
Y339.754 Z10.82 A-3693.111 F622.0946
Y339.75 Z10.793 A-3690.001 F2564.3776
Y339.746 Z10.799 A-3686.916 F2671.6193
Y339.744 Z10.815 A-3685.388 F5184.4111
Y339.742 Z10.838 A-3683.874 F5083.0465
Y339.739 Z10.869 A-3682.374 F4989.0072
Y339.737 Z10.909 A-3680.891 F4901.9932
Y339.72 Z10.898 A-3668.698 F672.2041
Y339.703 Z10.882 A-3656.507 F672.0408
Y339.687 Z10.874 A-3644.31 F673.9502
Y339.67 Z10.87 A-3632.112 F674.7821
Y339.658 Z10.909 A-3623.983 F991.0908
Y339.641 Z10.913 A-3611.786 F672.5501
Y339.624 Z10.9 A-3599.59 F671.4654
Y339.607 Z10.883 A-3587.394 F671.5034
Y339.596 Z10.909 A-3579.266 F999.01
Y339.579 Z10.897 A-3567.071 F671.9285
Y339.562 Z10.893 A-3554.875 F673.4437
Y339.545 Z10.897 A-3542.679 F673.535
Y339.528 Z10.902 A-3530.485 F673.2166
Y339.512 Z10.905 A-3518.293 F673.2707
Y339.509 Z10.877 A-3516.713 F4788.584
Y339.507 Z10.857 A-3515.134 F4924.5804
Y339.503 Z10.842 A-3511.989 F2573.9995
Y339.499 Z10.86 A-3508.876 F2584.7989
Y339.494 Z10.912 A-3505.814 F2480.642
Y339.477 Z10.897 A-3493.504 F664.9248
Y339.46 Z10.751 A-3481.311 F638.6871
Y339.449 Z10.616 A-3473.158 F945.8387
Y339.437 Z10.455 A-3464.98 F939.1865
Y339.415 Z10.291 A-3448.504 F495.9001
Y339.397 Z10.349 A-3436.117 F683.7901
Y339.392 Z10.201 A-3431.981 F1759.7957
Y339.386 Z10.338 A-3427.856 F1787.7826
Y339.38 Z10.215 A-3423.714 F1809.4005
Y339.374 Z10.349 A-3419.588 F1790.4391
Y339.357 Z10.297 A-3407.188 F684.9838
Y339.346 Z10.334 A-3398.93 F1028.7306
Y339.334 Z10.338 A-3390.675 F1046.2046
Y339.329 Z10.24 A-3386.541 F1864.4472
Y339.323 Z10.351 A-3382.415 F1838.5113
Y339.317 Z10.211 A-3378.277 F1776.3733
Y339.3 Z10.546 A-3365.885 F602.252
Y339.283 Z10.792 A-3353.57 F613.9825
Y339.266 Z10.91 A-3341.34 F643.4865
Y339.264 Z10.884 A-3339.795 F4932.1394
Y339.262 Z10.867 A-3338.252 F5071.1821
Y339.259 Z10.858 A-3336.713 F5221.6689
Y339.257 Z10.856 A-3335.18 F5370.9836
Y339.255 Z10.863 A-3333.656 F5316.5897
Y339.253 Z10.878 A-3332.141 F5209.3137
Y339.249 Z10.931 A-3329.152 F2527.0406
Y339.232 Z10.9 A-3316.972 F667.385
Y339.221 Z10.913 A-3308.848 F1006.1052
Y339.204 Z10.897 A-3296.659 F671.1542
Y339.187 Z10.889 A-3284.466 F673.2422
Y339.17 Z10.885 A-3272.272 F674.1329
Y339.159 Z10.92 A-3264.145 F992.6526
Y339.142 Z10.926 A-3251.953 F671.8182
Y339.125 Z10.915 A-3239.761 F671.2661
Y339.108 Z10.898 A-3227.57 F670.7928
Y339.096 Z10.924 A-3219.445 F997.8181
Y339.08 Z10.927 A-3207.255 F672.1386
Y339.063 Z10.914 A-3195.065 F670.9949
Y339.046 Z10.921 A-3182.877 F672.1245
Y339.029 Z10.933 A-3170.693 F671.1725
Y339.012 Z10.95 A-3158.513 F669.4795
Y339.01 Z10.911 A-3156.914 F4587.8351
Y339.007 Z10.882 A-3155.314 F4711.2235
Y339.003 Z10.848 A-3152.118 F2456.9217
Y338.999 Z10.849 A-3148.945 F2600.0525
Y338.994 Z10.883 A-3145.814 F2500.4109
Y338.977 Z10.737 A-3133.492 F633.0473
Y338.96 Z10.436 A-3121.246 F607.0267
Y338.949 Z10.364 A-3113.03 F1002.6193
Y338.943 Z10.252 A-3108.904 F1833.7329
Y338.937 Z10.349 A-3104.78 F1869.5305
Y338.92 Z10.331 A-3092.386 F694.1094
Y338.909 Z10.34 A-3084.135 F1045.1514
Y338.897 Z10.367 A-3075.88 F1031.8991
Y338.891 Z10.238 A-3071.748 F1796.5472
Y338.886 Z10.352 A-3067.625 F1832.01
Y338.88 Z10.213 A-3063.487 F1776.5016
Y338.874 Z10.367 A-3059.362 F1749.1607
Y338.857 Z10.301 A-3046.965 F679.812
Y338.845 Z10.345 A-3038.709 F1022.8831
Y338.823 Z10.54 A-3022.203 F486.8402
Y338.811 Z10.722 A-3013.984 F915.775
Y338.8 Z10.868 A-3005.813 F929.0779
Y338.783 Z10.951 A-2993.607 F651.3291
Y338.766 A-2981.43 F671.496
Y338.764 Z10.92 A-2979.893 F4855.3708
Y338.762 Z10.897 A-2978.356 F4986.1469
Y338.76 Z10.882 A-2976.822 F5128.1274
Y338.757 Z10.874 A-2975.291 F5281.0522
Y338.755 Z10.875 A-2973.767 F5399.3725
Y338.753 Z10.884 A-2972.252 F5304.558
Y338.749 Z10.925 A-2969.257 F2571.5285
Y338.732 Z10.906 A-2957.075 F670.1879
Y338.721 Z10.928 A-2948.953 F1000.1915
Y338.704 Z10.911 A-2936.767 F670.4189
Y338.687 Z10.903 A-2924.578 F672.6082
Y338.67 Z10.899 A-2912.389 F673.5103
Y338.659 Z10.932 A-2904.265 F993.8057
Y338.642 Z10.939 A-2892.076 F671.1219
Y338.625 Z10.93 A-2879.889 F671.0243
Y338.608 Z10.91 A-2867.703 F669.4612
Y338.591 Z10.922 A-2855.516 F671.5569
Y338.574 Z10.914 A-2843.335 F672.4095
Y338.557 Z10.927 A-2831.154 F671.5093
Y338.54 Z10.963 A-2818.975 F664.3994
Y338.523 Z10.934 A-2806.803 F666.5324
Y338.506 Z10.81 A-2794.624 F642.993
Y338.503 Z10.753 A-2792.421 F3340.0749
Y338.5 Z10.713 A-2790.214 F3463.8185
Y338.497 Z10.688 A-2788.009 F3603.447
Y338.494 Z10.68 A-2785.814 F3758.922
Y338.471 Z10.375 A-2769.33 F466.2905
Y338.46 Z10.365 A-2761.082 F1041.2262
Y338.454 Z10.258 A-2756.949 F1842.1513
Y338.448 Z10.383 A-2752.825 F1805.519
Y338.443 Z10.255 A-2748.69 F1794.8165
Y338.437 Z10.364 A-2744.569 F1841.4983
Y338.42 Z10.34 A-2732.177 F691.9196
Y338.402 Z10.323 A-2719.803 F695.9836
Y338.397 Z10.383 A-2715.677 F1947.303
Y338.385 Z10.366 A-2707.428 F1037.1916
Y338.38 Z10.241 A-2703.294 F1803.0969
Y338.374 Z10.386 A-2699.171 F1766.3308
Y338.351 Z10.458 A-2682.656 F508.7589
Y338.339 Z10.677 A-2674.415 F898.0432
Y338.328 Z10.826 A-2666.229 F928.9863
Y338.317 Z10.919 A-2658.078 F956.5327
Y338.3 Z10.971 A-2645.887 F659.0005
Y338.283 Z10.962 A-2633.715 F669.9616
Y338.266 Z10.95 A-2621.541 F669.8963
Y338.264 Z10.919 A-2620.004 F4857.4625
Y338.262 Z10.896 A-2618.466 F4988.6043
Y338.26 Z10.882 A-2616.931 F5130.9537
Y338.258 Z10.875 A-2615.4 F5284.1785
Y338.255 Z10.876 A-2613.876 F5395.9274
Y338.253 Z10.885 A-2612.361 F5298.5503
Y338.249 Z10.927 A-2609.365 F2568.6623
Y338.232 Z10.917 A-2597.183 F671.8521
Y338.221 Z10.943 A-2589.064 F996.9764
Y338.204 Z10.926 A-2576.882 F669.6739
Y338.187 Z10.917 A-2564.697 F671.9676
Y338.17 Z10.914 A-2552.512 F672.8907
Y338.153 Z10.911 A-2540.327 F673.2139
Y338.142 Z10.952 A-2532.206 F987.8395
Y338.125 Z10.945 A-2520.023 F670.8074
Y338.108 Z10.922 A-2507.841 F668.0678
Y338.091 Z10.942 A-2495.659 F669.1259
Y338.074 Z10.944 A-2483.483 F671.9252
Y338.057 Z10.942 A-2471.311 F672.1347
Y338.04 Z10.919 A-2459.139 F669.0261
Y338.024 Z10.77 A-2446.952 F637.0439
Y338.007 Z10.489 A-2434.715 F610.4601
Y338.005 Z10.364 A-2430.387 F1717.4571
Y338.004 Z10.323 A-2428.214 F3629.0512
Y338.003 Z10.298 A-2426.042 F3772.8178
Y338.002 Z10.287 A-2423.879 F3935.0695
Z10.292 A-2421.731 F4022.9732
Y338.001 Z10.311 A-2419.603 F3905.4746
Y338. Z10.346 A-2417.501 F3799.7412
Z10.391 A-2409.252 F1020.1169
Z10.377 A-2401.008 F1041.77
Z10.286 A-2396.878 F1874.8013
Z10.399 A-2392.756 F1827.4876
Z10.265 A-2388.624 F1781.7472
Z10.376 A-2384.504 F1836.8559
Z10.395 A-2376.247 F1036.1347
Z10.358 A-2363.871 F688.4185
Z10.397 A-2355.622 F1023.3678
Z10.377 A-2347.376 F1036.856
Z10.264 A-2343.245 F1828.2864
Z10.592 A-2330.869 F602.2723
Z10.819 A-2318.57 F618.3328
Z10.94 A-2306.35 F641.5725
Z10.951 A-2294.168 F673.0315
Z10.931 A-2281.998 F670.9132
Z10.959 A-2273.882 F995.8875
Z10.95 A-2261.705 F673.1781
Z10.92 A-2260.167 F4859.8037
Z10.897 A-2258.629 F4991.6617
Z10.882 A-2257.094 F5135.3417
Z10.876 A-2255.563 F5291.8801
Z10.877 A-2254.038 F5414.0122
Z10.886 A-2252.523 F5297.6185
Z10.929 A-2249.527 F2567.1104
Z10.954 A-2241.406 F997.5171
Z10.951 A-2229.227 F675.0178
Z10.934 A-2217.046 F671.0026
Z10.924 A-2204.863 F674.3904
Z10.92 A-2192.679 F676.2059
Z10.917 A-2180.496 F676.9069
Z10.954 A-2172.376 F990.751
Z10.951 A-2160.194 F675.1306
Z10.925 A-2148.013 F668.7031
Z10.943 A-2135.831 F671.3376
Z10.949 A-2123.656 F674.9295
Z10.939 A-2111.485 F673.9825
Z10.908 A-2099.313 F668.3148
Z10.759 A-2087.123 F637.8918
Z10.488 A-2074.883 F613.2668
Z10.401 A-2070. F1604.7317
G0
Z12.255
X2.295 Z14.064
G94

(P1.1 5)
G0 A-2070.
G0 Z14.249
X0.169 Y338.
A-2070.
G1 X0.182 Z15.284 F833.
Z13.284 F1000.
X-0.085 Z12.049
X-0.884 Z10.991
X-2. Z10.398
G93 Z10.377 A-2061.628 F1020.5078
Z10.399 A-2053.408 F1038.2252
Z10.278 A-2049.291 F1813.375
Z10.375 A-2045.187 F1874.0787
Z10.369 A-2032.851 F701.5398
Z10.319 A-2020.53 F689.1855
Z10.4 A-2016.423 F1902.661
Z10.276 A-2012.311 F1809.0186
Z10.376 A-2008.208 F1866.8381
Z10.243 A-2004.091 F1793.0825
Z10.399 A-1999.985 F1749.3911
Z10.66 A-1987.662 F617.0484
Z10.85 A-1975.437 F628.6679
Z10.93 A-1963.275 F656.3902
Z10.947 A-1951.144 F674.0497
Z10.926 A-1939.02 F673.4028
Z10.934 A-1930.933 F1014.5537
Z10.919 A-1918.802 F675.5383
Z10.913 A-1906.67 F679.0884
Z10.914 A-1894.536 F680.5712
Z10.895 A-1892.534 F3932.8008
Z10.89 A-1890.516 F4045.221
Z10.898 A-1888.485 F3984.6739
Z10.921 A-1886.446 F3829.8495
Z10.955 A-1878.359 F996.3364
A-1866.224 F678.2813
Z10.952 A-1854.088 F677.3979
Z10.947 A-1841.953 F676.9345
Z10.938 A-1829.816 F676.233
Z10.927 A-1817.681 F676.2993
Z10.952 A-1809.592 F1002.2686
Z10.945 A-1797.457 F676.7281
Z10.966 A-1785.328 F671.9246
Z10.944 A-1773.202 F671.852
Z10.953 A-1765.12 F1013.2712
Z10.849 A-1752.988 F650.2332
Z10.646 A-1740.827 F628.7366
Z10.409 A-1728.598 F627.6289
Z10.237 A-1724.496 F1718.0228
Z10.377 A-1720.394 F1783.8806
Z10.398 A-1710. F823.8231
Y337.988 Z10.378 A-1701.628 F1018.7075
Y337.977 Z10.4 A-1693.408 F1035.9547
Y337.971 Z10.279 A-1689.291 F1813.565
Y337.966 Z10.376 A-1685.188 F1873.9534
Y337.948 Z10.371 A-1672.852 F697.8185
Y337.931 Z10.322 A-1660.531 F688.5627
Y337.926 Z10.403 A-1656.425 F1902.5607
Y337.92 Z10.28 A-1652.313 F1809.9166
Y337.914 Z10.379 A-1648.21 F1868.488
Y337.908 Z10.26 A-1644.093 F1821.5625
Y337.897 Z10.54 A-1635.869 F878.8171
Y337.88 Z10.806 A-1623.605 F611.0076
Y337.863 Z10.914 A-1611.43 F648.7237
Y337.846 Z10.955 A-1599.294 F665.838
Y337.829 Z10.946 A-1587.17 F673.6654
Y337.813 Z10.957 A-1575.04 F672.8867
Y337.796 Z10.945 A-1562.909 F672.6722
Y337.779 Z10.938 A-1550.775 F673.6687
Y337.762 Z10.95 A-1538.64 F672.7555
Y337.76 Z10.919 A-1537.159 F5029.1329
Y337.758 Z10.897 A-1535.664 F5123.246
Y337.754 Z10.876 A-1532.639 F2637.4338
Y337.749 Z10.886 A-1529.581 F2657.4912
Y337.745 Z10.928 A-1526.508 F2506.3393
Y337.734 Z10.962 A-1518.422 F995.3421
Y337.717 Z10.963 A-1506.289 F673.1845
Y337.7 Z10.961 A-1494.156 F673.1525
Y337.683 Z10.956 A-1482.023 F673.1378
Y337.667 Z10.948 A-1469.89 F672.9673
Y337.65 Z10.937 A-1457.757 F673.1713
Y337.638 Z10.959 A-1449.67 F1001.3958
Y337.616 Z10.965 A-1433.494 F504.7662
Y337.599 Z10.945 A-1421.372 F671.1525
Y337.582 Z10.85 A-1409.247 F652.7627
Y337.565 Z10.676 A-1397.088 F635.848
Y337.543 Z10.347 A-1380.769 F467.3461
Y337.526 Z10.424 A-1368.45 F677.6425
Y337.52 Z10.259 A-1364.34 F1725.773
Y337.514 Z10.39 A-1360.24 F1800.484
Y337.509 Z10.29 A-1356.121 F1859.4001
Y337.5 Z10.417 A-1350. F1270.3827
Y337.488 Z10.392 A-1341.628 F1014.3996
Y337.483 Z10.28 A-1337.515 F1835.2192
Y337.477 Z10.418 A-1333.411 F1780.1688
Y337.471 Z10.298 A-1329.295 F1813.1123
Y337.466 Z10.39 A-1325.194 F1884.9152
Y337.448 A-1312.863 F697.3946
Y337.426 Z10.437 A-1296.443 F516.618
Y337.409 Z10.724 A-1284.149 F608.6359
Y337.392 Z10.887 A-1271.948 F634.7596
Y337.375 Z10.969 A-1259.802 F653.6443
Y337.358 Z10.971 A-1247.681 F673.3564
Y337.341 Z10.956 A-1235.557 F671.6313
Y337.324 Z10.945 A-1223.427 F672.6674
Y337.307 Z10.933 A-1211.293 F673.2921
Y337.29 Z10.92 A-1199.158 F673.5477
Y337.274 Z10.915 A-1187.022 F675.3536
Y337.262 Z10.965 A-1178.932 F984.6288
Y337.26 Z10.935 A-1177.451 F5025.2275
Y337.258 Z10.912 A-1175.957 F5119.3537
Y337.254 Z10.891 A-1172.932 F2635.4837
Y337.25 Z10.902 A-1169.875 F2653.2202
Y337.246 Z10.945 A-1166.802 F2502.4506
Y337.234 Z10.97 A-1158.718 F999.2305
Y337.217 Z10.975 A-1146.589 F672.4797
Y337.201 A-1134.46 F672.6906
Y337.184 Z10.972 A-1122.33 F672.6617
Y337.167 Z10.967 A-1110.201 F672.5916
Y337.15 Z10.956 A-1098.072 F672.3558
Y337.133 Z10.959 A-1085.943 F673.6279
Y337.116 Z10.937 A-1073.82 F670.8119
Y337.1 Z10.798 A-1061.687 F641.4665
Y337.088 Z10.641 A-1053.577 F934.8422
Y337.071 Z10.318 A-1041.349 F607.2983
Y337.066 Z10.4 A-1037.251 F1904.5208
Y337.049 Z10.409 A-1024.926 F695.8283
Y337.026 Z10.444 A-1008.512 F518.1357
Y337.02 Z10.268 A-1004.403 F1703.867
Y337.014 Z10.404 A-1000.305 F1788.4873
Y337.009 Z10.286 A-996.187 F1817.9804
Y337. Z10.435 A-990. F1233.8217
Y336.988 Z10.406 A-981.628 F1010.0436
Y336.983 Z10.284 A-977.516 F1814.1858
Y336.977 Z10.437 A-973.414 F1751.6338
Y336.971 Z10.318 A-969.298 F1812.6058
Y336.966 Z10.403 A-965.199 F1895.8
Y336.937 Z10.66 A-944.672 F386.1777
Y336.92 Z10.852 A-932.445 F627.7839
Y336.903 Z10.953 A-920.284 F648.9299
Y336.886 Z10.959 A-908.156 F673.3988
Y336.869 Z10.93 A-896.031 F668.94
Y336.858 Z10.962 A-887.945 F995.8194
Y336.841 Z10.952 A-875.815 F672.6918
Y336.825 Z10.943 A-863.681 F673.0186
Y336.808 Z10.933 A-851.545 F673.5501
Y336.791 Z10.922 A-839.407 F673.6744
Y336.774 Z10.916 A-827.27 F675.1795
Y336.763 Z10.958 A-819.18 F990.4986
Y336.761 Z10.928 A-817.699 F5030.5186
Y336.759 Z10.905 A-816.203 F5124.9279
Y336.756 Z10.891 A-814.696 F5226.4682
Y336.754 Z10.885 A-813.178 F5333.8196
Y336.75 Z10.896 A-810.12 F2652.223
Y336.746 Z10.939 A-807.048 F2501.6264
Y336.729 Z10.92 A-794.914 F672.1014
Y336.718 Z10.958 A-786.826 F992.4816
Y336.701 Z10.961 A-774.692 F673.2335
Y336.684 Z10.962 A-762.56 F673.3457
Y336.662 Z10.957 A-746.384 F504.9133
Y336.645 Z10.927 A-734.26 F669.2979
Y336.628 Z10.841 A-722.129 F655.7632
Y336.611 Z10.646 A-709.968 F631.0105
Y336.594 Z10.329 A-697.739 F608.4418
Y336.588 Z10.417 A-693.638 F1888.0329
Y336.583 Z10.268 A-689.527 F1758.6727
Y336.577 Z10.419 A-685.426 F1756.6638
Y336.571 Z10.3 A-681.308 F1812.9458
Y336.566 Z10.414 A-677.207 F1830.635
Y336.548 Z10.391 A-664.882 F692.5112
Y336.537 Z10.412 A-656.675 F1037.1816
Y336.526 Z10.424 A-648.468 F1040.6471
Y336.52 Z10.283 A-644.357 F1772.6126
Y336.514 Z10.418 A-640.257 F1789.3812
Y336.509 Z10.281 A-636.141 F1779.7999
Y336.5 Z10.414 A-630. F1260.911
Y336.488 Z10.42 A-621.628 F1023.4108
Y336.483 Z10.263 A-617.516 F1743.3881
Y336.477 Z10.413 A-613.415 F1760.3768
Y336.454 Z10.731 A-597.006 F464.4287
Y336.437 Z10.888 A-584.799 F635.8705
Y336.42 Z10.948 A-572.648 F660.3113
Y336.404 Z10.95 A-560.52 F674.2434
Y336.387 Z10.933 A-548.391 F672.2344
Y336.37 Z10.916 A-536.256 F672.9491
Y336.359 Z10.951 A-528.167 F994.779
Y336.342 Z10.947 A-516.031 F673.5717
Y336.325 Z10.94 A-503.894 F673.5562
Y336.308 Z10.933 A-491.756 F673.7873
Y336.291 Z10.923 A-479.616 F673.8573
Y336.274 Z10.918 A-467.476 F675.0404
Y336.263 Z10.938 A-459.386 F1004.5706
Y336.261 Z10.908 A-457.904 F5045.0777
Y336.259 Z10.887 A-456.407 F5140.1534
Y336.257 Z10.873 A-454.898 F5242.4185
Y336.255 Z10.868 A-453.38 F5350.0256
Y336.25 Z10.88 A-450.321 F2649.4653
Y336.246 Z10.925 A-447.248 F2499.3689
Y336.229 Z10.918 A-435.108 F674.7612
Y336.212 Z10.93 A-422.969 F673.6998
Y336.196 Z10.934 A-410.833 F674.7116
Y336.179 Z10.936 A-398.702 F674.81
Y336.162 Z10.905 A-386.571 F669.5875
Y336.145 Z10.762 A-374.43 F641.7496
Y336.134 Z10.628 A-366.312 F949.5069
Y336.117 Z10.397 A-354.075 F629.7011
Y336.1 Z10.385 A-341.763 F696.8199
Y336.088 Z10.415 A-333.549 F1030.7229
Y336.083 Z10.247 A-329.437 F1721.3971
Y336.077 Z10.388 A-325.336 F1780.1155
Y336.071 Z10.26 A-321.216 F1799.7229
Y336.065 Z10.411 A-317.111 F1757.5302
Y336.048 Z10.354 A-304.78 F683.6701
Y336.037 Z10.402 A-296.566 F1020.7993
Y336.025 Z10.391 A-288.357 F1043.2369
Y336.02 Z10.282 A-284.244 F1841.6641
Y336.014 Z10.408 A-280.14 F1806.6932
Y336.008 Z10.26 A-276.023 F1758.6042
Y336. Z10.382 A-270. F1296.5494
Y335.983 Z10.644 A-257.527 F610.727
Y335.966 Z10.813 A-245.291 F635.1431
Y335.949 Z10.911 A-233.115 F651.4981
Y335.932 Z10.923 A-220.975 F674.0184
Y335.915 Z10.906 A-208.842 F673.4853
Y335.898 Z10.892 A-196.704 F674.9426
Y335.881 Z10.888 A-184.562 F676.8088
Y335.87 Z10.904 A-176.467 F1009.2697
Y335.859 Z10.937 A-168.375 F996.7307
Y335.842 Z10.936 A-156.234 F674.2962
Y335.825 Z10.932 A-144.092 F674.1965
Y335.808 Z10.927 A-131.95 F674.2993
Y335.791 Z10.917 A-119.807 F674.0183
Y335.775 Z10.901 A-107.664 F673.5585
Y335.758 Z10.878 A-95.521 F672.772
Y335.753 Z10.835 A-92.534 F2581.6238
Y335.749 Z10.823 A-89.503 F2688.3677
Y335.745 Z10.843 A-86.445 F2627.3218
Y335.741 Z10.894 A-83.376 F2481.5944
Y335.724 Z10.885 A-71.234 F676.1268
Y335.707 Z10.907 A-59.094 F672.9875
Y335.69 Z10.912 A-46.957 F675.8684
Y335.673 Z10.8 A-34.817 F649.3003
Y335.662 Z10.677 A-26.705 F953.742
Y335.651 Z10.487 A-18.57 F923.0826
Y335.645 Z10.326 A-14.488 F1736.8949
Y335.639 Z10.378 A-10.395 F1982.0047
Y335.634 Z10.254 A-6.283 F1812.998
Y335.628 Z10.36 A-2.178 F1855.7813
Y335.611 Z10.346 A10.165 F697.0483
Y335.599 Z10.351 A18.381 F1049.7015
Y335.588 Z10.375 A26.602 F1036.692
Y335.582 Z10.232 A30.717 F1773.0133
Y335.577 Z10.357 A34.823 F1816.8946
Y335.571 Z10.215 A38.945 F1776.8416
Y335.565 Z10.372 A43.053 F1749.3134
Y335.548 Z10.314 A55.399 F684.7753
Y335.537 Z10.357 A63.621 F1026.8237
Y335.508 Z10.578 A84.17 F391.8754
Y335.505 Z10.591 A86.67 F3308.7511
Y335.501 Z10.624 A89.178 F3155.1191
Y335.498 Z10.678 A91.687 F3020.2853
Y335.494 Z10.752 A94.186 F2903.0044
Y335.483 Z10.857 A102.436 F943.9484
Y335.466 Z10.906 A114.601 F665.1214
Y335.449 Z10.897 A126.748 F675.2026
Y335.432 Z10.884 A138.893 F675.3036
Y335.415 Z10.87 A151.04 F675.676
Y335.398 Z10.863 A163.189 F677.3314
Y335.381 Z10.867 A175.339 F677.8437
Y335.365 Z10.856 A187.488 F677.1488
Y335.353 Z10.857 A195.592 F1017.2782
Y335.342 Z10.902 A203.692 F992.1459
Y335.325 Z10.899 A215.845 F675.6809
Y335.308 A227.998 F675.8524
Y335.291 Z10.893 A240.15 F675.5434
Y335.275 Z10.886 A252.303 F675.9373
Y335.258 Z10.856 A264.453 F671.8287
Y335.253 Z10.817 A267.445 F2599.4606
Y335.249 Z10.81 A270.478 F2706.9307
Y335.245 Z10.834 A273.538 F2612.0505
Y335.241 Z10.889 A276.604 F2469.0272
Y335.224 Z10.88 A288.751 F676.1835
Y335.207 Z10.849 A300.896 F672.2261
Y335.19 Z10.726 A313.054 F649.2257
Y335.173 Z10.432 A325.257 F610.9933
Y335.15 Z10.331 A341.666 F508.6248
Y335.145 Z10.224 A345.785 F1854.6221
Y335.139 Z10.339 A349.896 F1838.7999
Y335.133 Z10.191 A354.019 F1766.3813
Y335.128 Z10.33 A358.129 F1789.9825
Y335.11 Z10.291 A370.488 F691.9794
Y335.093 Z10.277 A382.828 F701.8442
Y335.088 Z10.334 A386.942 F1970.2268
Y335.082 Z10.225 A391.059 F1849.6128
Y335.076 Z10.326 A395.169 F1870.7769
Y335.07 Z10.197 A399.292 F1806.2141
Y335.065 Z10.333 A403.403 F1794.902
Y335.059 Z10.221 A407.53 F1839.2848
Y335.053 Z10.321 A411.64 F1871.8227
Y335.03 Z10.572 A428.101 F478.6448
Y335.013 Z10.775 A440.354 F628.0895
Y335. Z10.862 A450. F821.3912
Y334.983 Z10.894 A462.423 F656.4389
Y334.966 Z10.875 A474.575 F673.8661
Y334.949 Z10.863 A486.732 F676.0107
Y334.932 Z10.852 A498.89 F676.823
Y334.915 Z10.84 A511.048 F677.1934
Y334.898 Z10.834 A523.209 F678.7065
Y334.887 Z10.871 A531.316 F998.5141
Y334.87 Z10.836 A543.475 F670.9121
Y334.853 Z10.832 A555.639 F678.9335
Y334.842 Z10.867 A563.746 F999.8404
Y334.825 Z10.866 A575.909 F677.2294
Y334.808 Z10.867 A588.072 F677.2103
Y334.791 Z10.862 A600.234 F677.0718
Y334.774 Z10.87 A612.394 F676.5908
Y334.758 Z10.834 A624.551 F670.8004
Y334.753 Z10.794 A627.543 F2598.9828
Y334.749 Z10.785 A630.578 F2706.5214
Y334.745 Z10.808 A633.639 F2620.9371
Y334.741 Z10.862 A636.709 F2476.7426
Y334.729 Z10.833 A644.812 F1004.4016
Y334.713 Z10.681 A656.981 F641.7151
Y334.696 Z10.385 A669.2 F612.2338
Y334.684 Z10.2 A677.395 F942.0571
Y334.678 Z10.298 A681.509 F1880.1368
Y334.661 Z10.279 A693.87 F699.2356
Y334.65 Z10.295 A702.103 F1048.3936
Y334.638 Z10.3 A710.338 F1052.1005
Y334.633 Z10.161 A714.462 F1788.4447
Y334.627 Z10.297 A718.576 F1798.613
Y334.616 A726.821 F1051.9927
Y334.598 Z10.262 A739.186 F695.0229
Y334.587 Z10.286 A747.421 F1044.1003
Y334.575 Z10.294 A755.656 F1051.6541
Y334.553 Z10.568 A772.124 F475.2878
Y334.536 Z10.754 A784.381 F633.3508
Y334.519 Z10.829 A796.575 F661.004
Y334.502 Z10.857 A808.738 F673.2471
Y334.497 Z10.796 A812.091 F2263.9358
Y334.495 Z10.781 A813.792 F4684.5377
Y334.492 Z10.776 A815.505 F4792.7727
Y334.49 Z10.78 A817.229 F4775.4847
Y334.487 Z10.795 A818.959 F4619.2333
Y334.485 Z10.82 A820.692 F4473.454
Y334.483 Z10.854 A822.426 F4340.579
Y334.466 Z10.839 A834.59 F676.3434
Y334.449 Z10.829 A846.759 F677.6986
Y334.432 Z10.82 A858.929 F678.3901
Y334.415 Z10.809 A871.1 F678.7369
Y334.398 Z10.805 A883.272 F680.1132
Y334.387 Z10.842 A891.385 F1000.1884
Y334.37 Z10.798 A903.555 F669.8173
Y334.353 Z10.801 A915.731 F680.4565
Y334.336 Z10.811 A927.905 F679.0895
Y334.319 Z10.812 A940.077 F680.0013
Y334.302 Z10.814 A952.248 F679.9324
Y334.286 Z10.836 A964.417 F675.5873
Y334.269 Z10.827 A976.582 F678.2602
Y334.257 Z10.795 A984.691 F1004.8802
Y334.253 Z10.722 A987.66 F2494.0248
Y334.249 Z10.681 A990.69 F2589.0038
Y334.245 Z10.672 A993.765 F2697.3773
Y334.24 Z10.695 A996.867 F2612.938
Y334.229 Z10.563 A1005.001 F953.7369
Y334.206 Z10.194 A1021.373 F464.957
Y334.201 Z10.27 A1025.492 F1932.9189
Y334.195 Z10.165 A1029.619 F1863.256
Y334.189 Z10.264 A1033.736 F1880.7031
Y334.184 Z10.124 A1037.866 F1791.0905
Y334.178 Z10.27 A1041.985 F1781.7228
Y334.161 Z10.219 A1054.364 F691.3724
Y334.149 Z10.253 A1062.607 F1040.3659
Y334.138 Z10.259 A1070.848 F1055.0952
Y334.126 Z10.265 A1079.093 F1054.1427
Y334.121 Z10.138 A1083.222 F1817.
Y334.115 Z10.258 A1087.341 F1837.5859
Y334.103 Z10.262 A1095.593 F1054.1444
Y334.08 Z10.461 A1112.089 F489.617
Y334.063 Z10.676 A1124.385 F628.473
Y334.046 Z10.789 A1136.604 F651.7295
Y334.029 Z10.823 A1148.784 F673.1684
Y334.013 Z10.818 A1160.951 F679.4206
Y334. Z10.822 A1170. F913.6556
Y333.983 Z10.817 A1182.433 F665.068
Y333.966 Z10.804 A1194.61 F677.9906
Y333.949 Z10.795 A1206.791 F679.4127
Y333.932 Z10.787 A1218.973 F680.0014
Y333.915 Z10.778 A1231.156 F680.307
Y333.898 Z10.776 A1243.338 F681.5173
Y333.881 Z10.762 A1255.518 F680.2184
Y333.864 Z10.75 A1267.701 F681.5371
Y333.853 Z10.765 A1275.828 F1018.3369
Y333.836 Z10.779 A1288.014 F679.6505
Y333.819 Z10.797 A1300.196 F678.3266
Y333.802 A1312.375 F680.5698
Y333.785 Z10.802 A1324.551 F680.123
Y333.768 Z10.694 A1336.729 F654.3891
Y333.757 Z10.566 A1344.864 F956.3036
Y333.754 Z10.501 A1346.855 F3653.4124
Y333.751 Z10.452 A1348.882 F3736.5525
Y333.749 Z10.416 A1350.939 F3829.2477
Y333.746 Z10.395 A1353.022 F3932.1316
Y333.734 Z10.135 A1361.219 F901.5777
Y333.729 Z10.236 A1365.339 F1878.5013
Y333.711 Z10.206 A1377.72 F699.0846
Y333.7 Z10.235 A1385.971 F1044.0565
Y333.689 Z10.225 A1394.219 F1055.2019
Y333.683 Z10.099 A1398.351 F1823.5642
Y333.677 Z10.238 A1402.474 F1799.7159
Y333.671 Z10.114 A1406.611 F1824.5192
Y333.666 Z10.221 A1410.732 F1867.4218
Y333.648 Z10.203 A1423.122 F702.5786
Y333.631 Z10.167 A1435.498 F700.097
Y333.626 Z10.233 A1439.622 F1959.7826
Y333.614 Z10.219 A1447.874 F1052.5895
Y333.597 Z10.53 A1460.24 F609.4019
Y333.58 Z10.702 A1472.511 F638.9421
Y333.563 Z10.778 A1484.725 F662.5515
Y333.546 Z10.779 A1496.911 F681.2638
Y333.529 Z10.777 A1509.094 F681.4305
Y333.512 Z10.768 A1521.28 F680.7789
Y333.5 Z10.784 A1530. F947.1407
Y333.483 Z10.781 A1542.437 F667.111
Y333.466 Z10.768 A1554.628 F679.6629
Y333.449 Z10.76 A1566.821 F681.0657
Y333.432 Z10.754 A1579.015 F681.6099
Y333.415 Z10.747 A1591.209 F681.8643
Y333.404 Z10.777 A1599.336 F1007.7767
Y333.387 Z10.752 A1611.529 F676.9784
Y333.37 Z10.723 A1623.726 F677.6413
Y333.353 Z10.729 A1635.924 F683.3235
Y333.336 Z10.746 A1648.119 F680.7968
Y333.319 Z10.77 A1660.311 F677.6739
Y333.302 Z10.732 A1672.499 F674.4973
Y333.285 Z10.609 A1684.699 F653.2926
Y333.274 Z10.449 A1692.853 F943.1926
Y333.257 Z10.126 A1705.151 F613.7257
Y333.251 Z10.21 A1709.278 F1919.7783
Y333.25 Z10.172 A1710.295 F7170.4305
Y333.248 Z10.137 A1711.324 F7245.5056
Y333.247 Z10.106 A1712.363 F7325.0625
Y333.245 Z10.079 A1713.412 F7409.3538
Y333.24 Z10.189 A1717.536 F1865.5661
Y333.234 Z10.06 A1721.676 F1820.7082
Y333.228 Z10.21 A1725.803 F1779.3026
Y333.211 Z10.148 A1738.203 F690.8806
Y333.199 Z10.194 A1746.462 F1035.6141
Y333.188 Z10.185 A1754.717 F1058.6103
Y333.176 Z10.205 A1762.978 F1050.4515
Y333.171 Z10.055 A1767.115 F1774.9595
Y333.165 Z10.183 A1771.24 F1828.1892
Y333.159 Z10.076 A1775.382 F1865.7277
Y333.153 Z10.202 A1779.51 F1828.313
Y333.125 Z10.425 A1800.162 F394.8656
Y333.108 Z10.628 A1812.467 F633.3573
Y333.091 Z10.713 A1824.704 F662.6595
Y333.074 Z10.735 A1836.909 F679.9154
Y333.057 Z10.718 A1849.106 F681.4875
Y333.04 Z10.704 A1861.305 F682.6828
Y333.023 Z10.701 A1873.509 F684.7679
Y333.006 Z10.698 A1885.714 F684.8697
Y333.003 Z10.675 A1887.807 F3803.9354
Y333. Z10.668 A1889.921 F3912.641
Y332.997 Z10.675 A1892.049 F3889.3359
Y332.994 Z10.697 A1894.186 F3732.751
Y332.983 Z10.733 A1902.442 F993.7211
Y332.966 Z10.726 A1914.649 F682.5624
Y332.949 Z10.719 A1926.857 F682.8377
