(1001)
(T4  D=1.394 CR=0.75 TAPER=4.2deg - tapered mill)
G90
G0 G53 Z0.

(FINE G2)
T4 M6 (tapered mill D=1.394 1.5mm Chinky Ball Nose)
S18000 M3
G64
G54
G0 A90.
G43 H4
G0 X0. Y70.5
Z22.5
A90.
Z4.7
G94 G1 Z2.7 F833.3
G93 Z2.762 A86.867 F7532.72
Z2.829 A83.504 F6848.34
Z2.916 A79.031 F5094.63
Z2.997 A74.569 F5075.93
Z3.073 A70.118 F5088.3
Z3.159 A64.569 F4080.52
Z3.234 A59.033 F4128.75
Z3.296 A53.509 F4211.63
Z3.345 A47.995 F4320.96
Z3.38 A42.488 F4450.25
Z3.4 A36.987 F4605.26
Z3.407 A31.488 F4797.46
Z3.399 A25.99 F4770.39
Z3.375 A20.491 F4572.09
Z3.337 A14.986 F4423.57
Z3.286 A9.476 F4295.81
Z3.222 A3.956 F4206.8
Z3.145 A-1.574 F4124.86
Z3.058 A-7.118 F4082.82
Z2.96 A-12.676 F4061.35
Z2.854 A-18.251 F4058.91
Z2.763 A-22.723 F5103.78
Z2.719 A-24.964 F10530.44
Z2.67 A-27.77 F8747.32
A-28.331 F45000.
Z2.73 A-31.513 F7565.99
Z2.798 A-34.879 F6884.34
Z2.887 A-39.356 F5088.16
Z2.971 A-43.822 F5078.63
Z3.067 A-49.388 F4057.48
Z3.136 A-53.83 F5118.2
Z3.213 A-59.369 F4131.42
Z3.278 A-64.896 F4192.33
Z3.333 A-70.413 F4259.25
Z3.372 A-75.922 F4401.19
Z3.397 A-81.424 F4557.56
Z3.407 A-86.923 F4746.91
Z3.405 A-87.609 F37085.62
Z3.404 A-87.952 F45000.
Z3.402 A-88.983 F25199.41
Z3.401 A-89.326 F45000.
Z3.402 A-92.421 F8664.89
Z3.383 A-97.92 F4637.48
Z3.35 A-103.423 F4469.29
Z3.302 A-108.931 F4320.47
Z3.24 A-114.448 F4209.32
Z3.167 A-119.976 F4145.11
Z3.1 A-124.407 F5128.99
Z3.027 A-128.846 F5114.03
Z2.949 A-133.296 F5105.16
Z2.865 A-137.756 F5110.97
Z2.776 A-142.227 F5113.78
Z2.73 A-144.467 F10385.82
Z2.69 A-146.71 F10851.68
Z2.671 A-147.833 F22501.33
Z2.678 A-148.956 F26825.84
Z2.719 A-151.204 F10830.18
Z2.811 A-155.691 F5128.94
Z2.9 A-160.167 F5077.74
Z2.984 A-164.631 F5052.75
Z3.08 A-170.195 F4050.95
Z3.165 A-175.743 F4082.59
Z3.238 A-181.278 F4152.5
Z3.298 A-186.801 F4231.1
Z3.346 A-192.315 F4325.91
Z3.381 A-197.822 F4438.05
Z3.403 A-203.323 F4588.63
Z3.41 A-208.821 F4796.88
Z3.399 A-214.319 F4731.54
Z3.373 A-219.819 F4550.11
Z3.335 A-225.323 F4410.11
Z3.283 A-230.835 F4292.56
Z3.219 A-236.355 F4214.97
Z3.142 A-241.886 F4126.3
Z3.072 A-246.32 F5098.41
Z2.975 A-251.876 F4059.89
Z2.892 A-256.332 F5077.2
Z2.826 A-259.682 F6819.16
Z2.759 A-263.038 F6866.65
Z2.691 A-266.401 F6983.18
Z2.673 A-267.523 F22521.16
Z2.677 A-268.647 F28481.
Z2.7 A-270. F18334.28
Y70.499 Z2.761 A-273.133 F7538.51
Y70.497 Z2.829 A-276.496 F6854.35
Y70.495 Z2.915 A-280.969 F5098.45
Y70.494 Z2.997 A-285.431 F5078.98
Y70.492 Z3.072 A-289.882 F5091.66
Y70.489 Z3.158 A-295.432 F4083.52
Y70.487 Z3.233 A-300.967 F4130.22
Y70.485 Z3.295 A-306.492 F4211.32
Y70.482 Z3.344 A-312.006 F4319.78
Y70.48 Z3.379 A-317.513 F4447.98
Y70.478 Z3.4 A-323.014 F4600.94
Y70.476 Z3.407 A-328.513 F4791.67
Y70.473 Z3.399 A-334.011 F4774.22
Y70.471 Z3.375 A-339.511 F4577.39
Y70.469 Z3.338 A-345.015 F4425.03
Y70.466 Z3.287 A-350.525 F4303.03
Y70.464 Z3.224 A-356.045 F4211.01
Y70.462 Z3.148 A-361.575 F4128.52
Y70.46 Z3.061 A-367.118 F4087.78
Y70.457 Z2.964 A-372.675 F4066.19
Y70.455 Z2.859 A-378.249 F4059.94
Y70.453 Z2.769 A-382.721 F5107.26
Y70.452 Z2.724 A-384.962 F10474.32
Y70.451 Z2.683 A-387.206 F10842.33
Z2.668 A-388.328 F23620.57
Y70.45 Z2.685 A-389.452 F23088.14
Y70.449 Z2.749 A-392.822 F7067.47
Y70.447 Z2.818 A-396.186 F6845.77
Y70.446 Z2.906 A-400.661 F5083.38
Y70.444 Z2.987 A-405.124 F5089.97
Y70.442 Z3.064 A-409.576 F5086.3
Y70.44 Z3.133 A-414.018 F5124.87
Y70.438 Z3.21 A-419.558 F4130.29
Y70.435 Z3.275 A-425.086 F4192.25
Y70.433 Z3.331 A-430.603 F4256.77
Y70.431 Z3.37 A-436.112 F4399.13
Y70.428 Z3.395 A-441.615 F4554.47
Y70.426 Z3.406 A-447.114 F4734.
Z3.404 A-447.8 F37118.89
Z3.403 A-448.143 F45000.
Y70.425 Z3.401 A-449.174 F25216.86
Z3.4 A-449.518 F45000.
Y70.424 Z3.401 A-452.612 F8629.32
Y70.422 Z3.384 A-458.112 F4647.33
Y70.419 Z3.351 A-463.614 F4480.28
Y70.417 Z3.304 A-469.123 F4327.31
Y70.415 Z3.242 A-474.639 F4213.91
Y70.412 Z3.17 A-480.166 F4152.92
Y70.411 Z3.104 A-484.596 F5134.95
Y70.409 Z3.032 A-489.036 F5123.72
Y70.407 Z2.954 A-493.484 F5105.51
Y70.405 Z2.871 A-497.944 F5117.31
Y70.403 Z2.783 A-502.414 F5122.91
Y70.402 Z2.715 A-505.775 F6925.57
Y70.401 Z2.675 A-508.019 F10961.59
Y70.4 Z2.673 A-509.142 F28975.71
Z2.684 A-509.976 F31975.84
Y70.399 Z2.749 A-513.346 F7029.48
Y70.397 Z2.84 A-517.83 F5110.73
Y70.394 Z2.948 A-523.418 F4046.47
Y70.392 Z3.048 A-528.988 F4036.46
Y70.39 Z3.138 A-534.541 F4063.18
Y70.387 Z3.213 A-540.081 F4143.37
Y70.385 Z3.277 A-545.608 F4207.18
Y70.383 Z3.329 A-551.125 F4291.32
Y70.381 Z3.369 A-556.634 F4395.39
Y70.378 Z3.395 A-562.137 F4544.15
Y70.376 Z3.407 A-567.636 F4720.09
Y70.374 Z3.402 A-573.134 F4814.33
Y70.371 Z3.382 A-578.634 F4606.9
Y70.369 Z3.347 A-584.136 F4452.35
Y70.367 Z3.301 A-589.645 F4343.71
Y70.365 Z3.242 A-595.162 F4248.71
Y70.362 Z3.169 A-600.689 F4152.
Y70.36 Z3.085 A-606.229 F4094.19
Y70.358 Z3.01 A-610.67 F5095.08
Y70.356 Z2.929 A-615.122 F5075.25
Y70.354 Z2.843 A-619.585 F5095.51
Y70.352 Z2.754 A-624.059 F5143.09
Y70.351 Z2.686 A-627.422 F6983.86
Z2.67 A-628.545 F23209.98
Y70.35 Z2.669 A-629.107 F45000.
Z2.676 A-629.476 F45000.
Z2.682 A-629.843 F45000.
Z2.688 A-630.209 F45000.
Z2.694 A-630.573 F45000.
Z2.701 A-630.935 F45000.
Y70.349 Z2.707 A-631.296 F45000.
Z2.714 A-631.654 F45000.
Z2.718 A-631.833 F45000.
Z2.721 A-632.011 F45000.
Y70.348 Z2.764 A-634.256 F10553.44
Y70.346 Z2.854 A-638.738 F5113.97
Y70.344 Z2.938 A-643.208 F5101.9
Y70.342 Z3.037 A-648.779 F4063.07
Y70.34 Z3.127 A-654.335 F4070.49
Y70.338 Z3.206 A-659.876 F4111.64
Y70.335 Z3.273 A-665.404 F4180.68
Y70.333 Z3.326 A-670.922 F4281.52
Y70.331 Z3.366 A-676.432 F4393.12
Y70.328 Z3.392 A-681.935 F4552.05
Y70.326 Z3.404 A-687.435 F4719.46
Y70.324 Z3.4 A-692.934 F4835.76
Y70.321 Z3.383 A-698.433 F4650.6
Y70.319 Z3.351 A-703.936 F4479.62
Y70.317 Z3.305 A-709.444 F4350.83
Y70.315 Z3.246 A-714.96 F4241.1
Y70.312 Z3.174 A-720.487 F4153.02
Y70.31 Z3.091 A-726.025 F4102.91
Y70.308 Z2.998 A-731.578 F4073.53
Y70.305 Z2.896 A-737.146 F4065.58
Y70.303 Z2.784 A-742.732 F4067.21
Y70.302 Z2.739 A-744.971 F10357.67
Y70.301 Z2.677 A-748.336 F7182.87
Y70.3 Z2.668 A-748.898 F44892.2
Z2.667 A-749.459 F45000.
Y70.299 Z2.727 A-752.644 F7596.15
Y70.297 Z2.794 A-756.01 F6898.16
Y70.296 Z2.883 A-760.488 F5096.56
Y70.294 Z2.966 A-764.954 F5087.41
Y70.291 Z3.063 A-770.521 F4060.22
Y70.29 Z3.132 A-774.963 F5130.7
Y70.287 Z3.208 A-780.504 F4136.04
Y70.285 Z3.274 A-786.032 F4193.82
Y70.283 Z3.329 A-791.549 F4259.56
Y70.28 Z3.368 A-797.058 F4404.75
Y70.278 Z3.393 A-802.562 F4557.33
Y70.276 Z3.404 A-808.061 F4740.47
Z3.403 A-808.404 F45000.
Z3.401 A-808.747 F45000.
Y70.275 Z3.399 A-809.777 F25084.1
Z3.398 A-810.121 F45000.
Y70.274 Z3.399 A-813.56 F7785.09
Y70.271 Z3.381 A-819.059 F4647.87
Y70.269 Z3.349 A-824.562 F4480.94
Y70.267 Z3.301 A-830.071 F4329.18
Y70.264 Z3.239 A-835.588 F4215.86
Y70.262 Z3.167 A-841.116 F4153.99
Y70.26 Z3.1 A-845.546 F5137.65
Y70.258 Z3.028 A-849.986 F5125.51
Y70.256 Z2.95 A-854.435 F5109.94
Y70.255 Z2.868 A-858.895 F5120.76
Y70.253 Z2.779 A-863.366 F5124.39
Y70.251 Z2.711 A-866.727 F6911.36
Y70.25 Z2.671 A-868.971 F10985.27
Z2.672 A-870.094 F30139.
Z2.682 A-870.898 F33308.76
Y70.248 Z2.748 A-874.269 F7030.56
Y70.246 Z2.861 A-879.872 F4074.29
Y70.244 Z2.968 A-885.456 F4041.35
Y70.241 Z3.065 A-891.022 F4053.81
Y70.239 Z3.152 A-896.573 F4076.79
Y70.237 Z3.225 A-902.11 F4157.56
Y70.234 Z3.287 A-907.636 F4216.81
Y70.232 Z3.337 A-913.151 F4317.05
Y70.23 Z3.373 A-918.659 F4431.37
Y70.227 Z3.396 A-924.162 F4581.24
Y70.225 Z3.405 A-929.661 F4764.39
Y70.223 Z3.397 A-935.159 F4770.26
Y70.221 Z3.374 A-940.659 F4580.66
Y70.218 Z3.337 A-946.164 F4431.61
Y70.216 Z3.287 A-951.675 F4321.09
Y70.214 Z3.225 A-957.194 F4224.08
Y70.211 Z3.15 A-962.724 F4142.46
Y70.209 Z3.064 A-968.266 F4087.35
Y70.207 Z2.967 A-973.823 F4062.95
Y70.205 Z2.884 A-978.281 F5088.68
Y70.203 Z2.818 A-981.631 F6835.17
Y70.202 Z2.751 A-984.988 F6883.38
Y70.201 Z2.683 A-988.352 F6991.04
Y70.2 Z2.667 A-989.475 F23264.3
Z2.669 A-990. F45000.
Z2.683 A-991.006 F26061.15
Y70.198 Z2.745 A-994.258 F7327.55
Y70.197 Z2.812 A-997.622 F6898.49
Y70.195 Z2.899 A-1002.097 F5110.4
Y70.193 Z2.982 A-1006.561 F5078.25
Y70.191 Z3.057 A-1011.014 F5102.57
Y70.189 Z3.144 A-1016.566 F4085.49
Y70.187 Z3.221 A-1022.104 F4125.7
Y70.184 Z3.285 A-1027.63 F4202.86
Y70.182 Z3.335 A-1033.146 F4309.89
Y70.18 Z3.371 A-1038.655 F4437.01
Y70.177 Z3.394 A-1044.158 F4591.07
Y70.175 Z3.402 A-1049.657 F4777.96
Y70.173 Z3.395 A-1055.156 F4801.94
Y70.171 Z3.374 A-1060.656 F4605.39
Y70.168 Z3.338 A-1066.16 F4443.3
Y70.166 Z3.29 A-1071.671 F4329.2
Y70.164 Z3.227 A-1077.19 F4218.2
Y70.161 Z3.153 A-1082.719 F4142.46
Y70.159 Z3.067 A-1088.261 F4099.33
Y70.157 Z2.972 A-1093.818 F4074.16
Y70.154 Z2.867 A-1099.391 F4062.88
Y70.153 Z2.778 A-1103.862 F5105.51
Y70.152 Z2.732 A-1106.102 F10382.25
Y70.15 Z2.67 A-1109.467 F7199.46
A-1110.591 F30005.25
Y70.149 Z2.725 A-1113.558 F8129.74
Y70.147 Z2.793 A-1116.924 F6907.88
Y70.145 Z2.881 A-1121.402 F5096.77
Y70.143 Z2.965 A-1125.868 F5087.78
Y70.141 Z3.061 A-1131.435 F4061.73
Y70.139 Z3.13 A-1135.878 F5136.68
Y70.137 Z3.206 A-1141.418 F4139.
Y70.135 Z3.272 A-1146.947 F4196.15
Y70.132 Z3.327 A-1152.465 F4263.22
Y70.13 Z3.366 A-1157.974 F4408.18
Y70.128 Z3.391 A-1163.478 F4563.84
Y70.125 Z3.401 A-1168.978 F4744.24
Z3.399 A-1169.663 F37147.48
Z3.398 A-1170.007 F45000.
Z3.396 A-1171.037 F25235.95
Y70.124 Z3.395 A-1171.381 F45000.
Y70.123 Z3.396 A-1174.477 F8643.55
Y70.121 Z3.378 A-1179.977 F4649.39
Y70.119 Z3.346 A-1185.48 F4482.6
Y70.116 Z3.298 A-1190.989 F4331.86
Y70.114 Z3.237 A-1196.507 F4218.4
Y70.112 Z3.164 A-1202.035 F4154.39
Y70.11 Z3.098 A-1206.466 F5143.87
Y70.108 Z3.026 A-1210.906 F5127.92
Y70.106 Z2.948 A-1215.355 F5112.99
Y70.104 Z2.865 A-1219.815 F5123.74
Y70.102 Z2.776 A-1224.286 F5126.34
Y70.101 Z2.708 A-1227.648 F6924.17
Y70.1 Z2.669 A-1229.892 F10996.23
Z2.67 A-1231.016 F29875.08
Y70.099 Z2.682 A-1231.837 F31954.21
Y70.098 Z2.748 A-1235.208 F7029.29
Y70.095 Z2.86 A-1240.811 F4076.75
Y70.093 Z2.967 A-1246.395 F4043.88
Y70.091 Z3.064 A-1251.962 F4056.32
Y70.089 Z3.15 A-1257.513 F4081.4
Y70.086 Z3.223 A-1263.05 F4159.45
Y70.084 Z3.286 A-1268.576 F4219.29
Y70.082 Z3.335 A-1274.092 F4321.47
Y70.079 Z3.372 A-1279.6 F4433.03
Y70.077 Z3.394 A-1285.103 F4586.25
Y70.075 Z3.403 A-1290.603 F4767.02
Y70.072 Z3.394 A-1296.101 F4766.15
Y70.07 Z3.371 A-1301.602 F4581.68
Y70.068 Z3.334 A-1307.107 F4432.92
Y70.066 Z3.285 A-1312.618 F4321.84
Y70.063 Z3.222 A-1318.138 F4226.
Y70.061 Z3.147 A-1323.668 F4144.35
Y70.059 Z3.061 A-1329.211 F4090.86
Y70.056 Z2.964 A-1334.769 F4063.56
Y70.054 Z2.88 A-1339.226 F5094.07
Y70.053 Z2.815 A-1342.577 F6839.22
Y70.052 Z2.748 A-1345.935 F6885.85
Y70.05 Z2.68 A-1349.299 F6996.47
Z2.678 A-1349.448 F45000.
Z2.676 A-1349.598 F45000.
Z2.674 A-1349.749 F45000.
Z2.672 A-1349.899 F45000.
Z2.67 A-1350.05 F45000.
Z2.668 A-1350.2 F45000.
Z2.666 A-1350.352 F45000.
Z2.665 A-1350.503 F45000.
Z2.667 A-1351.006 F45000.
Y70.049 Z2.683 A-1352.011 F25326.02
Y70.048 Z2.748 A-1355.382 F7053.05
Y70.046 Z2.815 A-1358.746 F6886.37
Y70.044 Z2.901 A-1363.221 F5111.55
Y70.043 Z2.984 A-1367.684 F5082.54
Y70.041 Z3.059 A-1372.137 F5103.78
Y70.038 Z3.146 A-1377.689 F4087.91
Y70.036 Z3.222 A-1383.227 F4131.97
Y70.034 Z3.285 A-1388.752 F4211.07
Y70.032 Z3.334 A-1394.268 F4318.59
Y70.029 Z3.37 A-1399.777 F4444.49
Y70.027 Z3.392 A-1405.28 F4601.79
Y70.025 Z3.399 A-1410.78 F4790.07
Y70.022 Z3.392 A-1416.279 F4797.05
Y70.02 Z3.371 A-1421.78 F4601.94
Y70.018 Z3.334 A-1427.284 F4439.52
Y70.016 Z3.285 A-1432.796 F4325.9
Y70.013 Z3.222 A-1438.315 F4217.36
Y70.011 Z3.147 A-1443.846 F4140.46
Y70.009 Z3.061 A-1449.389 F4100.28
Y70.006 Z2.965 A-1454.946 F4076.56
Y70.004 Z2.861 A-1460.52 F4070.54
Y70.002 Z2.771 A-1464.992 F5105.35
Y70.001 Z2.725 A-1467.232 F10402.85
Y70. Z2.664 A-1470.599 F7234.86
Z2.663 A-1471.161 F45000.
Y69.998 Z2.713 A-1473.928 F8834.21
Y69.997 Z2.781 A-1477.296 F6931.
Y69.995 Z2.87 A-1481.775 F5105.07
Y69.993 Z2.953 A-1486.243 F5098.93
Y69.991 Z3.032 A-1490.7 F5088.94
Y69.989 Z3.12 A-1496.256 F4095.61
Y69.987 Z3.198 A-1501.798 F4132.13
Y69.984 Z3.265 A-1507.328 F4190.16
Y69.982 Z3.32 A-1512.847 F4257.25
Y69.98 Z3.361 A-1518.358 F4398.7
Y69.978 Z3.387 A-1523.862 F4547.21
Y69.975 Z3.399 A-1529.363 F4727.38
Z3.397 A-1530.049 F37279.43
Z3.396 A-1530.392 F45000.
Y69.974 Z3.394 A-1531.767 F19047.41
Z3.393 A-1532.111 F45000.
Y69.973 Z3.395 A-1534.862 F9680.17
Y69.971 Z3.379 A-1540.362 F4668.29
Y69.968 Z3.347 A-1545.865 F4495.62
Y69.966 Z3.301 A-1551.374 F4343.2
Y69.964 Z3.24 A-1556.891 F4229.8
Y69.961 Z3.169 A-1562.419 F4163.83
Y69.96 Z3.103 A-1566.849 F5146.76
Y69.958 Z3.032 A-1571.288 F5135.06
Y69.956 Z2.954 A-1575.737 F5116.11
Y69.954 Z2.873 A-1580.196 F5131.38
Y69.952 Z2.785 A-1584.666 F5132.6
Y69.951 Z2.716 A-1588.027 F6896.68
Y69.95 Z2.675 A-1590.271 F10836.
Y69.949 Z2.664 A-1591.394 F24978.25
Z2.676 A-1592.518 F24518.67
Y69.948 Z2.719 A-1594.766 F10706.68
Y69.946 Z2.81 A-1599.254 F5136.27
Y69.944 Z2.898 A-1603.729 F5087.57
Y69.942 Z3.001 A-1609.307 F4048.33
Y69.94 Z3.095 A-1614.868 F4062.17
Y69.937 Z3.176 A-1620.415 F4114.
Y69.935 Z3.246 A-1625.948 F4175.94
Y69.933 Z3.302 A-1631.47 F4269.92
Y69.93 Z3.347 A-1636.983 F4356.2
Y69.928 Z3.379 A-1642.49 F4487.17
Y69.926 Z3.397 A-1647.991 F4653.22
Y69.924 Z3.401 A-1652.391 F6015.29
Y69.922 Z3.39 A-1657.89 F4728.95
Y69.919 Z3.364 A-1663.391 F4558.59
Y69.917 Z3.325 A-1668.898 F4415.48
Y69.915 Z3.272 A-1674.41 F4293.17
Y69.913 Z3.209 A-1679.932 F4229.5
Y69.91 Z3.132 A-1685.465 F4132.6
Y69.908 Z3.062 A-1689.9 F5110.73
Y69.907 Z2.986 A-1694.345 F5106.29
Y69.905 Z2.904 A-1698.8 F5088.24
Y69.903 Z2.817 A-1703.266 F5109.04
Y69.901 Z2.75 A-1706.623 F6886.25
Y69.9 Z2.682 A-1710. F6966.56
Z2.666 A-1711.006 F25338.26
Y69.899 Z2.667 A-1712.011 F33518.93
Z2.683 A-1713.015 F25247.48
Y69.897 Z2.748 A-1716.385 F7046.47
Y69.895 Z2.838 A-1720.869 F5133.73
Y69.894 Z2.902 A-1724.224 F6848.68
Y69.892 Z2.984 A-1728.687 F5086.75
Y69.89 Z3.059 A-1733.14 F5109.38
Y69.888 Z3.146 A-1738.692 F4090.
Y69.886 Z3.221 A-1744.23 F4136.62
Y69.883 Z3.284 A-1749.756 F4215.65
Y69.881 Z3.333 A-1755.272 F4323.75
Y69.879 Z3.368 A-1760.781 F4450.11
Y69.877 Z3.39 A-1766.284 F4606.27
Y69.874 Z3.397 A-1771.784 F4795.61
Y69.872 Z3.39 A-1777.284 F4791.13
Y69.87 Z3.368 A-1782.785 F4602.47
Y69.867 Z3.331 A-1788.29 F4440.65
Y69.865 Z3.282 A-1793.802 F4324.9
Y69.863 Z3.219 A-1799.322 F4219.5
Y69.86 Z3.143 A-1804.853 F4142.07
Y69.858 Z3.057 A-1810.397 F4100.04
Y69.856 Z2.961 A-1815.955 F4077.19
Y69.854 Z2.856 A-1821.53 F4074.27
Y69.852 Z2.766 A-1826.002 F5108.79
Y69.851 Z2.721 A-1828.243 F10435.23
Y69.85 Z2.68 A-1830.487 F10800.92
Y69.849 Z2.662 A-1831.61 F22670.16
Z2.663 A-1832.171 F45000.
Y69.848 Z2.714 A-1834.981 F8652.59
Y69.847 Z2.782 A-1838.349 F6921.06
Y69.845 Z2.871 A-1842.828 F5105.59
Y69.843 Z2.954 A-1847.296 F5100.18
Y69.841 Z3.033 A-1851.752 F5085.93
Y69.839 Z3.104 A-1856.198 F5134.03
Y69.837 Z3.183 A-1861.743 F4130.5
Y69.834 Z3.252 A-1867.275 F4176.98
Y69.832 Z3.309 A-1872.796 F4259.45
Y69.83 Z3.353 A-1878.309 F4367.49
Y69.828 Z3.381 A-1883.814 F4522.73
Y69.825 Z3.395 A-1889.316 F4705.95
Z3.393 A-1890.346 F25179.58
Z3.392 A-1890.69 F45000.
Y69.823 Z3.394 A-1894.472 F7066.66
Z3.395 A-1894.815 F45000.
Y69.821 Z3.38 A-1900.316 F4693.87
Y69.818 Z3.351 A-1905.819 F4525.28
Y69.816 Z3.307 A-1911.327 F4370.51
Y69.814 Z3.249 A-1916.843 F4251.
Y69.812 Z3.18 A-1922.368 F4175.06
Y69.809 Z3.098 A-1927.906 F4116.52
Y69.807 Z3.027 A-1932.346 F5138.43
Y69.806 Z2.949 A-1936.795 F5118.59
Y69.804 Z2.867 A-1941.255 F5134.59
Y69.802 Z2.779 A-1945.726 F5132.84
Y69.8 Z2.711 A-1949.087 F6908.64
Y69.799 Z2.67 A-1951.331 F10902.29
Z2.663 A-1952.455 F26665.02
Z2.678 A-1953.579 F23700.55
Y69.798 Z2.721 A-1955.827 F10683.93
Y69.796 Z2.812 A-1960.314 F5135.28
Y69.794 Z2.9 A-1964.79 F5087.14
Y69.792 Z2.983 A-1969.253 F5071.94
Y69.79 Z3.078 A-1974.818 F4066.29
Y69.787 Z3.161 A-1980.367 F4102.89
Y69.785 Z3.233 A-1985.902 F4170.69
Y69.783 Z3.292 A-1991.426 F4250.45
Y69.78 Z3.338 A-1996.941 F4349.69
Y69.778 Z3.372 A-2002.449 F4463.35
Y69.776 Z3.393 A-2007.952 F4620.54
Y69.774 Z3.399 A-2013.452 F4810.5
Y69.771 Z3.387 A-2018.951 F4728.41
Y69.769 Z3.361 A-2024.453 F4555.1
Y69.767 Z3.321 A-2029.96 F4415.09
Y69.764 Z3.268 A-2035.473 F4290.22
Y69.762 Z3.205 A-2040.996 F4231.45
Y69.76 Z3.127 A-2046.529 F4131.86
Y69.758 Z3.057 A-2050.965 F5116.57
Y69.756 Z2.96 A-2056.523 F4068.81
Y69.754 Z2.877 A-2060.982 F5101.06
Y69.752 Z2.811 A-2064.333 F6844.58
Y69.751 Z2.744 A-2067.691 F6890.86
Z2.74 A-2067.893 F45000.
Z2.735 A-2068.096 F45000.
Z2.731 A-2068.3 F45000.
Z2.727 A-2068.504 F45000.
Z2.722 A-2068.709 F45000.
Y69.75 Z2.718 A-2068.915 F45000.
Z2.71 A-2069.328 F45000.
Z2.701 A-2069.744 F45000.
Z2.693 A-2070.162 F45000.
Z2.685 A-2070.582 F45000.
Z2.678 A-2071.006 F45000.
Y69.749 Z2.663 A-2072.011 F25816.84
Z2.669 A-2073.135 F27423.84
Y69.748 Z2.709 A-2075.352 F11021.97
Y69.746 Z2.776 A-2078.72 F6958.44
Y69.744 Z2.864 A-2083.2 F5126.27
Y69.743 Z2.947 A-2087.669 F5107.95
Y69.74 Z3.044 A-2093.239 F4076.06
Y69.738 Z3.132 A-2098.793 F4084.06
Y69.736 Z3.209 A-2104.333 F4126.53
Y69.733 Z3.274 A-2109.861 F4204.49
Y69.731 Z3.325 A-2115.379 F4312.81
Y69.729 Z3.362 A-2120.889 F4439.03
Y69.727 Z3.386 A-2126.393 F4582.7
Y69.724 Z3.395 A-2131.894 F4770.3
Y69.722 Z3.39 A-2137.394 F4826.85
Y69.72 Z3.37 A-2142.895 F4631.78
Y69.717 Z3.335 A-2148.4 F4457.18
Y69.715 Z3.287 A-2153.911 F4343.9
Y69.713 Z3.226 A-2159.43 F4230.98
Y69.71 Z3.152 A-2164.96 F4157.15
Y69.708 Z3.068 A-2170.502 F4110.38
Y69.706 Z2.973 A-2176.059 F4078.3
Y69.704 Z2.891 A-2180.516 F5103.36
Y69.702 Z2.803 A-2184.983 F5104.26
Y69.7 Z2.712 A-2189.463 F5168.93
Y69.699 Z2.671 A-2191.707 F10841.9
Z2.659 A-2192.831 F24842.7
Y69.698 Z2.675 A-2193.954 F23236.61
Y69.697 Z2.742 A-2197.326 F7027.11
Y69.695 Z2.832 A-2201.811 F5129.12
Y69.693 Z2.918 A-2206.283 F5106.44
Y69.691 Z2.999 A-2210.745 F5086.59
Y69.689 Z3.089 A-2216.306 F4096.17
Y69.687 Z3.17 A-2221.853 F4126.39
Y69.684 Z3.241 A-2227.387 F4167.52
Y69.682 Z3.299 A-2232.91 F4255.04
Y69.68 Z3.345 A-2238.424 F4347.38
Y69.678 Z3.376 A-2243.931 F4499.77
Y69.675 Z3.391 A-2249.433 F4687.73
Y69.673 Z3.393 A-2254.59 F5198.51
Z3.394 A-2254.933 F45000.
Y69.671 Z3.381 A-2260.434 F4724.
Y69.668 Z3.354 A-2265.937 F4544.45
Y69.666 Z3.312 A-2271.445 F4395.09
Y69.664 Z3.256 A-2276.96 F4265.
Y69.661 Z3.188 A-2282.484 F4189.25
Y69.659 Z3.108 A-2288.02 F4122.5
Y69.657 Z3.019 A-2293.57 F4104.51
Y69.655 Z2.941 A-2298.02 F5123.28
Y69.653 Z2.859 A-2302.481 F5135.29
Y69.651 Z2.77 A-2306.953 F5133.57
Y69.65 Z2.702 A-2310.315 F6938.72
Y69.649 Z2.663 A-2312.56 F11027.57
Y69.648 Z2.665 A-2313.684 F29671.17
Z2.682 A-2314.808 F22815.17
Y69.647 Z2.726 A-2317.056 F10627.87
Y69.645 Z2.839 A-2322.663 F4093.26
Y69.642 Z2.946 A-2328.251 F4056.82
Y69.64 Z3.045 A-2333.821 F4052.89
Y69.638 Z3.134 A-2339.375 F4074.2
Y69.635 Z3.208 A-2344.915 F4165.11
Y69.633 Z3.271 A-2350.443 F4225.12
Y69.631 Z3.322 A-2355.962 F4309.21
Y69.629 Z3.361 A-2361.472 F4411.93
Y69.626 Z3.385 A-2366.977 F4581.96
Y69.624 Z3.396 A-2372.477 F4745.18
Y69.622 Z3.39 A-2377.977 F4812.28
Y69.619 Z3.368 A-2383.478 F4610.32
Y69.617 Z3.333 A-2388.984 F4452.51
Y69.615 Z3.286 A-2394.495 F4350.17
Y69.612 Z3.225 A-2400.014 F4242.92
Y69.61 Z3.152 A-2405.544 F4161.27
Y69.608 Z3.067 A-2411.086 F4104.38
Y69.606 Z2.972 A-2416.643 F4077.08
Y69.604 Z2.911 A-2419.985 F6812.71
Y69.602 Z2.824 A-2424.45 F5107.47
Y69.6 Z2.735 A-2428.926 F5165.87
Z2.727 A-2429.304 F45000.
Z2.719 A-2429.684 F45000.
Z2.711 A-2430.067 F45000.
Z2.703 A-2430.451 F45000.
Z2.696 A-2430.838 F45000.
Y69.599 Z2.688 A-2431.227 F45000.
Z2.681 A-2431.618 F45000.
Z2.677 A-2431.814 F45000.
Z2.673 A-2432.011 F45000.
Z2.659 A-2433.134 F24105.23
Y69.598 Z2.671 A-2434.258 F25078.44
Y69.597 Z2.713 A-2436.507 F10793.16
Y69.596 Z2.779 A-2439.874 F6951.82
Y69.594 Z2.867 A-2444.354 F5130.12
Y69.592 Z2.95 A-2448.822 F5113.19
Y69.59 Z3.046 A-2454.392 F4076.19
Y69.588 Z3.134 A-2459.946 F4089.5
Y69.585 Z3.21 A-2465.486 F4133.14
Y69.583 Z3.275 A-2471.013 F4209.51
Y69.581 Z3.325 A-2476.531 F4318.48
Y69.578 Z3.361 A-2482.041 F4446.58
Y69.576 Z3.384 A-2487.545 F4597.12
Y69.574 Z3.393 A-2493.047 F4781.89
Y69.571 Z3.387 A-2498.547 F4816.3
Y69.569 Z3.366 A-2504.048 F4625.88
Y69.567 Z3.33 A-2509.554 F4452.77
Y69.565 Z3.282 A-2515.066 F4343.49
Y69.562 Z3.22 A-2520.586 F4230.22
Y69.56 Z3.146 A-2526.116 F4152.48
Y69.558 Z3.061 A-2531.66 F4111.89
Y69.555 Z2.966 A-2537.217 F4083.96
Y69.553 Z2.884 A-2541.675 F5106.29
Y69.552 Z2.795 A-2546.143 F5104.61
Y69.55 Z2.727 A-2549.503 F6891.3
Y69.549 Z2.665 A-2552.869 F7190.26
Z2.657 A-2553.431 F45000.
Y69.548 Z2.66 A-2553.992 F45000.
Z2.692 A-2555.789 F13756.1
Y69.546 Z2.759 A-2559.159 F6964.71
Y69.544 Z2.849 A-2563.641 F5118.5
Y69.542 Z2.933 A-2568.112 F5107.68
Y69.541 Z3.013 A-2572.571 F5095.39
Y69.538 Z3.102 A-2578.13 F4100.21
Y69.536 Z3.181 A-2583.675 F4136.97
Y69.534 Z3.249 A-2589.208 F4186.27
Y69.531 Z3.306 A-2594.73 F4261.94
Y69.529 Z3.349 A-2600.242 F4382.23
Y69.527 Z3.377 A-2605.749 F4530.65
Y69.526 Z3.379 A-2608.161 F11071.47
Z3.38 A-2608.505 F45000.
Y69.525 Z3.382 A-2609.193 F37608.93
Z3.383 A-2609.537 F45000.
Z3.384 A-2609.88 F45000.
Z3.386 A-2610.223 F45000.
Z3.387 A-2610.566 F45000.
Z3.389 A-2610.909 F45000.
Y69.524 Z3.391 A-2611.251 F45000.
Y69.522 Z3.39 A-2616.751 F4878.84
Y69.52 Z3.375 A-2622.252 F4695.57
Y69.518 Z3.345 A-2627.756 F4523.86
Y69.515 Z3.301 A-2633.265 F4371.59
Y69.513 Z3.243 A-2638.782 F4252.73
Y69.511 Z3.173 A-2644.309 F4178.37
Y69.508 Z3.091 A-2649.848 F4124.22
Y69.507 Z3.02 A-2654.289 F5140.7
Y69.505 Z2.942 A-2658.739 F5125.45
Y69.503 Z2.86 A-2663.2 F5139.5
Y69.501 Z2.772 A-2667.672 F5136.03
Y69.5 Z2.704 A-2671.033 F6936.1
Y69.499 Z2.664 A-2673.278 F10973.81
Y69.498 Z2.661 A-2674.402 F28881.41
Z2.672 A-2675.239 F31498.76
Y69.497 Z2.715 A-2677.487 F10738.36
Y69.495 Z2.806 A-2681.976 F5143.84
Y69.493 Z2.894 A-2686.452 F5095.58
Y69.491 Z2.997 A-2692.031 F4056.61
Y69.489 Z3.09 A-2697.593 F4069.02
Y69.486 Z3.171 A-2703.14 F4121.88
Y69.484 Z3.24 A-2708.674 F4187.09
Y69.482 Z3.296 A-2714.197 F4281.43
Y69.479 Z3.341 A-2719.711 F4362.01
Y69.477 Z3.373 A-2725.218 F4495.26
Y69.475 Z3.39 A-2730.721 F4664.74
Y69.472 Z3.392 A-2736.222 F4868.24
Y69.47 Z3.378 A-2741.722 F4702.05
Y69.468 Z3.349 A-2747.225 F4536.35
Y69.466 Z3.308 A-2752.734 F4398.41
Y69.463 Z3.253 A-2758.25 F4288.66
Y69.461 Z3.186 A-2763.775 F4204.43
Y69.459 Z3.107 A-2769.311 F4130.86
Y69.456 Z3.017 A-2774.861 F4093.27
Y69.454 Z2.916 A-2780.426 F4064.7
Y69.452 Z2.831 A-2784.89 F5112.24
Y69.45 Z2.729 A-2790. F4520.25
Y69.449 Z2.667 A-2793.134 F7562.56
Y69.448 Z2.657 A-2794.257 F25880.99
Z2.672 A-2795.343 F24414.92
Y69.447 Z2.715 A-2797.592 F10743.45
Y69.445 Z2.781 A-2800.959 F6949.28
Y69.444 Z2.869 A-2805.439 F5134.37
Y69.442 Z2.952 A-2809.906 F5113.65
Y69.439 Z3.048 A-2815.476 F4075.99
Y69.437 Z3.135 A-2821.029 F4093.95
Y69.435 Z3.211 A-2826.569 F4139.32
Y69.432 Z3.274 A-2832.097 F4217.13
Y69.43 Z3.324 A-2837.615 F4324.38
Y69.428 Z3.36 A-2843.125 F4451.55
Y69.426 Z3.382 A-2848.629 F4610.16
Y69.423 Z3.39 A-2854.131 F4791.59
Y69.421 Z3.384 A-2859.631 F4810.78
Y69.419 Z3.363 A-2865.134 F4625.33
Y69.416 Z3.326 A-2870.64 F4450.68
Y69.414 Z3.278 A-2876.152 F4341.65
Y69.412 Z3.216 A-2881.673 F4228.67
Y69.41 Z3.141 A-2887.204 F4153.29
Y69.407 Z3.056 A-2892.748 F4110.42
Y69.405 Z2.961 A-2898.307 F4088.26
Y69.403 Z2.878 A-2902.765 F5116.23
Y69.401 Z2.789 A-2907.235 F5097.58
Y69.4 Z2.721 A-2910.594 F6910.11
Y69.398 Z2.66 A-2913.961 F7237.07
Z2.661 A-2915.085 F29917.93
Y69.397 Z2.722 A-2918.277 F7534.14
Y69.395 Z2.812 A-2922.764 F5155.59
Y69.392 Z2.919 A-2928.357 F4076.27
Y69.39 Z3. A-2932.818 F5093.99
Y69.388 Z3.09 A-2938.379 F4101.71
Y69.386 Z3.17 A-2943.926 F4135.73
Y69.384 Z3.24 A-2949.46 F4175.75
Y69.381 Z3.297 A-2954.984 F4263.62
Y69.379 Z3.342 A-2960.498 F4363.47
Y69.377 Z3.373 A-2966.005 F4513.53
Y69.376 Z3.375 A-2968.418 F11041.37
Z3.376 A-2968.762 F45000.
Y69.375 Z3.378 A-2969.45 F37506.95
Z3.379 A-2969.794 F45000.
Z3.381 A-2970.137 F45000.
Z3.382 A-2970.48 F45000.
Z3.384 A-2970.823 F45000.
Z3.385 A-2971.166 F45000.
Y69.374 Z3.387 A-2971.508 F45000.
Y69.372 Z3.389 A-2977.009 F4878.28
Y69.37 Z3.375 A-2982.51 F4720.74
Y69.367 Z3.347 A-2988.014 F4539.29
Y69.365 Z3.305 A-2993.523 F4394.21
Y69.363 Z3.248 A-2999.039 F4265.14
Y69.361 Z3.179 A-3004.565 F4186.82
Y69.358 Z3.099 A-3010.102 F4128.03
Y69.356 Z3.028 A-3014.542 F5143.
Y69.355 Z2.951 A-3018.991 F5129.66
Y69.353 Z2.87 A-3023.451 F5147.03
Y69.351 Z2.783 A-3027.922 F5141.64
Y69.349 Z2.714 A-3031.282 F6911.74
Z2.672 A-3033.526 F10792.09
Y69.348 Z2.656 A-3034.65 F23368.65
Z2.665 A-3035.774 F26316.16
Y69.347 Z2.706 A-3038.022 F10850.46
Y69.345 Z2.797 A-3042.512 F5154.69
Y69.343 Z2.885 A-3046.989 F5105.22
Y69.341 Z2.989 A-3052.569 F4056.45
Y69.338 Z3.083 A-3058.133 F4068.16
Y69.336 Z3.165 A-3063.681 F4118.14
Y69.334 Z3.234 A-3069.216 F4186.81
Y69.331 Z3.291 A-3074.74 F4277.56
Y69.329 Z3.337 A-3080.255 F4361.89
Y69.327 Z3.369 A-3085.763 F4492.09
Y69.324 Z3.387 A-3091.267 F4655.
Y69.322 Z3.39 A-3096.768 F4854.51
Y69.32 Z3.377 A-3102.268 F4716.37
Y69.318 Z3.35 A-3107.772 F4549.13
Y69.315 Z3.309 A-3113.28 F4405.57
Y69.313 Z3.254 A-3118.796 F4293.
Y69.311 Z3.189 A-3124.321 F4218.1
Y69.308 Z3.11 A-3129.857 F4134.21
Y69.307 Z3.04 A-3134.295 F5141.37
Y69.304 Z2.941 A-3139.856 F4065.9
Y69.302 Z2.835 A-3145.434 F4078.97
Y69.3 Z2.745 A-3150. F5055.85
Y69.299 Z2.682 A-3153.133 F7512.14
Y69.298 Z2.661 A-3154.256 F21802.87
Z2.657 A-3155.38 F28310.34
Y69.297 Z2.675 A-3156.504 F22623.8
Y69.296 Z2.74 A-3159.875 F7073.43
Y69.294 Z2.829 A-3164.36 F5149.93
Y69.292 Z2.914 A-3168.833 F5117.97
Y69.29 Z2.994 A-3173.295 F5113.34
Y69.288 Z3.068 A-3177.747 F5115.98
Y69.286 Z3.153 A-3183.297 F4104.79
Y69.284 Z3.226 A-3188.834 F4155.1
Y69.282 Z3.286 A-3194.359 F4246.6
Y69.279 Z3.332 A-3199.875 F4354.1
Y69.277 Z3.365 A-3205.384 F4499.38
Y69.275 Z3.383 A-3210.888 F4649.79
Y69.272 Z3.388 A-3216.389 F4836.03
Y69.27 Z3.377 A-3221.891 F4751.44
Y69.268 Z3.353 A-3227.394 F4580.81
Y69.265 Z3.315 A-3232.902 F4440.81
Y69.263 Z3.261 A-3238.416 F4297.84
Y69.261 Z3.196 A-3243.94 F4208.54
Y69.259 Z3.119 A-3249.475 F4146.77
Y69.256 Z3.031 A-3255.023 F4107.96
Y69.254 Z2.933 A-3260.585 F4077.45
Y69.252 Z2.826 A-3266.164 F4076.78
Y69.25 Z2.736 A-3270.641 F5141.34
Y69.248 Z2.673 A-3274.006 F7148.92
Z2.654 A-3275.129 F22620.1
Z2.656 A-3275.691 F45000.
Y69.246 Z2.707 A-3278.502 F8704.96
Y69.245 Z2.774 A-3281.87 F6936.88
Y69.244 Z2.841 A-3285.232 F6841.98
Y69.242 Z2.926 A-3289.703 F5110.04
Y69.24 Z3.006 A-3294.163 F5099.29
Y69.238 Z3.078 A-3298.613 F5147.89
Y69.236 Z3.159 A-3304.162 F4130.02
Y69.233 Z3.23 A-3309.698 F4176.57
Y69.231 Z3.289 A-3315.223 F4254.51
Y69.229 Z3.335 A-3320.738 F4351.31
Y69.227 Z3.368 A-3326.246 F4492.53
Y69.226 Z3.37 A-3328.316 F12873.54
Z3.371 A-3328.66 F45000.
Y69.225 Z3.373 A-3329.349 F37583.46
Z3.374 A-3329.693 F45000.
Z3.376 A-3330.036 F45000.
Z3.377 A-3330.38 F45000.
Z3.379 A-3330.723 F45000.
Z3.38 A-3331.066 F45000.
Y69.224 Z3.382 A-3331.408 F45000.
Z3.384 A-3331.75 F45000.
Y69.222 Z3.387 A-3337.251 F4868.59
Y69.22 Z3.375 A-3342.753 F4748.8
Y69.217 Z3.349 A-3348.257 F4563.87
Y69.215 Z3.308 A-3353.765 F4409.26
Y69.213 Z3.253 A-3359.281 F4280.07
Y69.21 Z3.186 A-3364.806 F4204.04
Y69.208 Z3.106 A-3370.342 F4133.54
Y69.206 Z3.036 A-3374.781 F5145.45
Y69.204 Z2.96 A-3379.229 F5133.27
Y69.203 Z2.88 A-3383.688 F5147.46
Y69.201 Z2.793 A-3388.157 F5145.69
Y69.199 Z2.725 A-3391.516 F6902.95
Y69.198 Z2.682 A-3393.76 F10649.59
Z2.663 A-3394.883 F22294.63
Y69.197 Z2.656 A-3396.006 F27074.29
Z2.671 A-3397.13 F23628.9
Y69.196 Z2.714 A-3399.379 F10729.62
Y69.194 Z2.826 A-3404.988 F4109.96
Y69.191 Z2.934 A-3410.578 F4060.57
Y69.189 Z3.033 A-3416.15 F4057.41
Y69.187 Z3.105 A-3420.596 F5119.58
Y69.185 Z3.182 A-3426.14 F4151.46
Y69.183 Z3.249 A-3431.673 F4208.1
Y69.18 Z3.303 A-3437.194 F4294.42
Y69.178 Z3.345 A-3442.708 F4399.26
Y69.176 Z3.373 A-3448.214 F4535.94
Y69.173 Z3.388 A-3453.717 F4707.89
Y69.171 Z3.386 A-3459.218 F4873.24
Y69.169 Z3.368 A-3464.72 F4668.37
Y69.167 Z3.337 A-3470.225 F4506.13
Y69.164 Z3.292 A-3475.736 F4374.58
Y69.162 Z3.236 A-3481.254 F4284.72
Y69.16 Z3.166 A-3486.782 F4189.43
Y69.157 Z3.084 A-3492.322 F4124.26
Y69.155 Z2.991 A-3497.876 F4080.36
Y69.153 Z2.91 A-3502.33 F5103.8
Y69.151 Z2.824 A-3506.795 F5116.63
Z2.817 A-3507.109 F45000.
Z2.81 A-3507.425 F45000.
Z2.803 A-3507.743 F45000.
Z2.796 A-3508.062 F45000.
Z2.789 A-3508.383 F45000.
Z2.783 A-3508.705 F45000.
Y69.15 Z2.776 A-3509.029 F45000.
Z2.769 A-3509.354 F45000.
Z2.763 A-3509.681 F45000.
Z2.757 A-3510.01 F45000.
Z2.75 A-3510.34 F45000.
Z2.744 A-3510.671 F45000.
Z2.738 A-3511.004 F45000.
Y69.149 Z2.732 A-3511.338 F45000.
Z2.726 A-3511.674 F45000.
Z2.721 A-3512.011 F45000.
Y69.148 Z2.676 A-3514.255 F10555.48
Z2.657 A-3515.378 F22434.21
Y69.147 Z2.659 A-3516.502 F29531.15
Y69.146 Z2.698 A-3518.729 F11065.06
Y69.145 Z2.765 A-3522.098 F6980.63
Y69.143 Z2.853 A-3526.58 F5137.58
Y69.141 Z2.937 A-3531.05 F5118.73
Y69.139 Z3.015 A-3535.508 F5115.41
Y69.138 Z3.088 A-3539.957 F5111.4
Y69.136 Z3.154 A-3544.396 F5165.21
Y69.133 Z3.226 A-3549.933 F4160.12
Y69.131 Z3.286 A-3555.458 F4250.75
Y69.129 Z3.332 A-3560.974 F4361.99
Y69.126 Z3.363 A-3566.483 F4508.1
Y69.124 Z3.382 A-3571.987 F4660.09
Y69.122 Z3.386 A-3577.489 F4844.01
Y69.12 Z3.375 A-3582.99 F4748.79
Y69.117 Z3.349 A-3588.494 F4574.15
Y69.115 Z3.311 A-3594.003 F4437.59
Y69.113 Z3.257 A-3599.518 F4295.19
Y69.11 Z3.191 A-3605.042 F4206.53
Y69.108 Z3.113 A-3610.578 F4146.22
Y69.106 Z3.025 A-3616.127 F4112.22
Y69.103 Z2.927 A-3621.69 F4080.78
Y69.101 Z2.82 A-3627.271 F4077.72
Y69.099 Z2.729 A-3631.748 F5149.04
Y69.098 Z2.666 A-3635.114 F7160.75
Y69.097 Z2.652 A-3636.237 F23915.54
Z2.667 A-3637.362 F23642.12
Y69.096 Z2.732 A-3640.734 F7097.76
Y69.094 Z2.821 A-3645.22 F5150.91
Y69.091 Z2.928 A-3650.811 F4077.42
Y69.089 Z3.008 A-3655.271 F5091.77
Y69.088 Z3.079 A-3659.72 F5162.95
Y69.085 Z3.16 A-3665.269 F4134.75
Y69.083 Z3.23 A-3670.805 F4180.55
Y69.081 Z3.289 A-3676.329 F4261.89
Y69.078 Z3.335 A-3681.845 F4358.26
Y69.076 Z3.366 A-3687.353 F4500.91
Y69.075 Z3.368 A-3689.078 F15525.58
Z3.369 A-3689.423 F45000.
Z3.371 A-3690.456 F25175.87
Z3.373 A-3690.799 F45000.
Y69.074 Z3.375 A-3691.487 F37067.74
Z3.377 A-3691.83 F45000.
Z3.378 A-3692.172 F45000.
Z3.38 A-3692.515 F45000.
Z3.382 A-3692.857 F45000.
Y69.072 Z3.384 A-3698.359 F4877.77
Y69.069 Z3.372 A-3703.861 F4744.53
Y69.067 Z3.345 A-3709.365 F4560.44
Y69.065 Z3.304 A-3714.874 F4406.29
Y69.062 Z3.248 A-3720.39 F4277.76
Y69.06 Z3.18 A-3725.916 F4198.45
Y69.058 Z3.101 A-3731.454 F4138.15
Y69.056 Z3.03 A-3735.893 F5149.82
Y69.054 Z2.954 A-3740.342 F5133.71
Y69.052 Z2.874 A-3744.801 F5153.39
Y69.05 Z2.787 A-3749.271 F5147.35
Y69.049 Z2.719 A-3752.631 F6911.05
Y69.048 Z2.676 A-3754.875 F10704.18
Z2.657 A-3755.998 F22450.86
Y69.047 Z2.656 A-3757.122 F29978.03
Z2.673 A-3758.247 F22839.53
Y69.046 Z2.717 A-3760.495 F10682.9
Y69.043 Z2.829 A-3766.103 F4107.42
Y69.041 Z2.936 A-3771.693 F4064.73
Y69.039 Z3.035 A-3777.265 F4062.32
Y69.036 Z3.124 A-3782.821 F4079.47
Y69.034 Z3.198 A-3788.362 F4177.53
Y69.032 Z3.261 A-3793.892 F4236.4
Y69.029 Z3.312 A-3799.412 F4316.92
Y69.027 Z3.352 A-3804.924 F4413.06
Y69.025 Z3.376 A-3810.43 F4597.66
Y69.023 Z3.387 A-3815.932 F4751.39
Y69.02 Z3.381 A-3821.434 F4824.33
Y69.018 Z3.36 A-3826.936 F4622.73
Y69.016 Z3.324 A-3832.443 F4466.59
Y69.013 Z3.278 A-3837.955 F4361.96
Y69.011 Z3.217 A-3843.476 F4252.18
Y69.009 Z3.144 A-3849.007 F4171.58
Y69.006 Z3.06 A-3854.551 F4117.64
Y69.004 Z2.965 A-3860.109 F4084.61
Y69.002 Z2.883 A-3864.566 F5117.39
Y69.001 Z2.818 A-3867.917 F6833.39
Z2.812 A-3868.166 F45000.
Z2.807 A-3868.415 F45000.
Z2.801 A-3868.666 F45000.
Y69. Z2.796 A-3868.918 F45000.
Z2.791 A-3869.17 F45000.
Z2.785 A-3869.424 F45000.
Z2.78 A-3869.679 F45000.
Z2.775 A-3869.934 F45000.
Z2.77 A-3870.19 F45000.
Z2.765 A-3870.448 F45000.
Z2.76 A-3870.706 F45000.
Z2.755 A-3870.965 F45000.
Y68.999 Z2.75 A-3871.225 F45000.
Z2.746 A-3871.486 F45000.
Z2.741 A-3871.748 F45000.
Z2.736 A-3872.011 F45000.
Y68.998 Z2.669 A-3875.377 F7026.96
Y68.997 Z2.653 A-3876.5 F23469.69
Z2.661 A-3877.624 F26797.4
Y68.996 Z2.702 A-3879.873 F10887.72
Y68.994 Z2.768 A-3883.241 F6971.93
Y68.993 Z2.856 A-3887.723 F5140.12
Y68.991 Z2.939 A-3892.192 F5122.65
Y68.989 Z3.017 A-3896.651 F5120.18
Y68.987 Z3.09 A-3901.099 F5112.57
Y68.985 Z3.155 A-3905.538 F5172.18
Y68.983 Z3.227 A-3911.074 F4168.1
Y68.981 Z3.286 A-3916.599 F4257.89
Y68.978 Z3.331 A-3922.115 F4370.6
Y68.976 Z3.362 A-3927.624 F4512.58
Y68.974 Z3.38 A-3933.129 F4670.71
Y68.971 Z3.384 A-3938.631 F4858.25
Y68.969 Z3.372 A-3944.133 F4745.09
Y68.967 Z3.345 A-3949.637 F4566.84
Y68.965 Z3.306 A-3955.146 F4431.6
Y68.962 Z3.252 A-3960.662 F4292.05
Y68.96 Z3.185 A-3966.187 F4208.96
Y68.958 Z3.107 A-3971.724 F4144.47
Y68.955 Z3.019 A-3977.274 F4111.91
Y68.953 Z2.92 A-3982.839 F4084.59
Y68.951 Z2.835 A-3987.302 F5113.55
Y68.949 Z2.745 A-3991.778 F5137.83
Y68.948 Z2.7 A-3994.02 F10529.72
Y68.947 Z2.659 A-3996.265 F10898.88
Z2.65 A-3997.108 F32747.39
Z2.658 A-3997.876 F36259.07
Y68.945 Z2.723 A-4001.249 F7122.86
Y68.943 Z2.812 A-4005.736 F5164.36
Y68.941 Z2.919 A-4011.328 F4078.12
Y68.939 Z3. A-4015.789 F5101.19
Y68.937 Z3.071 A-4020.24 F5157.49
Y68.935 Z3.153 A-4025.79 F4133.24
Y68.933 Z3.224 A-4031.327 F4182.12
Y68.93 Z3.283 A-4036.853 F4257.27
Y68.928 Z3.33 A-4042.369 F4353.05
Y68.926 Z3.363 A-4047.878 F4490.69
Y68.925 Z3.365 A-4049.948 F12884.95
Z3.366 A-4050.293 F45000.
Z3.368 A-4050.981 F37616.16
Y68.924 Z3.369 A-4051.325 F45000.
Z3.371 A-4051.669 F45000.
Z3.372 A-4052.012 F45000.
Z3.374 A-4052.355 F45000.
Z3.375 A-4052.698 F45000.
Z3.377 A-4053.041 F45000.
Z3.379 A-4053.383 F45000.
Y68.921 Z3.382 A-4058.885 F4873.85
Y68.919 Z3.371 A-4064.387 F4760.56
Y68.917 Z3.345 A-4069.892 F4573.98
Y68.914 Z3.304 A-4075.401 F4418.85
Y68.912 Z3.249 A-4080.917 F4288.45
Y68.91 Z3.183 A-4086.443 F4208.91
Y68.908 Z3.104 A-4091.979 F4143.21
Y68.906 Z3.034 A-4096.419 F5151.67
Y68.904 Z2.958 A-4100.867 F5138.53
Y68.902 Z2.878 A-4105.325 F5154.64
Y68.9 Z2.792 A-4109.795 F5152.36
Y68.899 Z2.724 A-4113.154 F6906.33
Y68.898 Z2.681 A-4115.398 F10646.82
Y68.897 Z2.661 A-4116.521 F22221.88
Z2.652 A-4117.645 F25943.91
Y68.896 Z2.665 A-4118.769 F24186.94
Y68.895 Z2.708 A-4121.018 F10787.73
Y68.894 Z2.798 A-4125.507 F5156.98
Y68.892 Z2.886 A-4129.984 F5109.48
Y68.889 Z2.988 A-4135.564 F4067.26
Y68.887 Z3.082 A-4141.128 F4077.62
Y68.885 Z3.163 A-4146.676 F4129.22
Y68.882 Z3.231 A-4152.212 F4201.
Y68.88 Z3.287 A-4157.736 F4288.48
Y68.878 Z3.332 A-4163.252 F4375.39
Y68.876 Z3.364 A-4168.761 F4505.09
Y68.873 Z3.381 A-4174.265 F4676.85
Y68.871 Z3.383 A-4179.767 F4880.06
Y68.869 Z3.369 A-4185.269 F4712.11
Y68.866 Z3.34 A-4190.774 F4543.32
Y68.864 Z3.299 A-4196.284 F4412.18
Y68.862 Z3.244 A-4201.801 F4300.14
Y68.859 Z3.177 A-4207.327 F4212.04
Y68.857 Z3.098 A-4212.865 F4139.42
Y68.855 Z3.008 A-4218.416 F4105.08
Y68.853 Z2.908 A-4223.983 F4073.41
Y68.851 Z2.822 A-4228.448 F5124.16
Y68.85 Z2.81 A-4229.016 F39406.41
Z2.804 A-4229.302 F45000.
Z2.797 A-4229.589 F45000.
Z2.791 A-4229.878 F45000.
Z2.785 A-4230.167 F45000.
Z2.779 A-4230.458 F45000.
Z2.774 A-4230.751 F45000.
Z2.768 A-4231.044 F45000.
Y68.849 Z2.762 A-4231.339 F45000.
Z2.756 A-4231.635 F45000.
Z2.751 A-4231.932 F45000.
Z2.745 A-4232.23 F45000.
Z2.74 A-4232.529 F45000.
Z2.735 A-4232.83 F45000.
Z2.729 A-4233.132 F45000.
Y68.848 Z2.684 A-4235.375 F10522.06
Y68.847 Z2.663 A-4236.498 F21664.05
Z2.65 A-4237.621 F24627.85
Y68.846 Z2.663 A-4238.745 F24641.21
Y68.845 Z2.705 A-4240.994 F10830.54
Y68.844 Z2.771 A-4244.363 F6959.23
Y68.842 Z2.859 A-4248.844 F5144.24
Y68.84 Z2.941 A-4253.313 F5128.71
Y68.838 Z3.019 A-4257.771 F5126.28
Y68.837 Z3.092 A-4262.219 F5112.48
Y68.835 Z3.156 A-4266.658 F5172.16
Y68.832 Z3.228 A-4272.194 F4175.19
Y68.83 Z3.286 A-4277.719 F4266.61
Y68.828 Z3.33 A-4283.235 F4380.12
Y68.826 Z3.361 A-4288.744 F4517.34
Y68.823 Z3.378 A-4294.249 F4679.4
Y68.821 Z3.381 A-4299.751 F4874.17
Y68.819 Z3.369 A-4305.253 F4741.59
Y68.816 Z3.342 A-4310.758 F4559.66
Y68.814 Z3.302 A-4316.268 F4427.7
Y68.812 Z3.247 A-4321.785 F4293.41
Y68.809 Z3.18 A-4327.311 F4209.78
Y68.807 Z3.101 A-4332.848 F4141.65
Y68.805 Z3.012 A-4338.399 F4107.64
Y68.803 Z2.914 A-4343.965 F4093.76
Y68.801 Z2.828 A-4348.429 F5114.76
Y68.799 Z2.738 A-4352.906 F5144.5
Y68.797 Z2.673 A-4356.271 F7103.71
Z2.654 A-4357.394 F22159.66
Y68.796 Z2.653 A-4358.518 F30080.74
Y68.795 Z2.712 A-4361.699 F7624.73
Y68.793 Z2.802 A-4366.187 F5169.94
Y68.791 Z2.889 A-4370.664 F5113.64
Y68.79 Z2.97 A-4375.129 F5123.03
Y68.787 Z3.063 A-4380.696 F4098.89
Y68.785 Z3.145 A-4386.247 F4132.15
Y68.783 Z3.217 A-4391.785 F4183.37
Y68.78 Z3.277 A-4397.312 F4253.24
Y68.778 Z3.325 A-4402.83 F4344.39
Y68.776 Z3.359 A-4408.34 F4475.43
Y68.775 Z3.361 A-4410.065 F15486.45
Z3.362 A-4410.41 F45000.
Z3.364 A-4411.099 F37773.95
Y68.774 Z3.365 A-4411.443 F45000.
Z3.367 A-4412.131 F37172.65
Z3.369 A-4412.475 F45000.
Z3.371 A-4412.818 F45000.
Z3.372 A-4413.16 F45000.
Z3.374 A-4413.503 F45000.
Y68.773 Z3.376 A-4413.845 F45000.
Y68.771 Z3.38 A-4419.347 F4866.09
Y68.769 Z3.369 A-4424.85 F4775.8
Y68.767 Z3.345 A-4430.355 F4588.79
Y68.764 Z3.306 A-4435.864 F4435.39
Y68.762 Z3.252 A-4441.38 F4301.73
Y68.76 Z3.186 A-4446.905 F4216.97
Y68.757 Z3.108 A-4452.441 F4150.44
Y68.755 Z3.039 A-4456.88 F5159.52
Y68.753 Z2.944 A-4462.441 F4103.5
Y68.751 Z2.864 A-4466.901 F5162.58
Y68.749 Z2.776 A-4471.373 F5149.75
Y68.748 Z2.708 A-4474.734 F6928.91
Y68.747 Z2.666 A-4476.979 F10809.37
Z2.65 A-4478.102 F23134.66
Y68.746 Z2.656 A-4479.226 F27100.76
Y68.745 Z2.697 A-4481.455 F11015.59
Y68.743 Z2.788 A-4485.946 F5171.99
Y68.741 Z2.876 A-4490.424 F5118.01
Y68.739 Z2.979 A-4496.006 F4068.04
Y68.737 Z3.073 A-4501.571 F4075.56
Y68.735 Z3.155 A-4507.121 F4124.73
Y68.732 Z3.224 A-4512.658 F4201.13
Y68.73 Z3.282 A-4518.184 F4279.31
Y68.728 Z3.327 A-4523.7 F4375.1
Y68.726 Z3.354 A-4528.108 F5603.96
Y68.723 Z3.376 A-4533.614 F4623.96
Y68.721 Z3.383 A-4539.117 F4811.11
Y68.719 Z3.372 A-4544.619 F4761.61
Y68.717 Z3.348 A-4550.123 F4599.85
Y68.714 Z3.31 A-4555.632 F4436.66
Y68.712 Z3.258 A-4561.147 F4320.26
Y68.71 Z3.196 A-4566.671 F4251.27
Y68.707 Z3.12 A-4572.206 F4158.57
Y68.705 Z3.032 A-4577.753 F4107.27
Y68.703 Z2.935 A-4583.316 F4079.16
Y68.7 Z2.829 A-4588.895 F4086.84
Z2.822 A-4589.217 F45000.
Z2.814 A-4589.542 F45000.
Z2.807 A-4589.868 F45000.
Z2.8 A-4590.195 F45000.
Z2.793 A-4590.525 F45000.
Z2.786 A-4590.855 F45000.
Y68.699 Z2.78 A-4591.188 F45000.
Z2.773 A-4591.522 F45000.
Z2.766 A-4591.858 F45000.
Z2.76 A-4592.195 F45000.
Z2.753 A-4592.534 F45000.
Z2.747 A-4592.875 F45000.
Z2.741 A-4593.217 F45000.
Z2.735 A-4593.56 F45000.
Y68.698 Z2.729 A-4593.905 F45000.
Z2.723 A-4594.252 F45000.
Y68.697 Z2.678 A-4596.495 F10541.19
Z2.657 A-4597.618 F21829.55
Y68.696 Z2.649 A-4598.742 F26428.34
Z2.663 A-4599.712 F27115.5
Y68.695 Z2.704 A-4601.961 F10812.68
Y68.694 Z2.771 A-4605.329 F6960.84
Y68.692 Z2.859 A-4609.81 F5147.3
Y68.69 Z2.941 A-4614.28 F5129.59
Y68.688 Z3.018 A-4618.738 F5125.53
Y68.686 Z3.091 A-4623.186 F5118.49
Y68.684 Z3.155 A-4627.624 F5181.12
Y68.682 Z3.226 A-4633.161 F4179.45
Y68.68 Z3.284 A-4638.686 F4270.52
Y68.677 Z3.329 A-4644.203 F4384.26
Y68.675 Z3.359 A-4649.712 F4521.31
Y68.673 Z3.376 A-4655.217 F4684.48
Y68.671 Z3.379 A-4660.72 F4881.93
Y68.668 Z3.366 A-4666.222 F4743.84
Y68.666 Z3.339 A-4671.728 F4558.81
Y68.664 Z3.298 A-4677.238 F4427.43
Y68.661 Z3.243 A-4682.755 F4294.02
Y68.659 Z3.177 A-4688.282 F4214.48
Y68.657 Z3.098 A-4693.82 F4144.18
Y68.654 Z3.009 A-4699.371 F4110.38
Y68.652 Z2.91 A-4704.937 F4092.56
Y68.65 Z2.824 A-4709.402 F5120.62
Y68.648 Z2.734 A-4713.879 F5146.83
Y68.647 Z2.67 A-4717.245 F7113.45
Z2.651 A-4718.368 F22390.44
Y68.646 Z2.652 A-4719.492 F29840.91
Y68.645 Z2.712 A-4722.666 F7627.06
Y68.643 Z2.802 A-4727.154 F5173.31
Y68.641 Z2.889 A-4731.631 F5114.22
Y68.639 Z2.97 A-4736.096 F5120.09
Y68.637 Z3.044 A-4740.551 F5142.94
Y68.635 Z3.128 A-4746.105 F4127.37
Y68.633 Z3.202 A-4751.646 F4177.51
Y68.63 Z3.265 A-4757.176 F4232.27
Y68.628 Z3.314 A-4762.695 F4337.26
Y68.626 Z3.351 A-4768.206 F4455.34
Y68.625 Z3.353 A-4769.588 F19267.12
Z3.354 A-4769.933 F45000.
Z3.356 A-4770.623 F37700.73
Z3.357 A-4770.968 F45000.
Y68.624 Z3.358 A-4771.312 F45000.
Z3.36 A-4771.656 F45000.
Z3.361 A-4772. F45000.
Z3.363 A-4772.343 F45000.
Z3.365 A-4772.686 F45000.
Z3.367 A-4773.029 F45000.
Z3.369 A-4773.371 F45000.
Y68.623 Z3.371 A-4773.713 F45000.
Y68.621 Z3.378 A-4779.216 F4828.94
Y68.619 Z3.37 A-4784.719 F4809.54
Y68.617 Z3.348 A-4790.223 F4635.73
Y68.614 Z3.312 A-4795.732 F4468.95
Y68.612 Z3.261 A-4801.246 F4318.39
Y68.61 Z3.197 A-4806.77 F4238.05
Y68.608 Z3.137 A-4811.197 F5210.54
Y68.606 Z3.071 A-4815.631 F5172.33
Y68.604 Z2.999 A-4820.075 F5158.7
Y68.602 Z2.921 A-4824.528 F5148.48
Y68.6 Z2.838 A-4828.992 F5152.69
Y68.599 Z2.75 A-4833.466 F5154.95
Y68.597 Z2.683 A-4836.83 F7009.
Z2.663 A-4837.953 F22048.41
Y68.596 Z2.647 A-4839.077 F23427.84
Z2.656 A-4840.201 F26050.09
Y68.595 Z2.697 A-4842.446 F10910.61
Y68.593 Z2.788 A-4846.937 F5173.23
Y68.591 Z2.876 A-4851.416 F5118.91
Y68.589 Z2.959 A-4855.883 F5100.68
Y68.587 Z3.054 A-4861.451 F4079.89
Y68.585 Z3.138 A-4867.004 F4116.93
Y68.582 Z3.21 A-4872.543 F4190.31
Y68.58 Z3.27 A-4878.071 F4257.67
Y68.578 Z3.318 A-4883.589 F4360.32
Y68.575 Z3.352 A-4889.1 F4475.6
Y68.573 Z3.374 A-4894.606 F4629.4
Y68.571 Z3.381 A-4900.109 F4816.17
Y68.568 Z3.37 A-4905.612 F4758.51
Y68.566 Z3.345 A-4911.116 F4594.95
Y68.564 Z3.307 A-4916.626 F4440.46
Y68.562 Z3.255 A-4922.141 F4321.77
Y68.559 Z3.192 A-4927.666 F4252.34
Y68.557 Z3.116 A-4933.201 F4160.51
Y68.555 Z3.029 A-4938.75 F4108.22
Y68.553 Z2.951 A-4943.199 F5118.73
Y68.551 Z2.89 A-4946.542 F6844.57
Z2.884 A-4946.813 F45000.
Z2.878 A-4947.085 F45000.
Z2.872 A-4947.358 F45000.
Z2.867 A-4947.633 F45000.
Z2.861 A-4947.908 F45000.
Z2.855 A-4948.184 F45000.
Z2.85 A-4948.462 F45000.
Z2.844 A-4948.74 F45000.
Y68.55 Z2.839 A-4949.02 F45000.
Z2.834 A-4949.3 F45000.
Z2.829 A-4949.582 F45000.
Z2.823 A-4949.865 F45000.
Z2.818 A-4950.148 F45000.
Z2.813 A-4950.433 F45000.
Z2.803 A-4951.006 F42172.71
Y68.548 Z2.716 A-4955.372 F5319.09
Y68.547 Z2.671 A-4957.616 F10581.8
Y68.546 Z2.651 A-4958.739 F21987.66
Z2.649 A-4959.863 F29511.33
Y68.545 Z2.68 A-4961.67 F13847.09
Y68.544 Z2.746 A-4965.041 F7038.51
Y68.542 Z2.834 A-4969.525 F5155.95
Y68.54 Z2.918 A-4973.998 F5132.74
Y68.538 Z2.997 A-4978.459 F5126.96
Y68.536 Z3.07 A-4982.91 F5126.42
Y68.534 Z3.153 A-4988.46 F4127.1
Y68.532 Z3.224 A-4993.997 F4180.68
Y68.529 Z3.282 A-4999.523 F4272.62
Y68.527 Z3.326 A-5005.04 F4387.65
Y68.525 Z3.357 A-5010.549 F4522.24
Y68.522 Z3.374 A-5016.055 F4685.7
Y68.52 Z3.376 A-5021.558 F4884.84
Y68.518 Z3.364 A-5027.061 F4749.26
Y68.516 Z3.337 A-5032.567 F4563.47
Y68.513 Z3.297 A-5038.077 F4430.9
Y68.511 Z3.242 A-5043.595 F4297.8
Y68.509 Z3.175 A-5049.122 F4216.53
Y68.506 Z3.096 A-5054.66 F4145.67
Y68.504 Z3.007 A-5060.211 F4112.94
Y68.502 Z2.909 A-5065.778 F4096.67
Y68.5 Z2.823 A-5070.243 F5122.42
Y68.498 Z2.733 A-5074.72 F5151.56
Y68.497 Z2.669 A-5078.086 F7110.16
Y68.496 Z2.649 A-5079.209 F22308.77
Z2.65 A-5080.333 F30432.59
Y68.494 Z2.709 A-5083.516 F7617.56
Y68.493 Z2.799 A-5088.005 F5175.76
Y68.491 Z2.886 A-5092.482 F5121.01
Y68.489 Z2.966 A-5096.948 F5131.44
Y68.486 Z3.059 A-5102.515 F4102.28
Y68.484 Z3.141 A-5108.067 F4137.99
Y68.482 Z3.213 A-5113.606 F4188.7
Y68.48 Z3.273 A-5119.133 F4261.34
Y68.477 Z3.321 A-5124.651 F4349.67
Z3.323 A-5125.345 F37306.08
Z3.325 A-5125.692 F45000.
Z3.326 A-5126.039 F45000.
Z3.328 A-5126.385 F45000.
Y68.476 Z3.33 A-5126.73 F45000.
Z3.332 A-5127.076 F45000.
Z3.334 A-5127.421 F45000.
Z3.336 A-5127.765 F45000.
Z3.338 A-5128.109 F45000.
Z3.341 A-5128.453 F45000.
Z3.343 A-5128.796 F45000.
Y68.475 Z3.346 A-5129.138 F45000.
Z3.349 A-5129.48 F45000.
Z3.352 A-5129.821 F45000.
Z3.355 A-5130.162 F45000.
Y68.473 Z3.372 A-5135.668 F4694.57
Y68.47 Z3.375 A-5141.171 F4874.46
Y68.468 Z3.364 A-5146.674 F4777.25
Y68.466 Z3.34 A-5152.18 F4595.62
Y68.463 Z3.3 A-5157.69 F4439.19
Y68.461 Z3.247 A-5163.206 F4305.25
Y68.459 Z3.181 A-5168.732 F4219.33
Y68.457 Z3.103 A-5174.27 F4157.79
Y68.455 Z3.034 A-5178.709 F5165.26
Y68.453 Z2.959 A-5183.157 F5146.97
Y68.451 Z2.879 A-5187.616 F5161.14
Y68.449 Z2.794 A-5192.085 F5164.93
Y68.448 Z2.726 A-5195.445 F6903.89
Y68.447 Z2.682 A-5197.688 F10616.47
Y68.446 Z2.662 A-5198.811 F22052.54
Z2.646 A-5199.935 F23411.15
Y68.445 Z2.654 A-5201.059 F26451.82
Y68.444 Z2.695 A-5203.3 F10942.56
Y68.443 Z2.785 A-5207.792 F5177.14
Y68.441 Z2.873 A-5212.271 F5123.26
Y68.438 Z2.976 A-5217.853 F4074.58
Y68.436 Z3.07 A-5223.418 F4079.7
Y68.434 Z3.152 A-5228.969 F4130.85
Y68.431 Z3.221 A-5234.506 F4207.76
Y68.429 Z3.278 A-5240.032 F4284.56
Y68.427 Z3.323 A-5245.549 F4381.38
Y68.425 Z3.355 A-5251.06 F4507.77
Y68.422 Z3.373 A-5256.565 F4672.68
Y68.42 Z3.377 A-5262.068 F4870.59
Y68.418 Z3.363 A-5267.571 F4731.5
Y68.415 Z3.336 A-5273.077 F4562.71
Y68.413 Z3.295 A-5278.588 F4423.
Y68.411 Z3.241 A-5284.105 F4310.88
Y68.408 Z3.175 A-5289.632 F4227.99
Y68.406 Z3.097 A-5295.17 F4151.97
Y68.404 Z3.008 A-5300.722 F4111.79
Y68.402 Z2.908 A-5306.288 F4079.23
Y68.401 Z2.902 A-5306.574 F45000.
Z2.896 A-5306.862 F45000.
Z2.89 A-5307.15 F45000.
Z2.884 A-5307.44 F45000.
Z2.878 A-5307.73 F45000.
Z2.872 A-5308.022 F45000.
Z2.866 A-5308.316 F45000.
Z2.861 A-5308.61 F45000.
Y68.4 Z2.855 A-5308.905 F45000.
Z2.85 A-5309.202 F45000.
Z2.844 A-5309.5 F45000.
Z2.839 A-5309.799 F45000.
Z2.834 A-5310.099 F45000.
Z2.828 A-5310.4 F45000.
Z2.823 A-5310.702 F45000.
Z2.818 A-5311.006 F45000.
Y68.397 Z2.71 A-5316.491 F4227.09
Y68.396 Z2.665 A-5318.736 F10620.68
Z2.647 A-5319.859 F22835.37
Y68.395 Z2.651 A-5320.983 F28886.39
Y68.394 Z2.691 A-5323.233 F10959.98
Y68.393 Z2.757 A-5326.603 F6998.6
Y68.391 Z2.845 A-5331.085 F5154.11
Y68.389 Z2.928 A-5335.556 F5132.17
Y68.387 Z3.006 A-5340.016 F5128.33
Y68.386 Z3.08 A-5344.466 F5123.34
Y68.384 Z3.144 A-5348.906 F5188.79
Y68.381 Z3.217 A-5354.444 F4174.72
Y68.379 Z3.276 A-5359.971 F4264.89
Y68.377 Z3.321 A-5365.489 F4380.32
Y68.375 Z3.352 A-5371. F4521.08
Y68.372 Z3.371 A-5376.506 F4673.41
Y68.37 Z3.375 A-5382.009 F4869.72
Y68.368 Z3.363 A-5387.513 F4766.47
Y68.365 Z3.337 A-5393.018 F4583.1
Y68.363 Z3.298 A-5398.529 F4442.71
Y68.361 Z3.244 A-5404.046 F4307.74
Y68.359 Z3.178 A-5409.572 F4220.51
Y68.356 Z3.101 A-5415.11 F4156.47
Y68.354 Z3.013 A-5420.661 F4119.25
Y68.352 Z2.915 A-5426.226 F4098.74
Y68.35 Z2.83 A-5430.691 F5126.88
Y68.348 Z2.74 A-5435.167 F5147.98
Y68.346 Z2.675 A-5438.532 F7061.77
Z2.646 A-5440.217 F14884.29
Z2.643 A-5440.779 F45000.
Y68.345 Z2.651 A-5441.452 F40278.78
Y68.344 Z2.716 A-5444.825 F7128.61
Y68.342 Z2.805 A-5449.314 F5176.66
Y68.34 Z2.891 A-5453.79 F5127.73
Y68.338 Z2.972 A-5458.255 F5124.5
Y68.336 Z3.063 A-5463.821 F4111.03
Y68.334 Z3.145 A-5469.372 F4144.38
Y68.331 Z3.215 A-5474.911 F4194.01
Y68.329 Z3.274 A-5480.438 F4269.48
Y68.327 Z3.321 A-5485.955 F4369.61
Y68.326 Z3.323 A-5486.65 F37428.36
Z3.325 A-5486.996 F45000.
Z3.326 A-5487.343 F45000.
Z3.328 A-5487.689 F45000.
Z3.329 A-5488.034 F45000.
Z3.331 A-5488.38 F45000.
Z3.333 A-5488.725 F45000.
Y68.325 Z3.336 A-5489.069 F45000.
Z3.338 A-5489.413 F45000.
Z3.34 A-5489.757 F45000.
Z3.343 A-5490.1 F45000.
Z3.345 A-5490.442 F45000.
Z3.348 A-5490.784 F45000.
Z3.351 A-5491.125 F45000.
Y68.324 Z3.354 A-5491.466 F45000.
Y68.322 Z3.37 A-5496.972 F4705.77
Y68.32 Z3.372 A-5502.476 F4890.8
Y68.318 Z3.361 A-5507.979 F4772.27
Y68.315 Z3.335 A-5513.485 F4584.
Y68.313 Z3.295 A-5518.996 F4428.28
Y68.311 Z3.24 A-5524.514 F4296.55
Y68.308 Z3.172 A-5530.041 F4212.01
Y68.306 Z3.094 A-5535.58 F4160.65
Y68.304 Z3.025 A-5540.02 F5165.58
Y68.302 Z2.949 A-5544.47 F5151.2
Y68.3 Z2.869 A-5548.93 F5169.74
Y68.299 Z2.783 A-5553.4 F5163.64
Y68.297 Z2.715 A-5556.761 F6924.18
Y68.296 Z2.672 A-5559.005 F10700.28
Z2.653 A-5560.128 F22283.26
Y68.295 Z2.645 A-5561.252 F26948.51
Z2.66 A-5562.377 F23998.57
Y68.294 Z2.702 A-5564.626 F10801.67
Y68.292 Z2.814 A-5570.237 F4123.62
Y68.289 Z2.921 A-5575.829 F4077.06
Y68.287 Z3.02 A-5581.403 F4072.39
Y68.285 Z3.092 A-5585.851 F5138.39
Y68.283 Z3.169 A-5591.398 F4164.38
Y68.28 Z3.236 A-5596.932 F4221.46
Y68.278 Z3.289 A-5602.456 F4312.19
Y68.276 Z3.331 A-5607.971 F4414.61
Y68.274 Z3.36 A-5613.481 F4551.23
Y68.271 Z3.374 A-5618.985 F4723.01
Y68.269 A-5623.388 F6128.16
Y68.267 Z3.359 A-5628.892 F4719.97
Y68.265 Z3.33 A-5634.398 F4551.34
Y68.263 Z3.289 A-5639.909 F4421.07
Y68.26 Z3.235 A-5645.428 F4310.68
Y68.258 Z3.168 A-5650.956 F4219.34
Y68.256 Z3.088 A-5656.496 F4149.39
Y68.253 Z2.999 A-5662.049 F4113.22
Y68.251 Z2.919 A-5666.502 F5112.92
Z2.911 A-5666.834 F45000.
Z2.904 A-5667.168 F45000.
Z2.897 A-5667.504 F45000.
Z2.89 A-5667.841 F45000.
Z2.883 A-5668.18 F45000.
Z2.876 A-5668.52 F45000.
Y68.25 Z2.87 A-5668.862 F45000.
Z2.863 A-5669.206 F45000.
Z2.857 A-5669.551 F45000.
Z2.85 A-5669.898 F45000.
Z2.844 A-5670.247 F45000.
Z2.838 A-5670.597 F45000.
Z2.832 A-5670.948 F45000.
Y68.249 Z2.826 A-5671.301 F45000.
Z2.82 A-5671.655 F45000.
Z2.814 A-5672.011 F45000.
Y68.247 Z2.703 A-5677.611 F4143.72
Y68.246 Z2.659 A-5679.856 F10680.08
Y68.245 Z2.644 A-5680.979 F23743.72
Z2.653 A-5682.104 F26201.81
Y68.244 Z2.694 A-5684.353 F10903.16
Y68.243 Z2.76 A-5687.723 F6984.4
Y68.241 Z2.848 A-5692.205 F5155.83
Y68.239 Z2.91 A-5695.559 F6871.58
Y68.237 Z2.989 A-5700.021 F5133.79
Y68.236 Z3.063 A-5704.473 F5135.02
Y68.233 Z3.146 A-5710.025 F4128.86
Y68.231 Z3.217 A-5715.563 F4182.82
Y68.229 Z3.276 A-5721.089 F4273.23
Y68.226 Z3.32 A-5726.607 F4387.03
Y68.224 Z3.352 A-5732.118 F4525.53
Y68.222 Z3.369 A-5737.624 F4684.1
Y68.22 Z3.372 A-5743.128 F4884.48
Y68.217 Z3.36 A-5748.632 F4763.83
Y68.215 Z3.334 A-5754.138 F4575.74
Y68.213 Z3.294 A-5759.649 F4438.68
Y68.21 Z3.24 A-5765.167 F4305.76
Y68.208 Z3.173 A-5770.694 F4222.37
Y68.206 Z3.095 A-5776.233 F4154.01
Y68.203 Z3.006 A-5781.785 F4120.26
Y68.201 Z2.909 A-5787.351 F4103.05
Y68.199 Z2.823 A-5791.817 F5126.8
Y68.197 Z2.733 A-5796.294 F5147.83
Y68.196 Z2.687 A-5798.536 F10469.43
Z2.648 A-5800.783 F11096.1
Y68.195 Z2.643 A-5801.907 F28104.91
Y68.194 Z2.696 A-5804.815 F8432.1
Y68.192 Z2.786 A-5809.306 F5196.7
Y68.19 Z2.873 A-5813.785 F5126.04
Y68.188 Z2.954 A-5818.252 F5137.23
Y68.186 Z3.048 A-5823.821 F4103.73
Y68.184 Z3.131 A-5829.375 F4136.44
Y68.181 Z3.203 A-5834.916 F4194.55
Y68.179 Z3.264 A-5840.445 F4256.31
Y68.177 Z3.312 A-5845.964 F4349.88
Z3.314 A-5846.312 F45000.
Y68.176 Z3.315 A-5846.659 F45000.
Z3.317 A-5847.006 F45000.
Z3.318 A-5847.353 F45000.
Z3.32 A-5847.699 F45000.
Z3.322 A-5848.045 F45000.
Z3.324 A-5848.39 F45000.
Z3.326 A-5848.735 F45000.
Y68.175 Z3.329 A-5849.08 F45000.
Z3.331 A-5849.424 F45000.
Z3.334 A-5849.767 F45000.
Z3.336 A-5850.11 F45000.
Z3.339 A-5850.453 F45000.
Z3.342 A-5850.795 F45000.
Z3.345 A-5851.136 F45000.
Y68.174 Z3.348 A-5851.477 F45000.
Y68.172 Z3.366 A-5856.983 F4686.99
Y68.17 Z3.371 A-5862.488 F4864.56
Y68.168 Z3.361 A-5867.992 F4794.5
Y68.165 Z3.337 A-5873.497 F4617.92
Y68.163 Z3.3 A-5879.008 F4462.33
Y68.161 Z3.247 A-5884.525 F4318.59
Y68.158 Z3.182 A-5890.051 F4229.3
Y68.156 Z3.105 A-5895.588 F4161.96
Y68.154 Z3.037 A-5900.026 F5180.06
Y68.152 Z2.943 A-5905.588 F4113.19
Y68.15 Z2.863 A-5910.049 F5174.67
Y68.148 Z2.776 A-5914.52 F5162.23
Y68.147 Z2.708 A-5917.881 F6934.63
Y68.146 Z2.666 A-5920.126 F10757.95
Y68.145 Z2.647 A-5921.249 F22429.59
Z2.644 A-5922.374 F29295.59
Y68.144 Z2.662 A-5923.498 F22849.21
Y68.143 Z2.705 A-5925.748 F10734.09
Y68.142 Z2.795 A-5930.237 F5168.04
Y68.139 Z2.903 A-5935.833 F4094.71
Y68.137 Z3.003 A-5941.41 F4067.82
Y68.135 Z3.093 A-5946.971 F4099.2
Y68.132 Z3.17 A-5952.517 F4171.32
Y68.13 Z3.236 A-5958.052 F4229.56
Y68.128 Z3.289 A-5963.576 F4318.48
Y68.125 Z3.331 A-5969.091 F4419.99
Y68.123 Z3.358 A-5974.6 F4564.14
Y68.121 Z3.372 A-5980.106 F4732.36
Y68.118 Z3.369 A-5985.609 F4884.63
Y68.116 Z3.351 A-5991.113 F4682.61
Y68.114 Z3.319 A-5996.621 F4518.39
Y68.112 Z3.275 A-6002.135 F4396.99
Y68.109 Z3.217 A-6007.656 F4285.52
Y68.107 Z3.148 A-6013.187 F4211.42
Y68.105 Z3.066 A-6018.73 F4139.33
Y68.102 Z2.972 A-6024.287 F4091.18
Y68.101 Z2.892 A-6028.743 F5133.79
Y68.1 Z2.88 A-6029.277 F41701.64
Z2.869 A-6029.815 F41862.19
Z2.864 A-6030.086 F45000.
Z2.858 A-6030.357 F45000.
Z2.853 A-6030.63 F45000.
Z2.848 A-6030.904 F45000.
Y68.099 Z2.842 A-6031.178 F45000.
Z2.837 A-6031.454 F45000.
Z2.832 A-6031.731 F45000.
Z2.827 A-6032.009 F45000.
Z2.822 A-6032.287 F45000.
Z2.817 A-6032.567 F45000.
Z2.812 A-6032.848 F45000.
Z2.808 A-6033.129 F45000.
Y68.096 Z2.696 A-6038.73 F4144.47
Y68.095 Z2.653 A-6040.975 F10755.95
Z2.641 A-6042.099 F24912.21
Y68.094 Z2.655 A-6043.223 F24155.21
Z2.697 A-6045.473 F10845.13
Y68.092 Z2.763 A-6048.842 F6978.84
Y68.09 Z2.851 A-6053.324 F5158.07
Y68.088 Z2.933 A-6057.794 F5141.32
Y68.087 Z3.01 A-6062.254 F5134.29
Y68.085 Z3.083 A-6066.703 F5126.7
Y68.083 Z3.147 A-6071.143 F5203.14
Y68.081 Z3.217 A-6076.681 F4189.84
Y68.078 Z3.275 A-6082.207 F4280.08
Y68.076 Z3.32 A-6087.725 F4395.28
Y68.074 Z3.35 A-6093.236 F4530.15
Y68.071 Z3.367 A-6098.742 F4696.2
Y68.069 Z3.369 A-6104.247 F4897.23
Y68.067 Z3.357 A-6109.751 F4759.9
Y68.064 Z3.33 A-6115.258 F4569.71
Y68.062 Z3.289 A-6120.769 F4435.58
Y68.06 Z3.234 A-6126.288 F4303.15
Y68.058 Z3.168 A-6131.816 F4227.96
Y68.055 Z3.089 A-6137.355 F4154.27
Y68.053 Z3. A-6142.908 F4120.32
Y68.051 Z2.902 A-6148.476 F4102.05
Y68.049 Z2.816 A-6152.942 F5133.1
Y68.046 Z2.702 A-6158.541 F4104.44
Z2.661 A-6160.786 F10899.97
Y68.045 Z2.643 A-6161.91 F22901.03
Z2.645 A-6163.034 F29777.2
Y68.043 Z2.705 A-6166.219 F7618.32
Y68.041 Z2.794 A-6170.709 F5186.11
Y68.04 Z2.881 A-6175.187 F5135.95
Y68.038 Z2.961 A-6179.653 F5138.34
Y68.035 Z3.054 A-6185.221 F4109.43
Y68.033 Z3.136 A-6190.774 F4145.31
Y68.031 Z3.207 A-6196.314 F4197.6
Y68.028 Z3.266 A-6201.842 F4270.81
Y68.026 Z3.314 A-6207.361 F4358.91
Z3.315 A-6207.709 F45000.
Z3.317 A-6208.056 F45000.
Z3.318 A-6208.403 F45000.
Z3.32 A-6208.749 F45000.
Y68.025 Z3.321 A-6209.095 F45000.
Z3.323 A-6209.441 F45000.
Z3.325 A-6209.786 F45000.
Z3.327 A-6210.131 F45000.
Z3.33 A-6210.476 F45000.
Z3.332 A-6210.82 F45000.
Z3.334 A-6211.163 F45000.
Y68.024 Z3.337 A-6211.507 F45000.
Z3.34 A-6211.849 F45000.
Z3.342 A-6212.191 F45000.
Z3.345 A-6212.532 F45000.
Z3.348 A-6212.873 F45000.
Y68.022 Z3.365 A-6218.38 F4709.1
Y68.019 Z3.368 A-6223.884 F4888.26
Y68.017 Z3.357 A-6229.389 F4790.26
Y68.015 Z3.332 A-6234.895 F4600.32
Y68.012 Z3.293 A-6240.407 F4447.88
Y68.01 Z3.239 A-6245.925 F4308.15
Y68.008 Z3.173 A-6251.452 F4224.92
Y68.005 Z3.096 A-6256.99 F4166.47
Y68.004 Z3.026 A-6261.431 F5173.96
Y68.002 Z2.951 A-6265.88 F5155.94
Y68. Z2.871 A-6270.339 F5172.76
Y67.998 Z2.786 A-6274.81 F5174.7
Y67.997 Z2.718 A-6278.17 F6918.07
Y67.996 Z2.675 A-6280.414 F10648.51
Y67.995 Z2.655 A-6281.537 F22117.86
Z2.639 A-6282.661 F23700.02
Y67.994 Z2.65 A-6283.785 F25559.38
Y67.993 Z2.691 A-6286.035 F10908.8
Y67.991 Z2.781 A-6290.527 F5186.06
Y67.99 Z2.869 A-6295.006 F5131.54
Y67.988 Z2.952 A-6299.474 F5114.01
Y67.985 Z3.047 A-6305.043 F4085.58
Y67.983 Z3.131 A-6310.597 F4130.82
Y67.981 Z3.202 A-6316.138 F4198.89
Y67.978 Z3.262 A-6321.667 F4271.26
Y67.976 Z3.309 A-6327.187 F4367.65
Y67.974 Z3.344 A-6332.699 F4491.52
Y67.972 Z3.365 A-6338.207 F4643.88
Y67.969 Z3.372 A-6343.711 F4827.59
Y67.967 Z3.36 A-6349.215 F4765.4
Y67.965 Z3.335 A-6354.721 F4596.05
Y67.962 Z3.297 A-6360.232 F4451.2
Y67.96 Z3.245 A-6365.749 F4336.45
Y67.958 Z3.183 A-6371.275 F4258.95
Y67.955 Z3.107 A-6376.812 F4172.35
Y67.953 Z3.019 A-6382.362 F4116.34
Y67.951 Z2.942 A-6386.813 F5132.63
Z2.936 A-6387.068 F45000.
Z2.931 A-6387.325 F45000.
Z2.926 A-6387.582 F45000.
Z2.921 A-6387.84 F45000.
Z2.916 A-6388.099 F45000.
Z2.911 A-6388.359 F45000.
Z2.906 A-6388.62 F45000.
Y67.95 Z2.901 A-6388.881 F45000.
Z2.896 A-6389.144 F45000.
Z2.892 A-6389.407 F45000.
Z2.887 A-6389.672 F45000.
Z2.882 A-6389.937 F45000.
Z2.873 A-6390.469 F44651.27
Z2.865 A-6391.006 F44861.33
Y67.948 Z2.801 A-6394.247 F7099.03
Y67.946 Z2.712 A-6398.726 F5193.43
Y67.945 Z2.668 A-6400.971 F10600.84
Z2.647 A-6402.094 F22028.7
Y67.944 Z2.64 A-6403.218 F27138.02
Z2.654 A-6404.173 F27405.86
Y67.943 Z2.696 A-6406.422 F10840.97
Y67.942 Z2.763 A-6409.792 F6979.64
Y67.94 Z2.85 A-6414.274 F5161.23
Y67.938 Z2.932 A-6418.744 F5145.1
Y67.936 Z3.009 A-6423.204 F5137.44
Y67.934 Z3.082 A-6427.653 F5128.35
Y67.932 Z3.146 A-6432.093 F5205.01
Y67.93 Z3.216 A-6437.631 F4191.82
Y67.928 Z3.274 A-6443.158 F4285.72
Y67.926 Z3.318 A-6448.676 F4400.25
Y67.923 Z3.348 A-6454.187 F4534.98
Y67.921 Z3.365 A-6459.694 F4701.88
Y67.919 Z3.367 A-6465.198 F4903.65
Y67.916 Z3.354 A-6470.703 F4760.93
Y67.915 Z3.334 A-6475.108 F5739.42
Y67.912 Z3.295 A-6480.619 F4458.2
Y67.91 Z3.244 A-6486.137 F4337.49
Y67.908 Z3.179 A-6491.663 F4231.97
Y67.905 Z3.103 A-6497.201 F4173.46
Y67.903 Z3.016 A-6502.751 F4130.64
Y67.901 Z2.939 A-6507.202 F5142.49
Y67.899 Z2.856 A-6511.663 F5131.88
Y67.897 Z2.768 A-6516.136 F5146.08
Y67.896 Z2.699 A-6519.498 F6895.98
Y67.895 Z2.658 A-6521.743 F10908.63
Z2.64 A-6522.867 F22921.81
Y67.894 Z2.644 A-6523.991 F28696.03
Y67.893 Z2.708 A-6527.365 F7160.12
Y67.891 Z2.797 A-6531.854 F5186.61
Y67.889 Z2.883 A-6536.332 F5136.42
Y67.887 Z2.964 A-6540.798 F5140.87
Y67.885 Z3.056 A-6546.365 F4114.9
Y67.883 Z3.137 A-6551.918 F4151.79
Y67.88 Z3.207 A-6557.458 F4202.6
Y67.878 Z3.266 A-6562.986 F4275.64
Y67.876 Z3.313 A-6568.505 F4369.95
Y67.875 Z3.315 A-6568.852 F45000.
Z3.316 A-6569.199 F45000.
Z3.317 A-6569.546 F45000.
Z3.319 A-6569.893 F45000.
Z3.321 A-6570.239 F45000.
Z3.322 A-6570.584 F45000.
Z3.324 A-6570.93 F45000.
Y67.874 Z3.326 A-6571.275 F45000.
Z3.329 A-6571.619 F45000.
Z3.331 A-6571.963 F45000.
Z3.333 A-6572.307 F45000.
Z3.336 A-6572.65 F45000.
Z3.338 A-6572.993 F45000.
Z3.341 A-6573.335 F45000.
Y67.873 Z3.344 A-6573.676 F45000.
Z3.347 A-6574.017 F45000.
Y67.871 Z3.363 A-6579.524 F4714.73
Y67.869 Z3.365 A-6585.029 F4899.67
Y67.866 Z3.354 A-6590.533 F4785.08
Y67.864 Z3.329 A-6596.041 F4595.81
Y67.862 Z3.289 A-6601.552 F4441.74
Y67.86 Z3.234 A-6607.071 F4304.57
Y67.857 Z3.167 A-6612.599 F4222.86
Y67.855 Z3.09 A-6618.139 F4167.92
Y67.853 Z3.02 A-6622.58 F5177.59
Y67.851 Z2.945 A-6627.03 F5159.57
Y67.849 Z2.865 A-6631.49 F5178.08
Y67.848 Z2.779 A-6635.962 F5172.36
Y67.846 Z2.711 A-6639.322 F6928.48
Y67.845 Z2.668 A-6641.567 F10707.73
Z2.648 A-6642.69 F22261.93
Y67.844 Z2.639 A-6643.814 F26205.26
Z2.653 A-6644.926 F24720.88
Y67.843 Z2.694 A-6647.176 F10845.78
Y67.841 Z2.785 A-6651.667 F5181.47
Y67.839 Z2.872 A-6656.146 F5135.34
Y67.837 Z2.974 A-6661.728 F4083.65
Y67.834 Z3.067 A-6667.294 F4094.7
Y67.832 Z3.148 A-6672.845 F4145.5
Y67.83 Z3.216 A-6678.383 F4221.62
Y67.828 Z3.272 A-6683.91 F4298.75
Y67.825 Z3.316 A-6689.428 F4399.43
Y67.823 Z3.348 A-6694.94 F4522.39
Y67.821 Z3.365 A-6700.446 F4696.65
Y67.818 Z3.367 A-6705.951 F4899.7
Y67.816 Z3.353 A-6711.455 F4731.32
Y67.814 Z3.324 A-6716.963 F4562.11
Y67.811 Z3.283 A-6722.475 F4429.25
Y67.809 Z3.229 A-6727.995 F4318.76
Y67.807 Z3.162 A-6733.524 F4229.09
Y67.805 Z3.083 A-6739.064 F4159.23
Y67.802 Z2.994 A-6744.618 F4118.43
Y67.8 Z2.897 A-6750. F4230.27
Y67.798 Z2.816 A-6754.246 F5418.08
Y67.796 Z2.706 A-6759.845 F4148.43
Y67.795 Z2.661 A-6762.09 F10639.05
Y67.794 Z2.641 A-6763.213 F22161.46
A-6764.337 F30408.65
Y67.793 Z2.672 A-6766.134 F13917.83
Y67.792 Z2.738 A-6769.506 F7054.01
Y67.79 Z2.826 A-6773.991 F5174.53
Y67.788 Z2.909 A-6778.465 F5147.33
Y67.786 Z2.988 A-6782.927 F5141.36
Y67.784 Z3.061 A-6787.379 F5143.31
Y67.782 Z3.143 A-6792.931 F4142.22
Y67.78 Z3.214 A-6798.47 F4192.9
Y67.778 Z3.271 A-6803.997 F4288.16
Y67.775 Z3.315 A-6809.515 F4401.13
Y67.773 Z3.346 A-6815.027 F4535.35
Y67.771 Z3.363 A-6820.534 F4703.31
Y67.768 Z3.365 A-6826.039 F4905.23
Y67.766 Z3.352 A-6831.544 F4765.11
Y67.764 Z3.332 A-6835.95 F5740.51
Y67.762 Z3.293 A-6841.461 F4462.47
Y67.76 Z3.242 A-6846.979 F4343.14
Y67.757 Z3.177 A-6852.506 F4235.48
Y67.755 Z3.101 A-6858.043 F4174.92
Y67.753 Z3.015 A-6863.594 F4132.89
Y67.751 Z2.938 A-6868.045 F5147.21
Y67.749 Z2.855 A-6872.507 F5136.73
Y67.747 Z2.767 A-6876.979 F5146.24
Y67.746 Z2.698 A-6880.341 F6911.86
Y67.745 Z2.657 A-6882.586 F10898.12
Y67.744 Z2.639 A-6883.71 F22854.33
Z2.642 A-6884.835 F29325.23
Y67.742 Z2.705 A-6888.209 F7176.85
Y67.741 Z2.795 A-6892.699 F5191.15
Y67.739 Z2.881 A-6897.176 F5140.91
Y67.737 Z2.961 A-6901.643 F5141.28
Y67.734 Z3.053 A-6907.211 F4117.33
Y67.732 Z3.134 A-6912.764 F4153.14
Y67.73 Z3.205 A-6918.304 F4204.74
Y67.728 Z3.264 A-6923.833 F4276.56
Y67.725 Z3.311 A-6929.352 F4372.21
Z3.312 A-6929.699 F45000.
Z3.314 A-6930.046 F45000.
Z3.315 A-6930.393 F45000.
Z3.317 A-6930.74 F45000.
Z3.318 A-6931.086 F45000.
Y67.724 Z3.32 A-6931.432 F45000.
Z3.322 A-6931.777 F45000.
Z3.324 A-6932.122 F45000.
Z3.326 A-6932.467 F45000.
Z3.329 A-6932.811 F45000.
Z3.331 A-6933.154 F45000.
Z3.334 A-6933.497 F45000.
Y67.723 Z3.336 A-6933.84 F45000.
Z3.339 A-6934.182 F45000.
Z3.342 A-6934.523 F45000.
Z3.345 A-6934.864 F45000.
Y67.721 Z3.361 A-6940.372 F4719.28
Y67.718 Z3.363 A-6945.877 F4901.83
Y67.716 Z3.352 A-6951.382 F4788.9
Y67.714 Z3.327 A-6956.889 F4600.22
Y67.712 Z3.287 A-6962.402 F4445.91
Y67.709 Z3.232 A-6967.921 F4306.05
Y67.707 Z3.166 A-6973.449 F4226.85
Y67.705 Z3.088 A-6978.989 F4171.08
Y67.703 Z3.019 A-6983.43 F5179.55
Y67.701 Z2.943 A-6987.88 F5162.15
Y67.699 Z2.863 A-6992.341 F5182.8
Y67.697 Z2.778 A-6996.812 F5175.21
Y67.696 Z2.71 A-7000.173 F6936.33
Y67.695 Z2.667 A-7002.418 F10697.22
Y67.694 Z2.647 A-7003.541 F22237.2
Z2.637 A-7004.666 F25870.44
Y67.693 Z2.65 A-7005.79 F24474.69
Y67.692 Z2.692 A-7008.04 F10866.22
Y67.691 Z2.782 A-7012.532 F5184.73
Y67.689 Z2.869 A-7017.011 F5139.3
Y67.686 Z2.972 A-7022.594 F4085.06
Y67.684 Z3.064 A-7028.16 F4096.54
Y67.682 Z3.145 A-7033.711 F4147.98
Y67.679 Z3.213 A-7039.249 F4224.53
Y67.677 Z3.27 A-7044.777 F4301.2
Y67.675 Z3.314 A-7050.296 F4402.13
Y67.673 Z3.346 A-7055.807 F4524.67
Y67.67 Z3.363 A-7061.315 F4699.25
Y67.668 Z3.365 A-7066.819 F4902.44
Y67.666 Z3.35 A-7072.324 F4733.57
Y67.663 Z3.322 A-7077.832 F4565.94
Y67.661 Z3.281 A-7083.345 F4434.01
Y67.659 Z3.227 A-7088.865 F4321.19
Y67.657 Z3.16 A-7094.394 F4231.97
Y67.654 Z3.081 A-7099.935 F4161.95
Y67.652 Z2.992 A-7105.489 F4120.38
Z2.985 A-7105.823 F45000.
Z2.978 A-7106.158 F45000.
Y67.651 Z2.971 A-7106.495 F45000.
Z2.965 A-7106.833 F45000.
Z2.958 A-7107.173 F45000.
Z2.952 A-7107.514 F45000.
Z2.945 A-7107.857 F45000.
Z2.939 A-7108.201 F45000.
Z2.933 A-7108.546 F45000.
Y67.65 Z2.927 A-7108.894 F45000.
Z2.921 A-7109.242 F45000.
Z2.915 A-7109.592 F45000.
Z2.909 A-7109.943 F45000.
Z2.904 A-7110.296 F45000.
Z2.898 A-7110.65 F45000.
Z2.893 A-7111.006 F45000.
Y67.648 Z2.81 A-7115.363 F5280.2
Y67.645 Z2.699 A-7120.963 F4151.34
Y67.644 Z2.655 A-7123.208 F10703.16
Z2.638 A-7124.332 F22981.42
Z2.642 A-7125.456 F28285.92
Y67.643 Z2.683 A-7127.706 F10964.09
Y67.641 Z2.749 A-7131.077 F7014.22
Y67.639 Z2.837 A-7135.561 F5169.18
Y67.638 Z2.899 A-7138.916 F6889.51
Y67.636 Z2.978 A-7143.38 F5145.38
Y67.634 Z3.052 A-7147.833 F5150.26
Y67.632 Z3.135 A-7153.386 F4136.09
Y67.63 Z3.207 A-7158.926 F4187.82
Y67.627 Z3.265 A-7164.455 F4281.34
Y67.625 Z3.31 A-7169.974 F4395.48
Y67.623 Z3.342 A-7175.486 F4529.98
Y67.62 Z3.36 A-7180.994 F4691.11
Y67.618 Z3.363 A-7186.5 F4895.07
Y67.616 Z3.352 A-7192.005 F4783.15
Y67.614 Z3.326 A-7197.512 F4594.38
Y67.611 Z3.286 A-7203.025 F4449.42
Y67.609 Z3.233 A-7208.544 F4322.57
Y67.607 Z3.166 A-7214.072 F4232.62
Y67.604 Z3.089 A-7219.612 F4166.26
Y67.602 Z3.001 A-7225.165 F4132.01
Y67.6 Z2.903 A-7230.732 F4113.45
Y67.598 Z2.818 A-7235.198 F5139.21
Y67.596 Z2.729 A-7239.676 F5159.18
Y67.595 Z2.683 A-7241.919 F10499.58
Y67.594 Z2.635 A-7244.728 F8931.27
Z2.634 A-7245.29 F45000.
Y67.593 Z2.664 A-7247.074 F14144.03
Y67.591 Z2.73 A-7250.447 F7052.4
Y67.59 Z2.819 A-7254.933 F5167.55
Y67.587 Z2.924 A-7260.525 F4106.63
Y67.585 Z3.02 A-7266.099 F4105.09
Y67.583 Z3.105 A-7271.657 F4139.98
Y67.58 Z3.179 A-7277.202 F4193.46
Y67.578 Z3.243 A-7282.735 F4237.3
Y67.576 Z3.294 A-7288.258 F4344.7
Z3.295 A-7288.676 F45000.
Y67.575 Z3.297 A-7289.094 F45000.
Z3.299 A-7289.511 F45000.
Z3.301 A-7289.928 F45000.
Z3.303 A-7290.344 F45000.
Z3.305 A-7290.759 F45000.
Z3.308 A-7291.175 F45000.
Y67.574 Z3.311 A-7291.589 F45000.
Z3.314 A-7292.003 F45000.
Z3.317 A-7292.415 F45000.
Z3.32 A-7292.828 F45000.
Z3.323 A-7293.239 F45000.
Y67.573 Z3.327 A-7293.649 F45000.
Z3.331 A-7294.059 F45000.
Z3.335 A-7294.467 F45000.
Z3.339 A-7294.875 F45000.
Y67.571 Z3.357 A-7300.383 F4697.59
Y67.568 Z3.362 A-7305.889 F4869.99
Y67.566 Z3.352 A-7311.394 F4810.68
Y67.564 Z3.329 A-7316.902 F4633.46
Y67.561 Z3.292 A-7322.413 F4474.76
Y67.559 Z3.24 A-7327.932 F4334.43
Y67.557 Z3.175 A-7333.459 F4239.59
Y67.555 Z3.099 A-7338.997 F4172.17
Y67.553 Z3.031 A-7343.437 F5193.4
Y67.55 Z2.937 A-7348.999 F4125.36
Y67.549 Z2.857 A-7353.461 F5188.53
Y67.547 Z2.771 A-7357.933 F5171.76
Y67.545 Z2.703 A-7361.294 F6945.45
Y67.544 Z2.66 A-7363.539 F10748.83
Z2.641 A-7364.663 F22369.45
Y67.543 Z2.637 A-7365.787 F28367.43
Z2.653 A-7366.912 F23456.23
Y67.542 Z2.695 A-7369.162 F10798.23
Y67.54 Z2.785 A-7373.653 F5181.94
Y67.538 Z2.872 A-7378.132 F5141.54
Y67.536 Z2.974 A-7383.715 F4086.55
Y67.534 Z3.066 A-7389.28 F4103.84
Y67.531 Z3.146 A-7394.831 F4154.47
Y67.529 Z3.214 A-7400.37 F4228.45
Y67.527 Z3.27 A-7405.897 F4307.16
Y67.524 Z3.313 A-7411.416 F4410.58
Y67.522 Z3.345 A-7416.928 F4531.6
Y67.52 Z3.361 A-7422.435 F4707.62
Y67.518 Z3.362 A-7427.94 F4913.88
Y67.515 Z3.347 A-7433.445 F4729.46
Y67.513 Z3.318 A-7438.954 F4561.1
Y67.511 Z3.277 A-7444.467 F4430.42
Y67.508 Z3.222 A-7449.988 F4318.99
Y67.506 Z3.155 A-7455.518 F4232.94
Y67.504 Z3.076 A-7461.06 F4160.92
Y67.501 Z2.986 A-7466.615 F4121.43
Z2.979 A-7466.941 F45000.
Z2.972 A-7467.269 F45000.
Z2.966 A-7467.599 F45000.
Z2.959 A-7467.93 F45000.
Z2.953 A-7468.262 F45000.
Z2.946 A-7468.596 F45000.
Y67.5 Z2.94 A-7468.932 F45000.
Z2.934 A-7469.268 F45000.
Z2.928 A-7469.606 F45000.
Z2.922 A-7469.946 F45000.
Z2.916 A-7470.287 F45000.
Z2.91 A-7470.629 F45000.
Z2.905 A-7470.973 F45000.
Y67.499 Z2.899 A-7471.318 F45000.
Z2.894 A-7471.664 F45000.
Z2.889 A-7472.011 F45000.
Y67.497 Z2.803 A-7476.479 F5154.22
Y67.495 Z2.692 A-7482.08 F4152.57
Y67.494 Z2.649 A-7484.326 F10765.44
Z2.635 A-7485.45 F24039.57
Y67.493 Z2.645 A-7486.575 F25849.19
Y67.492 Z2.686 A-7488.825 F10907.23
Y67.491 Z2.752 A-7492.195 F7007.92
Y67.489 Z2.839 A-7496.679 F5170.01
Y67.487 Z2.902 A-7500.033 F6893.9
Y67.486 Z2.98 A-7504.497 F5147.07
Y67.484 Z3.053 A-7508.95 F5153.84
Y67.481 Z3.136 A-7514.503 F4143.49
Y67.479 Z3.207 A-7520.043 F4190.86
Y67.477 Z3.265 A-7525.571 F4290.52
Y67.475 Z3.31 A-7531.091 F4402.48
Y67.472 Z3.341 A-7536.603 F4538.39
Y67.47 Z3.358 A-7542.111 F4701.39
Y67.468 Z3.36 A-7547.617 F4908.98
Y67.465 Z3.349 A-7553.123 F4781.56
Y67.463 Z3.322 A-7558.631 F4588.45
Y67.461 Z3.282 A-7564.144 F4446.46
Y67.458 Z3.228 A-7569.664 F4319.81
Y67.456 Z3.161 A-7575.193 F4236.68
Y67.454 Z3.083 A-7580.733 F4166.5
Y67.452 Z2.995 A-7586.287 F4131.57
Y67.449 Z2.897 A-7591.856 F4112.94
Y67.447 Z2.812 A-7596.322 F5144.81
Y67.446 Z2.722 A-7600.801 F5164.84
Y67.444 Z2.657 A-7604.168 F7132.11
Y67.443 Z2.632 A-7605.854 F15404.48
Z2.636 A-7606.416 F45000.
Y67.442 Z2.689 A-7609.331 F8426.28
Y67.44 Z2.778 A-7613.823 F5205.11
Y67.438 Z2.865 A-7618.302 F5142.4
Y67.436 Z2.946 A-7622.771 F5154.82
Y67.434 Z3.039 A-7628.341 F4114.71
Y67.432 Z3.122 A-7633.897 F4148.31
Y67.429 Z3.193 A-7639.439 F4209.14
Y67.427 Z3.254 A-7644.969 F4273.26
Z3.256 A-7645.319 F45000.
Z3.258 A-7645.668 F45000.
Z3.261 A-7646.016 F45000.
Z3.263 A-7646.364 F45000.
Y67.426 Z3.266 A-7646.712 F45000.
Z3.268 A-7647.058 F45000.
Z3.271 A-7647.405 F45000.
Z3.274 A-7647.75 F45000.
Z3.277 A-7648.095 F45000.
Z3.281 A-7648.44 F45000.
Z3.284 A-7648.783 F45000.
Y67.425 Z3.287 A-7649.126 F45000.
Z3.291 A-7649.468 F45000.
Z3.295 A-7649.81 F45000.
Z3.298 A-7650.15 F45000.
Z3.302 A-7650.49 F45000.
Y67.423 Z3.338 A-7656.004 F4487.45
Y67.42 Z3.355 A-7661.513 F4702.87
Y67.418 Z3.359 A-7667.019 F4883.9
Y67.416 Z3.35 A-7672.524 F4807.88
Y67.413 Z3.326 A-7678.032 F4626.75
Y67.411 Z3.288 A-7683.544 F4468.
Y67.409 Z3.235 A-7689.063 F4331.7
Y67.406 Z3.17 A-7694.591 F4239.32
Y67.404 Z3.093 A-7700.13 F4175.81
Y67.402 Z3.025 A-7704.571 F5192.62
Y67.4 Z2.95 A-7709.02 F5167.98
Y67.399 Z2.871 A-7713.48 F5179.34
Y67.397 Z2.787 A-7717.95 F5192.32
Y67.395 Z2.719 A-7721.311 F6924.98
Y67.394 Z2.675 A-7723.554 F10584.52
Y67.393 Z2.635 A-7725.801 F11112.83
Z2.636 A-7726.926 F30296.98
Y67.392 Z2.676 A-7729.176 F11050.27
Y67.39 Z2.766 A-7733.67 F5214.48
Y67.388 Z2.854 A-7738.151 F5144.3
Y67.386 Z2.937 A-7742.621 F5124.88
Y67.384 Z3.033 A-7748.193 F4091.1
Y67.382 Z3.117 A-7753.749 F4139.96
Y67.379 Z3.19 A-7759.292 F4198.48
Y67.377 Z3.249 A-7764.824 F4284.69
Y67.375 Z3.298 A-7770.346 F4363.61
Y67.373 Z3.333 A-7775.86 F4496.72
Y67.37 Z3.355 A-7781.369 F4645.4
Y67.368 Z3.363 A-7786.875 F4827.17
Y67.366 Z3.352 A-7792.38 F4790.84
Y67.363 Z3.328 A-7797.888 F4617.49
Y67.361 Z3.291 A-7803.4 F4474.22
Y67.359 Z3.24 A-7808.918 F4354.81
Y67.356 Z3.178 A-7814.445 F4271.3
Y67.354 Z3.103 A-7819.982 F4187.68
Y67.352 Z3.016 A-7825.533 F4128.73
Y67.35 Z2.939 A-7830. F5126.66
Y67.348 Z2.862 A-7834.243 F5418.92
Y67.346 Z2.775 A-7838.714 F5163.8
Y67.344 Z2.686 A-7843.198 F5213.72
Z2.643 A-7845.444 F10820.1
Y67.343 Z2.632 A-7846.568 F25196.93
Z2.647 A-7847.693 F23810.96
Y67.342 Z2.688 A-7849.942 F10870.58
Y67.34 Z2.755 A-7853.312 F6994.76
Y67.338 Z2.842 A-7857.795 F5172.04
Y67.337 Z2.904 A-7861.15 F6901.33
Y67.335 Z2.982 A-7865.613 F5148.54
Y67.333 Z3.055 A-7870.066 F5155.8
Y67.331 Z3.137 A-7875.618 F4147.03
Y67.329 Z3.208 A-7881.158 F4199.23
Y67.326 Z3.265 A-7886.686 F4294.34
Y67.324 Z3.309 A-7892.206 F4414.74
Y67.322 Z3.339 A-7897.719 F4546.27
Y67.319 Z3.356 A-7903.227 F4713.17
Y67.317 Z3.358 A-7908.733 F4916.44
Y67.315 Z3.345 A-7914.239 F4772.
Y67.313 Z3.325 A-7918.645 F5754.94
Y67.311 Z3.286 A-7924.158 F4467.43
Y67.308 Z3.235 A-7929.677 F4349.75
Y67.306 Z3.17 A-7935.205 F4243.37
Y67.304 Z3.094 A-7940.744 F4180.13
Y67.302 Z3.008 A-7946.296 F4142.36
Y67.3 Z2.931 A-7950.748 F5153.57
Y67.298 Z2.848 A-7955.21 F5145.05
Y67.296 Z2.76 A-7959.683 F5159.11
Y67.295 Z2.693 A-7963.046 F6969.21
Y67.294 Z2.651 A-7965.292 F10869.8
Y67.293 Z2.633 A-7966.416 F22740.49
Z2.637 A-7967.54 F28517.76
Y67.292 Z2.677 A-7969.791 F10993.74
Y67.29 Z2.768 A-7974.284 F5202.42
Y67.288 Z2.855 A-7978.765 F5149.57
Y67.286 Z2.937 A-7983.235 F5148.65
Y67.284 Z3.03 A-7988.807 F4120.77
Y67.282 Z3.114 A-7994.364 F4145.71
Y67.279 Z3.186 A-7999.907 F4208.06
Y67.277 Z3.248 A-8005.439 F4265.91
Z3.25 A-8005.789 F45000.
Z3.252 A-8006.138 F45000.
Y67.276 Z3.255 A-8006.486 F45000.
Z3.257 A-8006.834 F45000.
Z3.26 A-8007.182 F45000.
Z3.263 A-8007.529 F45000.
Z3.265 A-8007.875 F45000.
Z3.269 A-8008.221 F45000.
Z3.272 A-8008.566 F45000.
Y67.275 Z3.275 A-8008.91 F45000.
Z3.278 A-8009.254 F45000.
Z3.282 A-8009.597 F45000.
Z3.285 A-8009.939 F45000.
Z3.289 A-8010.281 F45000.
Z3.293 A-8010.621 F45000.
Z3.297 A-8010.961 F45000.
Y67.272 Z3.333 A-8016.476 F4479.4
Y67.27 Z3.352 A-8021.985 F4693.5
Y67.268 Z3.357 A-8027.491 F4865.97
Y67.265 Z3.348 A-8032.997 F4817.11
Y67.263 Z3.326 A-8038.505 F4646.56
Y67.261 Z3.289 A-8044.017 F4484.33
Y67.259 Z3.237 A-8049.536 F4342.89
Y67.256 Z3.173 A-8055.064 F4244.7
Y67.254 Z3.097 A-8060.602 F4182.3
Y67.252 Z3.029 A-8065.042 F5194.06
Y67.25 Z2.936 A-8070.605 F4132.63
Y67.248 Z2.857 A-8075.066 F5193.8
Y67.246 Z2.771 A-8079.539 F5179.4
Y67.245 Z2.703 A-8082.9 F6945.66
Y67.244 Z2.66 A-8085.145 F10720.17
Y67.243 Z2.64 A-8086.269 F22296.88
Z2.632 A-8087.393 F26720.25
Y67.242 Z2.646 A-8088.519 F24119.33
Y67.241 Z2.688 A-8090.769 F10849.34
Y67.239 Z2.778 A-8095.261 F5193.17
Y67.237 Z2.886 A-8100.859 F4108.09
Y67.235 Z2.987 A-8106.439 F4082.92
Y67.232 Z3.076 A-8112.003 F4119.54
Y67.23 Z3.154 A-8117.552 F4174.53
Y67.228 Z3.22 A-8123.089 F4241.63
Y67.226 Z3.274 A-8128.615 F4332.57
Y67.223 Z3.315 A-8134.133 F4433.99
Y67.221 Z3.343 A-8139.645 F4573.45
Y67.219 Z3.358 A-8145.153 F4736.61
Y67.217 A-8149.557 F6154.03
Y67.215 Z3.343 A-8155.063 F4739.69
Y67.212 Z3.315 A-8160.572 F4570.71
Y67.21 Z3.274 A-8166.086 F4438.9
Y67.208 Z3.219 A-8171.608 F4326.78
Y67.205 Z3.153 A-8177.138 F4240.3
Y67.203 Z3.074 A-8182.68 F4168.83
Y67.201 Z2.984 A-8188.235 F4125.44
Z2.978 A-8188.532 F45000.
Y67.2 Z2.972 A-8188.831 F45000.
Z2.966 A-8189.13 F45000.
Z2.96 A-8189.43 F45000.
Z2.955 A-8189.732 F45000.
Z2.949 A-8190.035 F45000.
Z2.943 A-8190.339 F45000.
Z2.938 A-8190.644 F45000.
Z2.932 A-8190.951 F45000.
Y67.199 Z2.927 A-8191.258 F45000.
Z2.922 A-8191.567 F45000.
Z2.917 A-8191.877 F45000.
Z2.911 A-8192.187 F45000.
Z2.906 A-8192.499 F45000.
Z2.902 A-8192.812 F45000.
Z2.897 A-8193.126 F45000.
Y67.196 Z2.791 A-8198.712 F4120.69
Y67.194 Z2.679 A-8204.315 F4160.
Y67.193 Z2.637 A-8206.561 F10887.08
Z2.631 A-8207.686 F27744.03
Y67.192 Z2.665 A-8209.722 F12422.29
Y67.19 Z2.731 A-8213.094 F7061.56
Y67.189 Z2.819 A-8217.581 F5188.39
Y67.187 Z2.902 A-8222.055 F5159.51
Y67.185 Z2.981 A-8226.518 F5151.96
Y67.183 Z3.054 A-8230.972 F5158.51
Y67.181 Z3.135 A-8236.525 F4151.92
Y67.178 Z3.206 A-8242.064 F4203.29
Y67.176 Z3.264 A-8247.593 F4289.72
Y67.174 Z3.307 A-8253.113 F4424.36
Y67.171 Z3.337 A-8258.626 F4547.49
Y67.169 Z3.354 A-8264.134 F4717.37
Y67.167 Z3.355 A-8269.641 F4919.19
Y67.165 Z3.343 A-8275.147 F4771.92
Y67.163 Z3.322 A-8279.554 F5755.23
Y67.16 Z3.284 A-8285.067 F4470.57
Y67.158 Z3.233 A-8290.586 F4352.87
Y67.156 Z3.168 A-8296.115 F4246.45
Y67.153 Z3.092 A-8301.654 F4181.49
Y67.151 Z3.005 A-8307.206 F4143.74
Y67.149 Z2.928 A-8311.659 F5157.34
Y67.147 Z2.846 A-8316.121 F5149.55
Y67.146 Z2.758 A-8320.595 F5160.27
Y67.144 Z2.691 A-8323.958 F6988.44
Y67.143 Z2.649 A-8326.204 F10864.42
Z2.631 A-8327.328 F22802.32
Z2.629 A-8327.89 F45000.
Y67.142 Z2.656 A-8329.578 F15186.32
Y67.14 Z2.722 A-8332.952 F7065.09
Y67.139 Z2.811 A-8337.439 F5175.27
Y67.136 Z2.915 A-8343.032 F4113.09
Y67.134 Z3.011 A-8348.607 F4111.24
Y67.132 Z3.097 A-8354.167 F4148.22
Y67.129 Z3.171 A-8359.713 F4198.7
Y67.127 Z3.235 A-8365.247 F4245.56
Z3.237 A-8365.597 F45000.
Z3.24 A-8365.947 F45000.
Z3.242 A-8366.296 F45000.
Y67.126 Z3.245 A-8366.644 F45000.
Z3.248 A-8366.992 F45000.
Z3.251 A-8367.339 F45000.
Z3.254 A-8367.685 F45000.
Z3.257 A-8368.031 F45000.
Z3.26 A-8368.376 F45000.
Z3.263 A-8368.721 F45000.
Y67.125 Z3.267 A-8369.064 F45000.
Z3.271 A-8369.407 F45000.
Z3.274 A-8369.75 F45000.
Z3.278 A-8370.091 F45000.
Z3.282 A-8370.432 F45000.
Z3.286 A-8370.772 F45000.
Y67.122 Z3.324 A-8376.288 F4468.79
Y67.12 Z3.347 A-8381.798 F4639.67
Y67.118 Z3.355 A-8387.305 F4831.23
Y67.115 Z3.349 A-8392.812 F4864.06
Y67.113 Z3.33 A-8398.319 F4681.05
Y67.111 Z3.295 A-8403.831 F4508.6
Y67.109 Z3.246 A-8409.348 F4369.9
Y67.106 Z3.184 A-8414.874 F4260.84
Y67.104 Z3.111 A-8420.411 F4202.84
Y67.102 Z3.044 A-8424.849 F5191.93
Y67.1 Z2.953 A-8430.409 F4141.12
Y67.098 Z2.874 A-8434.869 F5183.69
Y67.096 Z2.79 A-8439.339 F5197.93
Y67.095 Z2.723 A-8442.698 F6941.28
Y67.094 Z2.678 A-8444.942 F10535.06
Y67.093 Z2.637 A-8447.189 F10979.42
Y67.092 Z2.63 A-8448.313 F27101.2
Z2.645 A-8449.438 F23918.75
Y67.091 Z2.687 A-8451.688 F10856.01
Y67.089 Z2.777 A-8456.181 F5194.18
Y67.087 Z2.885 A-8461.779 F4109.44
Y67.085 Z2.966 A-8466.245 F5127.25
Y67.083 Z3.058 A-8471.812 F4109.12
Y67.08 Z3.138 A-8477.364 F4160.74
Y67.078 Z3.206 A-8482.903 F4236.74
Y67.076 Z3.262 A-8488.432 F4309.82
Y67.073 Z3.306 A-8493.952 F4418.47
Y67.071 Z3.337 A-8499.465 F4535.54
Y67.069 Z3.354 A-8504.974 F4713.68
Y67.066 Z3.356 A-8510.48 F4920.54
Y67.064 Z3.341 A-8515.986 F4741.11
Y67.062 Z3.312 A-8521.496 F4572.36
Y67.06 Z3.271 A-8527.01 F4442.86
Y67.057 Z3.217 A-8532.532 F4328.23
Y67.055 Z3.15 A-8538.063 F4242.67
Y67.053 Z3.071 A-8543.605 F4171.04
Y67.05 Z2.981 A-8549.161 F4127.41
Z2.975 A-8549.469 F45000.
Z2.969 A-8549.779 F45000.
Z2.963 A-8550.089 F45000.
Z2.956 A-8550.401 F45000.
Z2.95 A-8550.714 F45000.
Z2.945 A-8551.029 F45000.
Y67.049 Z2.939 A-8551.345 F45000.
Z2.933 A-8551.662 F45000.
Z2.927 A-8551.98 F45000.
Z2.922 A-8552.299 F45000.
Z2.916 A-8552.62 F45000.
Z2.911 A-8552.942 F45000.
Z2.906 A-8553.265 F45000.
Z2.901 A-8553.589 F45000.
Y67.048 Z2.896 A-8553.915 F45000.
Z2.891 A-8554.241 F45000.
Y67.046 Z2.806 A-8558.709 F5158.02
Y67.044 Z2.695 A-8564.309 F4158.07
Y67.043 Z2.651 A-8566.555 F10707.66
Z2.632 A-8567.679 F22284.25
Y67.042 A-8568.804 F30489.15
Y67.041 Z2.664 A-8570.632 F13692.5
Y67.04 Z2.73 A-8574.005 F7066.09
Y67.038 Z2.817 A-8578.491 F5190.9
Y67.036 Z2.901 A-8582.966 F5163.4
Y67.034 Z2.979 A-8587.429 F5153.77
Y67.033 Z3.052 A-8591.883 F5162.83
Y67.03 Z3.133 A-8597.436 F4152.61
Y67.028 Z3.204 A-8602.976 F4208.56
Y67.026 Z3.262 A-8608.505 F4293.63
Y67.023 Z3.305 A-8614.025 F4425.26
Y67.021 Z3.335 A-8619.539 F4553.21
Y67.019 Z3.352 A-8625.047 F4721.5
Y67.016 Z3.353 A-8630.554 F4922.5
Y67.014 Z3.34 A-8636.061 F4773.61
Y67.012 Z3.32 A-8640.468 F5760.73
Y67.01 Z3.281 A-8645.981 F4471.1
Y67.008 Z3.23 A-8651.501 F4354.16
Y67.005 Z3.165 A-8657.03 F4248.54
Y67.003 Z3.089 A-8662.57 F4184.11
Y67.001 Z3.002 A-8668.122 F4146.52
Y66.999 Z2.926 A-8672.575 F5158.54
Y66.997 Z2.843 A-8677.038 F5152.5
Y66.995 Z2.755 A-8681.512 F5166.68
Y66.994 Z2.688 A-8684.876 F6995.46
Y66.993 Z2.646 A-8687.122 F10864.12
Y66.992 Z2.628 A-8688.246 F22838.44
Z2.627 A-8688.808 F45000.
Y66.991 Z2.655 A-8690.496 F15099.89
Y66.99 Z2.721 A-8693.869 F7069.86
Y66.988 Z2.81 A-8698.357 F5180.48
Y66.986 Z2.914 A-8703.95 F4114.36
Y66.984 Z3.01 A-8709.526 F4113.13
Y66.981 Z3.095 A-8715.086 F4150.98
Y66.979 Z3.169 A-8720.632 F4200.63
Y66.977 Z3.233 A-8726.167 F4249.34
Y66.976 Z3.236 A-8726.517 F45000.
Z3.238 A-8726.866 F45000.
Z3.241 A-8727.215 F45000.
Z3.243 A-8727.563 F45000.
Z3.246 A-8727.911 F45000.
Z3.249 A-8728.258 F45000.
Z3.252 A-8728.605 F45000.
Y66.975 Z3.255 A-8728.951 F45000.
Z3.258 A-8729.296 F45000.
Z3.262 A-8729.64 F45000.
Z3.265 A-8729.984 F45000.
Z3.269 A-8730.327 F45000.
Z3.273 A-8730.669 F45000.
Z3.276 A-8731.011 F45000.
Y66.974 Z3.28 A-8731.351 F45000.
Z3.284 A-8731.691 F45000.
Y66.972 Z3.322 A-8737.208 F4473.12
Y66.97 Z3.345 A-8742.718 F4644.22
Y66.967 Z3.353 A-8748.226 F4835.59
Y66.965 Z3.347 A-8753.733 F4866.67
Y66.963 Z3.327 A-8759.241 F4681.07
Y66.961 Z3.292 A-8764.753 F4510.08
Y66.958 Z3.243 A-8770.271 F4369.25
Y66.956 Z3.181 A-8775.797 F4265.27
Y66.954 Z3.108 A-8781.334 F4204.44
Y66.952 Z3.041 A-8785.772 F5197.6
Y66.949 Z2.95 A-8791.333 F4141.49
Y66.948 Z2.871 A-8795.793 F5187.34
Y66.946 Z2.788 A-8800.263 F5202.93
Y66.944 Z2.721 A-8803.623 F6945.14
Y66.943 Z2.675 A-8805.867 F10530.25
Y66.942 Z2.635 A-8808.114 F10996.01
Z2.629 A-8809.238 F27598.58
Z2.644 A-8810.364 F23732.02
Y66.941 Z2.686 A-8812.614 F10839.7
Y66.939 Z2.776 A-8817.106 F5197.61
Y66.936 Z2.884 A-8822.705 F4112.07
Y66.935 Z2.964 A-8827.17 F5129.44
Y66.932 Z3.056 A-8832.738 F4112.65
Y66.93 Z3.137 A-8838.29 F4164.02
Y66.928 Z3.204 A-8843.83 F4239.07
Y66.925 Z3.261 A-8849.359 F4312.53
Y66.923 Z3.304 A-8854.879 F4422.59
Y66.921 Z3.335 A-8860.393 F4538.16
Y66.918 Z3.352 A-8865.902 F4718.36
Y66.916 Z3.353 A-8871.408 F4924.28
Y66.914 Z3.339 A-8876.915 F4743.28
Y66.911 Z3.31 A-8882.425 F4572.84
Y66.909 Z3.268 A-8887.94 F4443.4
Y66.907 Z3.214 A-8893.462 F4328.35
Y66.905 Z3.147 A-8898.993 F4246.11
Y66.902 Z3.068 A-8904.536 F4172.71
Y66.9 Z2.98 A-8910. F4199.94
Y66.898 Z2.905 A-8914.24 F5416.68
Y66.896 Z2.799 A-8919.824 F4113.42
Y66.894 Z2.689 A-8925.426 F4160.58
Y66.893 Z2.645 A-8927.672 F10758.95
Y66.892 Z2.628 A-8928.796 F23133.8
Z2.634 A-8929.921 F27773.76
Y66.891 Z2.675 A-8932.171 F10963.75
Y66.889 Z2.741 A-8935.543 F7030.72
Y66.887 Z2.828 A-8940.028 F5186.62
Y66.886 Z2.911 A-8944.501 F5160.74
Y66.884 Z2.989 A-8948.964 F5150.39
Y66.882 Z3.06 A-8953.416 F5170.84
Y66.88 Z3.125 A-8957.858 F5217.64
Y66.878 Z3.196 A-8963.4 F4202.33
Y66.875 Z3.255 A-8968.93 F4295.29
Y66.873 Z3.3 A-8974.451 F4407.98
Y66.871 Z3.331 A-8979.965 F4543.56
Y66.869 Z3.349 A-8985.475 F4708.81
Y66.866 Z3.351 A-8990.982 F4913.46
Y66.864 Z3.34 A-8996.489 F4795.15
Y66.862 Z3.314 A-9001.999 F4605.8
Y66.859 Z3.274 A-9007.513 F4458.46
Y66.857 Z3.221 A-9013.034 F4338.52
Y66.855 Z3.155 A-9018.564 F4245.23
Y66.852 Z3.077 A-9024.106 F4179.29
Y66.85 Z2.989 A-9029.661 F4141.44
Y66.848 Z2.892 A-9035.23 F4124.18
Y66.846 Z2.807 A-9039.698 F5156.87
Y66.844 Z2.718 A-9044.177 F5180.84
Y66.843 Z2.653 A-9047.544 F7135.27
Y66.842 Z2.625 A-9049.23 F15127.92
Z2.626 A-9049.792 F45000.
Y66.841 Z2.657 A-9051.578 F14116.33
Y66.84 Z2.723 A-9054.951 F7058.13
Y66.838 Z2.812 A-9059.439 F5182.64
Y66.835 Z2.916 A-9065.031 F4118.48
Y66.833 Z3.011 A-9070.606 F4118.88
Y66.831 Z3.096 A-9076.166 F4151.72
Y66.828 Z3.17 A-9081.713 F4203.64
Y66.826 Z3.233 A-9087.247 F4256.12
Z3.236 A-9087.597 F45000.
Z3.238 A-9087.946 F45000.
Z3.24 A-9088.295 F45000.
Z3.243 A-9088.644 F45000.
Y66.825 Z3.246 A-9088.991 F45000.
Z3.249 A-9089.339 F45000.
Z3.252 A-9089.685 F45000.
Z3.255 A-9090.031 F45000.
Z3.258 A-9090.376 F45000.
Z3.261 A-9090.721 F45000.
Z3.265 A-9091.064 F45000.
Y66.824 Z3.268 A-9091.407 F45000.
Z3.272 A-9091.75 F45000.
Z3.276 A-9092.091 F45000.
Z3.28 A-9092.432 F45000.
Z3.284 A-9092.772 F45000.
Y66.822 Z3.321 A-9098.288 F4480.4
Y66.819 Z3.343 A-9103.799 F4654.52
Y66.817 Z3.351 A-9109.307 F4845.25
Y66.815 Z3.344 A-9114.814 F4859.99
Y66.812 Z3.324 A-9120.323 F4679.89
Y66.81 Z3.289 A-9125.835 F4507.07
Y66.808 Z3.239 A-9131.354 F4365.86
Y66.805 Z3.177 A-9136.881 F4264.21
Y66.803 Z3.103 A-9142.419 F4204.46
Y66.801 Z3.036 A-9146.858 F5198.62
Y66.799 Z2.945 A-9152.419 F4146.5
Y66.797 Z2.866 A-9156.88 F5192.41
Y66.795 Z2.782 A-9161.351 F5206.38
Y66.794 Z2.715 A-9164.711 F6940.45
Y66.793 Z2.67 A-9166.956 F10563.31
Y66.792 Z2.63 A-9169.203 F11080.19
Z2.628 A-9170.328 F29771.61
Y66.791 Z2.666 A-9172.578 F11167.62
Y66.789 Z2.734 A-9175.951 F7002.66
Y66.787 Z2.823 A-9180.437 F5166.35
Y66.785 Z2.907 A-9184.911 F5143.37
Y66.784 Z2.986 A-9189.374 F5136.83
Y66.781 Z3.075 A-9194.938 F4127.37
Y66.779 Z3.151 A-9200.487 F4186.36
Y66.777 Z3.217 A-9206.025 F4254.49
Y66.774 Z3.269 A-9211.552 F4347.59
Y66.772 Z3.311 A-9217.07 F4441.01
Y66.77 Z3.338 A-9222.583 F4585.8
Y66.767 Z3.352 A-9228.091 F4757.75
Y66.765 Z3.349 A-9233.598 F4902.79
Y66.763 Z3.331 A-9239.106 F4711.73
Y66.761 Z3.299 A-9244.617 F4538.14
Y66.758 Z3.255 A-9250.134 F4424.76
Y66.756 Z3.196 A-9255.658 F4294.45
Y66.754 Z3.128 A-9261.193 F4237.78
Y66.751 Z3.046 A-9266.739 F4162.35
Z3.04 A-9267.059 F45000.
Z3.034 A-9267.381 F45000.
Z3.028 A-9267.703 F45000.
Z3.022 A-9268.027 F45000.
Z3.016 A-9268.353 F45000.
Z3.01 A-9268.679 F45000.
Y66.75 Z3.004 A-9269.007 F45000.
Z2.999 A-9269.336 F45000.
Z2.993 A-9269.667 F45000.
Z2.988 A-9269.998 F45000.
Z2.983 A-9270.331 F45000.
Z2.977 A-9270.665 F45000.
Z2.972 A-9271. F45000.
Y66.749 Z2.967 A-9271.336 F45000.
Z2.963 A-9271.673 F45000.
Z2.958 A-9272.011 F45000.
Y66.747 Z2.857 A-9277.586 F4120.69
Y66.745 Z2.771 A-9282.058 F5177.63
Y66.743 Z2.682 A-9286.542 F5224.93
Y66.742 Z2.639 A-9288.789 F10809.39
Z2.625 A-9289.913 F24212.83
Y66.741 Z2.636 A-9291.038 F25500.08
Y66.74 Z2.677 A-9293.289 F10917.41
Y66.739 Z2.744 A-9296.66 F7014.62
Y66.737 Z2.831 A-9301.144 F5187.95
Y66.736 Z2.893 A-9304.5 F6915.68
Y66.734 Z2.971 A-9308.965 F5162.04
Y66.732 Z3.044 A-9313.419 F5170.05
Y66.73 Z3.126 A-9318.974 F4153.96
Y66.727 Z3.197 A-9324.515 F4209.94
Y66.725 Z3.255 A-9330.045 F4302.16
Y66.723 Z3.299 A-9335.566 F4416.4
Y66.72 Z3.33 A-9341.081 F4554.55
Y66.718 Z3.347 A-9346.591 F4720.04
Y66.716 Z3.349 A-9352.098 F4922.2
Y66.714 Z3.337 A-9357.606 F4787.75
Y66.711 Z3.31 A-9363.116 F4601.22
Y66.709 Z3.27 A-9368.63 F4456.85
Y66.707 Z3.216 A-9374.152 F4337.4
Y66.704 Z3.15 A-9379.683 F4246.07
Y66.702 Z3.071 A-9385.226 F4178.5
Y66.7 Z2.983 A-9390.781 F4140.78
Y66.697 Z2.885 A-9396.352 F4126.08
Y66.695 Z2.8 A-9400.82 F5161.03
Y66.694 Z2.711 A-9405.3 F5190.86
Y66.692 Z2.647 A-9408.668 F7157.78
Z2.628 A-9409.792 F22560.34
Y66.691 A-9410.917 F30734.59
Y66.69 Z2.665 A-9412.969 F12070.44
Y66.689 Z2.754 A-9417.464 F5247.78
Y66.687 Z2.841 A-9421.947 F5169.65
Y66.684 Z2.942 A-9427.535 F4119.17
Y66.682 Z3.035 A-9433.106 F4127.06
Y66.68 Z3.116 A-9438.662 F4174.4
Y66.677 Z3.187 A-9444.205 F4220.09
Y66.675 Z3.247 A-9449.737 F4286.5
Z3.249 A-9450.087 F45000.
Z3.251 A-9450.436 F45000.
Z3.253 A-9450.784 F45000.
Z3.256 A-9451.132 F45000.
Y66.674 Z3.258 A-9451.479 F45000.
Z3.261 A-9451.826 F45000.
Z3.264 A-9452.173 F45000.
Z3.267 A-9452.518 F45000.
Z3.27 A-9452.863 F45000.
Z3.273 A-9453.208 F45000.
Z3.276 A-9453.552 F45000.
Y66.673 Z3.279 A-9453.895 F45000.
Z3.283 A-9454.237 F45000.
Z3.286 A-9454.579 F45000.
Z3.29 A-9454.919 F45000.
Z3.294 A-9455.259 F45000.
Y66.671 Z3.328 A-9460.774 F4511.22
Y66.668 Z3.345 A-9466.285 F4728.2
Y66.666 Z3.348 A-9471.792 F4906.61
Y66.664 Z3.338 A-9477.3 F4808.75
Y66.661 Z3.313 A-9482.81 F4623.91
Y66.659 Z3.274 A-9488.324 F4468.41
Y66.657 Z3.22 A-9493.845 F4335.11
Y66.654 Z3.154 A-9499.376 F4247.72
Y66.652 Z3.078 A-9504.917 F4191.24
Y66.65 Z3.009 A-9509.36 F5204.04
Y66.648 Z2.934 A-9513.812 F5180.88
Y66.647 Z2.855 A-9518.273 F5201.4
Y66.645 Z2.77 A-9522.746 F5200.41
Y66.643 Z2.68 A-9527.23 F5208.6
Y66.642 Z2.638 A-9529.477 F10898.72
Y66.641 Z2.623 A-9530.601 F24093.64
Z2.634 A-9531.726 F25768.26
Y66.64 Z2.674 A-9533.977 F10964.54
Y66.638 Z2.764 A-9538.471 F5216.71
Y66.636 Z2.872 A-9544.071 F4115.87
Y66.634 Z2.953 A-9548.538 F5140.05
Y66.632 Z3.046 A-9554.108 F4110.35
Y66.629 Z3.127 A-9559.662 F4166.01
Y66.627 Z3.196 A-9565.203 F4239.73
Y66.625 Z3.253 A-9570.733 F4308.61
Y66.622 Z3.297 A-9576.255 F4420.02
Y66.62 Z3.329 A-9581.77 F4540.6
Y66.618 Z3.347 A-9587.279 F4710.3
Y66.616 Z3.35 A-9592.787 F4912.53
Y66.613 Z3.336 A-9598.294 F4761.48
Y66.611 Z3.308 A-9603.805 F4589.52
Y66.609 Z3.267 A-9609.32 F4452.69
Y66.606 Z3.214 A-9614.842 F4343.43
Y66.604 Z3.148 A-9620.373 F4255.4
Y66.602 Z3.07 A-9625.916 F4183.62
Z3.064 A-9626.226 F45000.
Y66.601 Z3.059 A-9626.537 F45000.
Z3.053 A-9626.849 F45000.
Z3.047 A-9627.162 F45000.
Z3.042 A-9627.477 F45000.
Z3.037 A-9627.792 F45000.
Z3.031 A-9628.109 F45000.
Z3.026 A-9628.426 F45000.
Z3.021 A-9628.745 F45000.
Y66.6 Z3.016 A-9629.065 F45000.
Z3.011 A-9629.386 F45000.
Z3.007 A-9629.708 F45000.
Z3.002 A-9630.031 F45000.
Z2.997 A-9630.355 F45000.
Z2.993 A-9630.68 F45000.
Z2.988 A-9631.006 F45000.
Y66.597 Z2.893 A-9636.468 F4203.01
Y66.595 Z2.787 A-9642.054 F4125.52
Y66.593 Z2.675 A-9647.658 F4167.45
Y66.592 Z2.633 A-9649.905 F10877.06
Y66.591 Z2.623 A-9651.03 F25677.02
Z2.638 A-9652.155 F23854.2
Y66.59 Z2.68 A-9654.405 F10864.99
Y66.588 Z2.747 A-9657.776 F7006.67
Y66.587 Z2.833 A-9662.261 F5189.
Y66.585 Z2.895 A-9665.616 F6918.49
Y66.583 Z2.973 A-9670.081 F5162.84
Y66.581 Z3.046 A-9674.535 F5174.07
Y66.579 Z3.127 A-9680.089 F4161.13
Y66.577 Z3.197 A-9685.63 F4217.29
Y66.575 Z3.254 A-9691.16 F4309.53
Y66.572 Z3.298 A-9696.681 F4424.78
Y66.57 Z3.328 A-9702.196 F4561.6
Y66.568 Z3.345 A-9707.706 F4730.24
Y66.565 Z3.346 A-9713.214 F4930.03
Y66.563 Z3.333 A-9718.722 F4778.16
Y66.561 Z3.306 A-9724.232 F4596.76
Y66.558 Z3.265 A-9729.748 F4454.74
Y66.556 Z3.211 A-9735.27 F4335.13
Y66.554 Z3.144 A-9740.802 F4244.96
Y66.552 Z3.066 A-9746.345 F4183.6
Y66.549 Z2.977 A-9751.902 F4140.79
Y66.547 Z2.899 A-9756.358 F5173.22
Y66.545 Z2.816 A-9760.825 F5170.1
Y66.544 Z2.727 A-9765.302 F5182.93
Y66.542 Z2.661 A-9768.669 F7071.73
Y66.541 Z2.623 A-9770.917 F11207.23
Z2.622 A-9771.479 F45000.
Z2.629 A-9772.042 F45000.
Y66.539 Z2.694 A-9775.417 F7165.46
Y66.538 Z2.783 A-9779.908 F5216.11
Y66.536 Z2.868 A-9784.388 F5163.42
Y66.533 Z2.967 A-9789.971 F4118.62
Y66.531 Z3.056 A-9795.538 F4147.3
Y66.529 Z3.134 A-9801.091 F4191.29
Y66.526 Z3.202 A-9806.631 F4234.48
Z3.205 A-9806.982 F45000.
Z3.208 A-9807.332 F45000.
Z3.211 A-9807.682 F45000.
Z3.214 A-9808.031 F45000.
Z3.217 A-9808.379 F45000.
Z3.22 A-9808.727 F45000.
Y66.525 Z3.224 A-9809.074 F45000.
Z3.227 A-9809.42 F45000.
Z3.231 A-9809.765 F45000.
Z3.234 A-9810.11 F45000.
Z3.238 A-9810.454 F45000.
Z3.242 A-9810.797 F45000.
Z3.246 A-9811.139 F45000.
Y66.524 Z3.25 A-9811.48 F45000.
Z3.255 A-9811.821 F45000.
Z3.259 A-9812.16 F45000.
Y66.522 Z3.302 A-9817.68 F4426.18
Y66.52 Z3.331 A-9823.194 F4579.44
Y66.517 Z3.345 A-9828.704 F4762.07
Y66.515 A-9834.212 F4938.79
Y66.513 Z3.33 A-9839.72 F4754.84
Y66.51 Z3.301 A-9845.231 F4584.6
Y66.508 Z3.258 A-9850.748 F4431.94
Y66.506 Z3.201 A-9856.271 F4308.42
Y66.503 Z3.132 A-9861.805 F4231.52
Y66.501 Z3.052 A-9867.35 F4172.2
Y66.499 Z2.962 A-9872.909 F4153.
Y66.497 Z2.885 A-9877.367 F5188.31
Y66.495 Z2.802 A-9881.836 F5205.76
Y66.493 Z2.714 A-9886.315 F5212.92
Y66.492 Z2.669 A-9888.56 F10538.43
Y66.491 Z2.628 A-9890.807 F11014.04
Z2.623 A-9891.932 F28159.3
Y66.49 Z2.639 A-9893.057 F23480.19
Y66.489 Z2.681 A-9895.308 F10859.21
Y66.488 Z2.771 A-9899.801 F5205.18
Y66.485 Z2.879 A-9905.4 F4118.04
Y66.483 Z2.959 A-9909.866 F5140.99
Y66.481 Z3.051 A-9915.435 F4120.71
Y66.479 Z3.131 A-9920.988 F4173.11
Y66.476 Z3.198 A-9926.529 F4246.95
Y66.474 Z3.254 A-9932.059 F4319.89
Y66.472 Z3.298 A-9937.58 F4433.
Y66.47 Z3.329 A-9943.094 F4545.43
Y66.467 Z3.346 A-9948.604 F4729.29
Y66.465 Z3.349 A-9953.01 F6120.78
Y66.463 Z3.336 A-9958.518 F4778.48
Y66.461 Z3.31 A-9964.028 F4608.36
Y66.459 Z3.27 A-9969.543 F4460.34
Y66.456 Z3.218 A-9975.065 F4362.74
Y66.454 Z3.154 A-9980.595 F4267.23
Y66.452 Z3.078 A-9986.137 F4196.96
Y66.451 Z3.071 A-9986.493 F45000.
Z3.065 A-9986.851 F45000.
Z3.058 A-9987.21 F45000.
Z3.052 A-9987.571 F45000.
Z3.045 A-9987.933 F45000.
Z3.039 A-9988.297 F45000.
Z3.033 A-9988.662 F45000.
Y66.45 Z3.027 A-9989.029 F45000.
Z3.021 A-9989.397 F45000.
Z3.016 A-9989.766 F45000.
Z3.01 A-9990.137 F45000.
Z3.005 A-9990.509 F45000.
Z2.999 A-9990.883 F45000.
Y66.449 Z2.994 A-9991.258 F45000.
Z2.989 A-9991.634 F45000.
Z2.984 A-9992.011 F45000.
Y66.447 Z2.907 A-9996.466 F5167.98
Y66.445 Z2.802 A-10002.05 F4121.6
Y66.443 Z2.714 A-10006.53 F5220.55
Y66.442 Z2.669 A-10008.774 F10539.65
Y66.441 Z2.628 A-10011.021 F10947.06
Z2.623 A-10012.146 F28425.79
Y66.44 Z2.639 A-10013.221 F24276.25
Y66.439 Z2.704 A-10016.596 F7149.92
Y66.437 Z2.793 A-10021.086 F5200.21
Y66.435 Z2.876 A-10025.564 F5199.07
Y66.433 Z2.955 A-10030.03 F5169.99
Y66.431 Z3.046 A-10035.599 F4125.67
Y66.429 Z3.128 A-10041.154 F4162.69
Y66.426 Z3.197 A-10046.695 F4223.34
Y66.424 Z3.254 A-10052.225 F4316.58
Y66.422 Z3.297 A-10057.746 F4432.82
Y66.419 Z3.327 A-10063.261 F4569.37
Y66.417 Z3.343 A-10068.771 F4739.11
Y66.415 Z3.344 A-10074.279 F4935.96
Y66.413 Z3.331 A-10079.788 F4772.89
Y66.41 Z3.303 A-10085.299 F4594.63
Y66.408 Z3.261 A-10090.815 F4452.59
Y66.406 Z3.207 A-10096.338 F4333.56
Y66.403 Z3.139 A-10101.871 F4243.97
Y66.401 Z3.061 A-10107.415 F4187.91
Y66.399 Z2.99 A-10111.859 F5192.11
Y66.397 Z2.914 A-10116.314 F5171.84
Y66.396 Z2.831 A-10120.778 F5168.41
Y66.394 Z2.744 A-10125.254 F5182.8
Y66.392 Z2.677 A-10128.618 F7019.14
Y66.391 Z2.635 A-10130.865 F10917.82
Z2.619 A-10131.99 F23649.39
Z2.622 A-10132.552 F45000.
Y66.39 Z2.652 A-10134.241 F14890.08
Y66.388 Z2.74 A-10138.737 F5263.71
Y66.386 Z2.828 A-10143.222 F5183.34
Y66.384 Z2.93 A-10148.812 F4121.15
Y66.382 Z3.023 A-10154.385 F4133.89
Y66.379 Z3.105 A-10159.944 F4173.09
Y66.377 Z3.177 A-10165.488 F4217.23
Z3.18 A-10165.84 F45000.
Z3.183 A-10166.191 F45000.
Y66.376 Z3.186 A-10166.541 F45000.
Z3.189 A-10166.89 F45000.
Z3.193 A-10167.239 F45000.
Z3.196 A-10167.587 F45000.
Z3.2 A-10167.935 F45000.
Z3.204 A-10168.281 F45000.
Z3.207 A-10168.627 F45000.
Y66.375 Z3.211 A-10168.972 F45000.
Z3.215 A-10169.316 F45000.
Z3.22 A-10169.659 F45000.
Z3.224 A-10170.001 F45000.
Z3.228 A-10170.342 F45000.
Z3.233 A-10170.682 F45000.
Z3.238 A-10171.022 F45000.
Y66.372 Z3.286 A-10176.545 F4377.11
Y66.37 Z3.321 A-10182.062 F4507.33
Y66.368 Z3.339 A-10187.573 F4715.84
Y66.365 Z3.345 A-10193.081 F4886.46
Y66.363 Z3.335 A-10198.59 F4820.43
Y66.361 Z3.311 A-10204.1 F4643.86
Y66.358 Z3.273 A-10209.614 F4491.03
Y66.356 Z3.221 A-10215.136 F4352.66
Y66.354 Z3.157 A-10220.666 F4259.98
Y66.352 Z3.097 A-10225.098 F5260.55
Y66.35 Z3.029 A-10229.538 F5208.05
Y66.348 Z2.938 A-10235.101 F4151.
Y66.346 Z2.859 A-10239.562 F5204.02
Y66.344 Z2.776 A-10244.034 F5216.13
Y66.343 Z2.708 A-10247.395 F6950.78
Y66.342 Z2.663 A-10249.64 F10558.94
Y66.341 Z2.642 A-10250.763 F21869.85
Z2.624 A-10251.887 F22813.97
Y66.34 Z2.623 A-10253.012 F30520.67
Z2.658 A-10255.077 F12252.07
Y66.338 Z2.725 A-10258.451 F7019.29
Y66.337 Z2.792 A-10261.817 F6937.01
Y66.335 Z2.877 A-10266.295 F5163.25
Y66.333 Z2.957 A-10270.762 F5143.75
Y66.331 Z3.049 A-10276.33 F4123.36
Y66.328 Z3.129 A-10281.884 F4176.06
Y66.326 Z3.196 A-10287.425 F4249.21
Y66.324 Z3.252 A-10292.955 F4322.31
Y66.321 Z3.296 A-10298.477 F4435.77
Y66.319 Z3.327 A-10303.992 F4549.07
Y66.317 Z3.343 A-10309.502 F4732.57
Y66.315 Z3.347 A-10313.909 F6126.66
Y66.313 Z3.334 A-10319.417 F4780.3
Y66.31 Z3.308 A-10324.927 F4610.71
Y66.308 Z3.268 A-10330.442 F4463.52
Y66.306 Z3.216 A-10335.964 F4365.35
Y66.304 Z3.152 A-10341.495 F4268.01
Y66.301 Z3.076 A-10347.037 F4199.46
Z3.068 A-10347.406 F45000.
Z3.062 A-10347.776 F45000.
Z3.055 A-10348.148 F45000.
Z3.048 A-10348.522 F45000.
Y66.3 Z3.042 A-10348.897 F45000.
Z3.035 A-10349.273 F45000.
Z3.029 A-10349.652 F45000.
Z3.023 A-10350.032 F45000.
Z3.017 A-10350.413 F45000.
Z3.011 A-10350.796 F45000.
Y66.299 Z3.005 A-10351.18 F45000.
Z3. A-10351.566 F45000.
Z2.994 A-10351.954 F45000.
Z2.989 A-10352.342 F45000.
Z2.984 A-10352.732 F45000.
Z2.978 A-10353.124 F45000.
Y66.297 Z2.901 A-10357.58 F5172.4
Y66.295 Z2.795 A-10363.164 F4122.22
Y66.293 Z2.708 A-10367.645 F5224.88
Y66.291 Z2.641 A-10371.013 F7092.06
Z2.622 A-10372.137 F22555.9
Y66.29 Z2.624 A-10373.262 F30249.57
Y66.289 Z2.659 A-10375.302 F12258.93
Y66.288 Z2.726 A-10378.675 F7055.17
Y66.286 Z2.834 A-10384.282 F4148.07
Y66.284 Z2.896 A-10387.638 F6922.23
Y66.282 Z2.974 A-10392.102 F5166.02
Y66.281 Z3.045 A-10396.556 F5185.1
Y66.278 Z3.126 A-10402.11 F4165.48
Y66.276 Z3.196 A-10407.652 F4227.97
Y66.274 Z3.252 A-10413.182 F4320.95
Y66.271 Z3.295 A-10418.704 F4437.5
Y66.269 Z3.325 A-10424.218 F4576.22
Y66.267 Z3.341 A-10429.729 F4741.85
Y66.264 Z3.342 A-10435.238 F4939.75
Y66.262 Z3.328 A-10440.746 F4770.23
Y66.26 Z3.3 A-10446.258 F4596.51
Y66.258 Z3.259 A-10451.774 F4453.92
Y66.255 Z3.204 A-10457.298 F4335.67
Y66.253 Z3.136 A-10462.831 F4243.91
Y66.251 Z3.058 A-10468.376 F4189.87
Y66.249 Z2.987 A-10472.821 F5194.44
Y66.247 Z2.91 A-10477.276 F5177.29
Y66.245 Z2.828 A-10481.741 F5169.64
Y66.243 Z2.74 A-10486.217 F5184.89
Y66.242 Z2.673 A-10489.582 F7032.91
Y66.241 Z2.632 A-10491.829 F10927.53
Y66.24 Z2.617 A-10492.953 F24153.52
Z2.63 A-10494.079 F24651.38
Y66.239 Z2.696 A-10497.454 F7135.62
Y66.237 Z2.784 A-10501.945 F5221.55
Y66.235 Z2.869 A-10506.425 F5167.18
Y66.232 Z2.968 A-10512.008 F4125.8
Y66.23 Z3.056 A-10517.575 F4150.05
Y66.228 Z3.134 A-10523.127 F4200.52
Y66.226 Z3.201 A-10528.667 F4241.61
Y66.225 Z3.204 A-10529.018 F45000.
Z3.207 A-10529.368 F45000.
Z3.209 A-10529.718 F45000.
Z3.212 A-10530.067 F45000.
Z3.215 A-10530.415 F45000.
Z3.219 A-10530.763 F45000.
Z3.222 A-10531.11 F45000.
Y66.224 Z3.225 A-10531.456 F45000.
Z3.229 A-10531.802 F45000.
Z3.233 A-10532.146 F45000.
Z3.236 A-10532.49 F45000.
Z3.24 A-10532.833 F45000.
Z3.244 A-10533.175 F45000.
Z3.249 A-10533.517 F45000.
Y66.223 Z3.253 A-10533.857 F45000.
Z3.257 A-10534.197 F45000.
Y66.221 Z3.3 A-10539.718 F4435.71
Y66.219 Z3.328 A-10545.232 F4595.24
Y66.216 Z3.341 A-10550.742 F4778.45
Y66.214 Z3.34 A-10556.25 F4940.29
Y66.212 Z3.324 A-10561.76 F4754.62
Y66.209 Z3.295 A-10567.272 F4580.74
Y66.207 Z3.251 A-10572.789 F4427.77
Y66.205 Z3.193 A-10578.314 F4307.69
Y66.203 Z3.124 A-10583.849 F4233.89
Y66.2 Z3.043 A-10589.396 F4178.63
Y66.198 Z2.953 A-10594.956 F4152.81
Y66.196 Z2.875 A-10599.415 F5197.79
Y66.194 Z2.793 A-10603.885 F5216.33
Y66.192 Z2.705 A-10608.366 F5215.02
Y66.191 Z2.659 A-10610.611 F10577.47
Z2.639 A-10611.734 F21914.71
Y66.19 Z2.621 A-10612.859 F23015.6
Z2.623 A-10613.984 F30088.19
Y66.189 Z2.658 A-10616.051 F12183.28
Y66.188 Z2.725 A-10619.425 F7026.2
Y66.186 Z2.792 A-10622.791 F6931.65
Y66.184 Z2.877 A-10627.269 F5167.26
Y66.183 Z2.957 A-10631.736 F5147.52
Y66.18 Z3.048 A-10637.305 F4127.49
Y66.178 Z3.128 A-10642.858 F4179.87
Y66.176 Z3.195 A-10648.4 F4253.18
Y66.173 Z3.251 A-10653.93 F4326.01
Y66.171 Z3.294 A-10659.452 F4440.71
Y66.169 Z3.325 A-10664.967 F4551.41
Y66.166 Z3.341 A-10670.478 F4740.09
Y66.165 Z3.344 A-10674.884 F6137.97
Y66.162 Z3.331 A-10680.393 F4781.08
Y66.16 Z3.305 A-10685.904 F4612.31
Y66.158 Z3.265 A-10691.419 F4463.21
Y66.155 Z3.213 A-10696.942 F4366.24
Y66.153 Z3.148 A-10702.474 F4270.39
Y66.151 Z3.072 A-10708.016 F4200.34
Z3.065 A-10708.392 F45000.
Z3.058 A-10708.77 F45000.
Y66.15 Z3.051 A-10709.15 F45000.
Z3.044 A-10709.532 F45000.
Z3.037 A-10709.915 F45000.
Z3.031 A-10710.3 F45000.
Z3.024 A-10710.687 F45000.
Z3.018 A-10711.075 F45000.
Y66.149 Z3.012 A-10711.465 F45000.
Z3.006 A-10711.856 F45000.
Z3. A-10712.249 F45000.
Z2.994 A-10712.643 F45000.
Z2.989 A-10713.039 F45000.
Z2.983 A-10713.437 F45000.
Y66.148 Z2.978 A-10713.836 F45000.
Z2.973 A-10714.236 F45000.
Y66.146 Z2.895 A-10718.693 F5174.85
Y66.145 Z2.811 A-10723.16 F5166.23
Y66.143 Z2.723 A-10727.638 F5211.37
Y66.141 Z2.656 A-10731.005 F7041.99
Z2.635 A-10732.129 F21889.42
Y66.14 Z2.618 A-10733.253 F23290.64
Z2.625 A-10734.378 F27468.
Y66.139 Z2.666 A-10736.629 F10981.37
Y66.137 Z2.733 A-10740.002 F7034.85
Y66.136 Z2.819 A-10744.488 F5203.21
Y66.134 Z2.902 A-10748.962 F5174.08
Y66.132 Z2.96 A-10752.311 F6934.88
Y66.13 Z3.05 A-10757.879 F4134.48
Y66.128 Z3.13 A-10763.433 F4168.67
Y66.125 Z3.199 A-10768.973 F4236.99
Y66.123 Z3.254 A-10774.503 F4334.31
Y66.121 Z3.295 A-10780.025 F4453.26
Y66.119 Z3.324 A-10785.54 F4592.13
Y66.116 Z3.339 A-10791.05 F4753.17
Y66.114 Z3.34 A-10796.559 F4947.22
Y66.112 Z3.324 A-10802.068 F4751.26
Y66.109 Z3.295 A-10807.581 F4586.69
Y66.107 Z3.253 A-10813.098 F4446.14
Y66.105 Z3.197 A-10818.623 F4327.67
Y66.102 Z3.128 A-10824.157 F4238.53
Y66.1 Z3.049 A-10829.703 F4186.64
Y66.098 Z2.959 A-10835.262 F4151.67
Y66.096 Z2.88 A-10839.721 F5174.93
Y66.094 Z2.796 A-10844.19 F5173.19
Y66.092 Z2.707 A-10848.671 F5201.75
Y66.091 Z2.642 A-10852.039 F7151.53
Y66.09 Z2.616 A-10853.726 F15398.15
Z2.618 A-10854.288 F45000.
Y66.089 Z2.649 A-10856.079 F14049.51
Y66.087 Z2.738 A-10860.577 F5264.84
Y66.085 Z2.825 A-10865.062 F5189.17
Y66.083 Z2.927 A-10870.652 F4125.96
Y66.081 Z3.02 A-10876.226 F4138.06
Y66.078 Z3.102 A-10881.784 F4182.3
Y66.076 Z3.174 A-10887.33 F4221.42
Z3.177 A-10887.681 F45000.
Z3.18 A-10888.032 F45000.
Z3.183 A-10888.382 F45000.
Z3.186 A-10888.732 F45000.
Y66.075 Z3.189 A-10889.081 F45000.
Z3.193 A-10889.429 F45000.
Z3.196 A-10889.776 F45000.
Z3.2 A-10890.123 F45000.
Z3.204 A-10890.468 F45000.
Z3.208 A-10890.813 F45000.
Z3.212 A-10891.157 F45000.
Y66.074 Z3.216 A-10891.5 F45000.
Z3.22 A-10891.843 F45000.
Z3.225 A-10892.184 F45000.
Z3.229 A-10892.524 F45000.
Z3.234 A-10892.864 F45000.
Y66.072 Z3.282 A-10898.388 F4383.46
Y66.069 Z3.317 A-10903.905 F4516.62
Y66.067 Z3.335 A-10909.417 F4721.97
Y66.065 Z3.34 A-10914.926 F4892.63
Y66.062 Z3.33 A-10920.435 F4821.71
Y66.06 Z3.306 A-10925.946 F4648.19
Y66.058 Z3.268 A-10931.461 F4490.52
Y66.055 Z3.216 A-10936.983 F4355.63
Y66.053 Z3.151 A-10942.514 F4264.44
Y66.051 Z3.091 A-10946.947 F5269.33
Y66.049 Z3.024 A-10951.388 F5211.03
Y66.047 Z2.933 A-10956.951 F4155.84
Y66.045 Z2.854 A-10961.413 F5210.97
Y66.043 Z2.77 A-10965.886 F5221.94
Y66.042 Z2.703 A-10969.248 F6956.57
Y66.041 Z2.658 A-10971.493 F10573.62
Z2.637 A-10972.616 F21917.02
Y66.04 Z2.619 A-10973.741 F23079.14
Z2.621 A-10974.866 F30010.71
Y66.039 Z2.656 A-10976.939 F12194.74
Y66.037 Z2.723 A-10980.312 F7026.88
Y66.036 Z2.79 A-10983.679 F6932.43
Y66.034 Z2.875 A-10988.157 F5170.93
Y66.032 Z2.955 A-10992.624 F5150.46
Y66.03 Z3.046 A-10998.193 F4129.83
Y66.028 Z3.126 A-11003.747 F4182.73
Y66.025 Z3.193 A-11009.289 F4255.29
Y66.023 Z3.249 A-11014.819 F4329.71
Y66.021 Z3.292 A-11020.342 F4442.72
Y66.018 Z3.323 A-11025.857 F4554.92
Y66.016 Z3.339 A-11031.368 F4743.12
Y66.014 Z3.342 A-11035.775 F6143.02
Y66.012 Z3.329 A-11041.284 F4783.23
Y66.01 Z3.303 A-11046.795 F4614.78
Y66.007 Z3.262 A-11052.311 F4465.76
Y66.005 Z3.211 A-11057.834 F4369.1
Y66.003 Z3.146 A-11063.366 F4271.96
Y66. Z3.07 A-11068.909 F4202.88
Z3.064 A-11069.233 F45000.
Z3.058 A-11069.558 F45000.
Z3.052 A-11069.884 F45000.
Z3.046 A-11070.212 F45000.
Z3.04 A-11070.541 F45000.
Z3.035 A-11070.871 F45000.
Y65.999 Z3.029 A-11071.202 F45000.
Z3.024 A-11071.535 F45000.
Z3.019 A-11071.868 F45000.
Z3.014 A-11072.203 F45000.
Z3.009 A-11072.539 F45000.
Z3.004 A-11072.876 F45000.
Z2.999 A-11073.214 F45000.
Z2.994 A-11073.553 F45000.
